MingxuanLei/DMarm_date_collection/data/episode_01/trajectory/teach_record_20260630_213025.csv
time_s,loop_count,master_q1,master_q2,master_q3,master_q4,master_q5,master_q6,slave_target_q1,slave_target_q2,slave_target_q3,slave_target_q4,slave_target_q5,slave_target_q6,slave_actual_q1,slave_actual_q2,slave_actual_q3,slave_actual_q4,slave_actual_q5,slave_actual_q6,slave_actual_v1,slave_actual_v2,slave_actual_v3,slave_actual_v4,slave_actual_v5,slave_actual_v6,master_tool,slave_tool_target,slave_tool_actual,slave_tool_actual_vel
0.02806926,5,3.09953498,-1.69981272,-3.09912880,-0.00076294,1.49298764,0.00000000,3.09964484,-1.64970872,-3.09925380,-0.00063794,1.49536264,-0.00012500,3.09953498,-1.65022166,-3.09951027,-0.00038147,1.50023556,-0.00038147,-0.00488281,-0.00488281,0.00488281,-0.01464844,0.01464844,-0.01464844,-0.00114441,-0.00089441,-0.00038147,-0.02441406
0.04239058,10,3.09953498,-1.69981272,-3.09912880,-0.00076294,1.49298764,0.00000000,3.09957098,-1.64954064,-3.09916976,-0.00072198,1.49376588,-0.00004096,3.09953498,-1.65022166,-3.09951027,-0.00038147,1.50023556,-0.00038147,-0.00488281,-0.00488281,0.00488281,-0.01464844,0.02929688,0.00000000,-0.00114441,-0.00116015,-0.00038147,-0.02441406
0.05689645,15,3.09953498,-1.69981272,-3.09912880,-0.00076294,1.49298764,0.00000000,3.09960781,-1.64948556,-3.09914222,-0.00074952,1.49324265,-0.00001342,3.09953498,-1.65022166,-3.09951027,-0.00038147,1.49985409,-0.00038147,-0.00976562,-0.00488281,0.00488281,-0.01464844,-0.01464844,-0.01464844,-0.00152588,-0.00156485,-0.00038147,-0.02441406
0.07154083,20,3.09953498,-1.69981272,-3.09912880,-0.00076294,1.49298764,0.00000000,3.09955884,-1.64946752,-3.09913320,-0.00075854,1.49307120,-0.00000440,3.09953498,-1.65022166,-3.09951027,-0.00038147,1.49947262,-0.00038147,-0.00488281,-0.00488281,-0.00000000,-0.01464844,-0.02929688,-0.01464844,-0.00114441,-0.00128218,-0.00038147,0.00000000
0.08499336,25,3.09953498,-1.69981272,-3.09912880,-0.00076294,1.49298764,0.00000000,3.09954280,-1.64946160,-3.09913024,-0.00076150,1.49301502,-0.00000144,3.09953498,-1.65022166,-3.09951027,-0.00038147,1.49870968,-0.00038147,-0.00488281,-0.00976562,0.00488281,-0.01464844,-0.04394531,-0.02929688,-0.00114441,-0.00118955,-0.00038147,-0.02441406
0.10001802,30,3.09991645,-1.69981272,-3.09912880,-0.00076294,1.49298764,0.00000000,3.09961383,-1.64945966,-3.09912927,-0.00076247,1.49299661,-0.00000047,3.09953498,-1.65022166,-3.09951027,-0.00038147,1.49718381,-0.00038147,-0.00488281,-0.00488281,-0.00000000,0.00000000,-0.05859375,-0.01464844,-0.00114441,-0.00115920,-0.00038147,0.00000000
0.11658311,35,3.09953498,-1.69981272,-3.09912880,-0.00076294,1.49298764,0.00000000,3.09956082,-1.64945903,-3.09912896,-0.00076278,1.49299058,-0.00000015,3.09953498,-1.65022166,-3.09951027,-0.00038147,1.49642087,-0.00038147,-0.00488281,-0.00488281,0.00976562,-0.02929688,-0.01464844,0.00000000,-0.00114441,-0.00127133,-0.00038147,-0.02441406
0.13090348,40,3.09953498,-1.69981272,-3.09912880,-0.00076294,1.49298764,0.00000000,3.09954344,-1.64945882,-3.09912885,-0.00076289,1.49298860,-0.00000005,3.09953498,-1.65022166,-3.09951027,-0.00038147,1.49603940,-0.00038147,-0.00488281,-0.00488281,0.00488281,-0.01464844,-0.00000000,-0.02929688,-0.00152588,-0.00133859,-0.00038147,-0.02441406
0.14581132,45,3.09953498,-1.69981272,-3.09912880,-0.00076294,1.49298764,0.00000000,3.09953775,-1.64945875,-3.09912882,-0.00076292,1.49298795,-0.00000002,3.09953498,-1.65022166,-3.09951027,-0.00038147,1.49642087,-0.00038147,-0.00488281,-0.00976562,0.00488281,-0.01464844,0.02929688,-0.01464844,-0.00114441,-0.00133011,-0.00038147,0.00000000
0.16256595,50,3.09953498,-1.69981272,-3.09912880,-0.00076294,1.49298764,0.00000000,3.09953589,-1.64945873,-3.09912881,-0.00076293,1.49298774,-0.00000001,3.09953498,-1.65022166,-3.09951027,-0.00038147,1.49642087,-0.00038147,0.00000000,-0.00488281,0.00488281,-0.01464844,0.01464844,-0.01464844,-0.00114441,-0.00120526,-0.00038147,-0.04882812
0.17951465,55,3.09953498,-1.69981272,-3.09912880,-0.00076294,1.49298764,0.00000000,3.09953527,-1.64945872,-3.09912880,-0.00076294,1.49298767,-0.00000000,3.09953498,-1.65022166,-3.09951027,-0.00038147,1.49642087,-0.00038147,-0.00488281,-0.00488281,0.00488281,-0.01464844,0.01464844,-0.01464844,-0.00114441,-0.00116435,-0.00038147,-0.04882812
0.19209838,60,3.09953498,-1.69981272,-3.09912880,-0.00038147,1.49298764,0.00000000,3.09953507,-1.64945872,-3.09912880,-0.00064758,1.49298765,-0.00000000,3.09953498,-1.65022166,-3.09951027,-0.00038147,1.49603940,-0.00038147,-0.00976562,-0.00488281,0.00488281,-0.02929688,-0.00000000,-0.01464844,-0.00114441,-0.00132672,-0.00038147,-0.02441406
0.20831633,65,3.09953498,-1.69981272,-3.09912880,-0.00076294,1.49298764,0.00000000,3.09953501,-1.64945872,-3.09912880,-0.00066410,1.49298764,-0.00000000,3.09953498,-1.65022166,-3.09951027,-0.00038147,1.49603940,-0.00038147,-0.00488281,-0.00488281,0.00488281,-0.01464844,-0.00000000,-0.01464844,-0.00152588,-0.00135674,-0.00038147,-0.02441406
0.22059321,70,3.09953498,-1.69981272,-3.09912880,-0.00076294,1.49298764,0.00000000,3.09953499,-1.64945872,-3.09912880,-0.00073055,1.49298764,-0.00000000,3.09953498,-1.65022166,-3.09951027,-0.00038147,1.49603940,-0.00038147,-0.00488281,-0.00488281,0.00976562,-0.02929688,0.01464844,-0.01464844,-0.00114441,-0.00129211,-0.00038147,0.00000000
0.23630810,75,3.09953498,-1.69981272,-3.09912880,-0.00076294,1.49298764,0.00000000,3.09959602,-1.64945872,-3.09912880,-0.00075233,1.49298764,-0.00000000,3.09953498,-1.65022166,-3.09951027,-0.00038147,1.49603940,-0.00038147,-0.00488281,0.00000000,0.00488281,-0.01464844,0.01464844,-0.02929688,-0.00114441,-0.00119281,-0.00038147,0.00000000
0.25004959,80,3.09953498,-1.69981272,-3.09912880,-0.00076294,1.49298764,0.00000000,3.09955498,-1.64945872,-3.09912880,-0.00075946,1.49298764,-0.00000000,3.09953498,-1.65022166,-3.09951027,-0.00038147,1.49565793,-0.00038147,-0.00488281,-0.00488281,0.00488281,-0.02929688,-0.01464844,-0.01464844,-0.00114441,-0.00116027,-0.00038147,-0.02441406
0.26468444,85,3.09953498,-1.69981272,-3.09912880,-0.00076294,1.49298764,0.00000000,3.09954153,-1.64945872,-3.09912880,-0.00076180,1.49298764,-0.00000000,3.09953498,-1.65022166,-3.09951027,-0.00038147,1.49565793,-0.00038147,-0.00976562,-0.00488281,-0.00000000,0.00000000,-0.00000000,-0.01464844,-0.00114441,-0.00114961,-0.00076294,-0.02441406
0.27796268,90,3.09953498,-1.69981272,-3.09912880,-0.00076294,1.49298764,0.00000000,3.09953712,-1.64945872,-3.09912880,-0.00076257,1.49298764,-0.00000000,3.09953498,-1.65022166,-3.09951027,-0.00038147,1.49527646,-0.00038147,-0.00488281,-0.00488281,-0.00000000,-0.02929688,-0.00000000,0.00000000,-0.00114441,-0.00114611,-0.00038147,0.00000000
0.29227233,95,3.09953498,-1.69981272,-3.09912880,-0.00076294,1.49298764,0.00000000,3.09953568,-1.64945872,-3.09912880,-0.00076282,1.49298764,-0.00000000,3.09953498,-1.65022166,-3.09951027,-0.00038147,1.49527646,-0.00038147,-0.00488281,-0.00488281,0.00976562,-0.01464844,0.01464844,-0.02929688,-0.00114441,-0.00114497,-0.00038147,-0.02441406
0.30593371,100,3.09953498,-1.69981272,-3.09912880,-0.00076294,1.49298764,0.00000000,3.09959624,-1.64945872,-3.09912880,-0.00076290,1.49298764,-0.00000000,3.09953498,-1.65022166,-3.09951027,-0.00038147,1.49489499,-0.00038147,-0.00488281,-0.00488281,0.00488281,-0.02929688,-0.00000000,0.00000000,-0.00114441,-0.00114459,-0.00076294,-0.04882812
0.31896019,105,3.09953498,-1.69981272,-3.09912880,-0.00076294,1.49298764,0.00000000,3.09955505,-1.64945872,-3.09912880,-0.00076293,1.49298764,-0.00000000,3.09953498,-1.65022166,-3.09951027,-0.00038147,1.49489499,-0.00038147,-0.00976562,-0.00488281,0.00488281,-0.02929688,0.01464844,-0.01464844,-0.00114441,-0.00114447,-0.00076294,-0.02441406
0.33453226,110,3.09953498,-1.69981272,-3.09912880,-0.00076294,1.49298764,0.00000000,3.09959038,-1.64945872,-3.09912880,-0.00076294,1.49298764,-0.00000000,3.09953498,-1.65022166,-3.09951027,-0.00038147,1.49489499,-0.00038147,0.00000000,-0.00488281,0.00488281,0.00000000,0.02929688,-0.01464844,-0.00114441,-0.00114443,-0.00076294,-0.02441406
0.34897113,115,3.09953498,-1.69981272,-3.09912880,-0.00076294,1.49298764,0.00000000,3.09955313,-1.64945872,-3.09912880,-0.00070190,1.49298764,-0.00000000,3.09953498,-1.65022166,-3.09951027,-0.00038147,1.49451352,-0.00038147,-0.00488281,-0.00488281,0.00488281,-0.02929688,-0.00000000,-0.01464844,-0.00114441,-0.00114442,-0.00076294,-0.02441406
0.36256957,120,3.09953498,-1.69981272,-3.09912880,-0.00076294,1.49298764,0.00000000,3.09954093,-1.64945872,-3.09912880,-0.00074294,1.49298764,-0.00000000,3.09953498,-1.65022166,-3.09951027,-0.00038147,1.49451352,-0.00038147,-0.00976562,-0.00976562,0.00488281,-0.01464844,-0.00000000,-0.01464844,-0.00114441,-0.00114441,-0.00076294,-0.02441406
0.37775564,125,3.09953498,-1.69981272,-3.09912880,-0.00076294,1.49298764,0.00000000,3.09958575,-1.64945872,-3.09912880,-0.00075639,1.49298764,-0.00000000,3.09953498,-1.65022166,-3.09951027,-0.00038147,1.49451352,-0.00038147,-0.00488281,-0.00488281,0.00488281,-0.01464844,0.01464844,-0.01464844,-0.00114441,-0.00114441,-0.00076294,-0.02441406
0.39179873,130,3.09953498,-1.69981272,-3.09912880,-0.00038147,1.49298764,0.00000000,3.09955162,-1.64945872,-3.09912880,-0.00063567,1.49298764,-0.00000000,3.09953498,-1.65022166,-3.09951027,-0.00038147,1.49413205,-0.00038147,0.00000000,-0.00488281,0.00488281,-0.01464844,-0.00000000,-0.01464844,-0.00114441,-0.00114441,-0.00038147,-0.02441406
0.40618873,135,3.09953498,-1.69981272,-3.09912880,-0.00076294,1.49298764,0.00000000,3.09962832,-1.64945872,-3.09912880,-0.00072124,1.49298764,-0.00000000,3.09953498,-1.65022166,-3.09951027,-0.00038147,1.49413205,-0.00038147,-0.00488281,0.00000000,0.00488281,-0.02929688,0.01464844,0.00000000,-0.00114441,-0.00114441,-0.00038147,-0.02441406
0.42190623,140,3.09953498,-1.69981272,-3.09912880,-0.00076294,1.49298764,0.00000000,3.09956556,-1.64945872,-3.09912880,-0.00074927,1.49298764,-0.00000000,3.09953498,-1.65022166,-3.09951027,-0.00038147,1.49375058,-0.00038147,-0.00976562,-0.00488281,0.00488281,-0.01464844,-0.00000000,-0.01464844,-0.00114441,-0.00114441,-0.00076294,-0.02441406
0.43582487,145,3.09953498,-1.69981272,-3.09912880,-0.00076294,1.49298764,0.00000000,3.09954500,-1.64945872,-3.09912880,-0.00075846,1.49298764,-0.00000000,3.09953498,-1.65022166,-3.09951027,-0.00038147,1.49375058,-0.00038147,-0.00488281,-0.00488281,0.00488281,-0.01464844,-0.00000000,-0.01464844,-0.00114441,-0.00114441,-0.00076294,-0.02441406
0.45013094,150,3.09953498,-1.69981272,-3.09912880,-0.00076294,1.49298764,0.00000000,3.09953826,-1.64945872,-3.09912880,-0.00076147,1.49298764,-0.00000000,3.09953498,-1.65022166,-3.09951027,-0.00038147,1.49375058,-0.00038147,-0.00976562,-0.00488281,0.00976562,0.00000000,0.01464844,-0.02929688,-0.00114441,-0.00120691,-0.00076294,-0.04882812
0.46739650,155,3.09991645,-1.69981272,-3.09912880,-0.00076294,1.49298764,0.00000000,3.09966117,-1.64945872,-3.09912880,-0.00076246,1.49298764,-0.00000000,3.09953498,-1.65022166,-3.09951027,-0.00038147,1.49336911,-0.00038147,-0.00488281,0.00000000,-0.00000000,-0.01464844,0.01464844,-0.01464844,-0.00114441,-0.00116489,-0.00076294,-0.04882812
0.48158836,160,3.09953498,-1.69981272,-3.09912880,-0.00076294,1.49298764,0.00000000,3.09957633,-1.64945872,-3.09912880,-0.00076278,1.49298764,-0.00000000,3.09953498,-1.65022166,-3.09951027,-0.00038147,1.49336911,-0.00038147,-0.00488281,-0.00488281,0.00488281,0.00000000,-0.00000000,-0.01464844,-0.00114441,-0.00115112,-0.00076294,-0.02441406
0.49591517,165,3.09953498,-1.69981272,-3.09912880,-0.00076294,1.49298764,0.00000000,3.09954853,-1.64945872,-3.09912880,-0.00076289,1.49298764,-0.00000000,3.09953498,-1.65022166,-3.09951027,-0.00076294,1.49336911,-0.00038147,0.00000000,0.00000000,0.00976562,-0.02929688,0.01464844,-0.01464844,-0.00114441,-0.00114661,-0.00076294,-0.02441406
0.51229692,170,3.09953498,-1.69981272,-3.09912880,-0.00076294,1.49298764,0.00000000,3.09953942,-1.64945872,-3.09912880,-0.00076292,1.49298764,-0.00000000,3.09953498,-1.65022166,-3.09951027,-0.00038147,1.49336911,-0.00038147,-0.00488281,-0.00976562,0.00976562,-0.02929688,-0.00000000,-0.02929688,-0.00114441,-0.00114513,-0.00076294,-0.02441406
0.53017807,175,3.09953498,-1.69981272,-3.09912880,-0.00076294,1.49298764,0.00000000,3.09953643,-1.64945872,-3.09912880,-0.00076293,1.49298764,-0.00000000,3.09953498,-1.65022166,-3.09951027,-0.00038147,1.49336911,-0.00038147,-0.00488281,0.00000000,0.00488281,-0.01464844,-0.00000000,-0.02929688,-0.00114441,-0.00114465,-0.00076294,-0.02441406
0.54401183,180,3.09953498,-1.69981272,-3.09912880,-0.00076294,1.49298764,0.00000000,3.09953545,-1.64945872,-3.09912880,-0.00076294,1.49298764,-0.00000000,3.09953498,-1.65022166,-3.09951027,-0.00038147,1.49336911,-0.00038147,-0.00488281,-0.00976562,0.00976562,-0.01464844,0.01464844,0.00000000,-0.00114441,-0.00114449,-0.00076294,-0.02441406
0.55776024,185,3.09953498,-1.69981272,-3.09912880,-0.00076294,1.49298764,0.00000000,3.09953513,-1.64945872,-3.09912880,-0.00072388,1.49298764,-0.00000000,3.09953498,-1.65022166,-3.09951027,-0.00076294,1.49336911,-0.00038147,0.00000000,-0.00488281,0.00488281,-0.01464844,-0.00000000,-0.01464844,-0.00114441,-0.00114443,-0.00076294,-0.02441406
0.57244349,190,3.09953498,-1.69981272,-3.09912880,-0.00076294,1.49298764,0.00000000,3.09959606,-1.64945872,-3.09912880,-0.00068910,1.49298764,-0.00000000,3.09953498,-1.65022166,-3.09951027,-0.00038147,1.49336911,-0.00038147,-0.00488281,-0.00488281,0.00488281,-0.01464844,0.01464844,-0.01464844,-0.00114441,-0.00114442,-0.00076294,-0.04882812
0.58727145,195,3.09953498,-1.69981272,-3.09912880,-0.00076294,1.49298764,0.00000000,3.09959406,-1.64945872,-3.09912880,-0.00073875,1.49298764,-0.00000000,3.09953498,-1.65022166,-3.09951027,-0.00076294,1.49336911,-0.00038147,-0.00488281,0.00000000,-0.00000000,-0.01464844,0.01464844,-0.01464844,-0.00114441,-0.00114441,-0.00076294,-0.02441406
0.60294008,200,3.09953498,-1.69981272,-3.09912880,-0.00076294,1.49298764,0.00000000,3.09955434,-1.64945872,-3.09912880,-0.00069398,1.49298764,-0.00000000,3.09953498,-1.65022166,-3.09951027,-0.00076294,1.49336911,-0.00038147,-0.00488281,-0.00488281,0.00488281,-0.01464844,0.02929688,-0.01464844,-0.00114441,-0.00114441,-0.00076294,-0.02441406
0.61680651,205,3.09953498,-1.69981272,-3.09912880,-0.00076294,1.49298764,0.00000000,3.09954132,-1.64945872,-3.09912880,-0.00074034,1.49298764,-0.00000000,3.09953498,-1.65022166,-3.09951027,-0.00076294,1.49336911,-0.00038147,-0.00488281,-0.00488281,0.00488281,0.00000000,0.01464844,-0.01464844,-0.00114441,-0.00114441,-0.00076294,-0.04882812
0.63234091,210,3.09953498,-1.69981272,-3.09912880,-0.00076294,1.49298764,0.00000000,3.09953706,-1.64945872,-3.09912880,-0.00075553,1.49298764,-0.00000000,3.09953498,-1.65022166,-3.09951027,-0.00038147,1.49336911,-0.00038147,-0.00488281,-0.00488281,0.00488281,0.00000000,0.01464844,-0.01464844,-0.00114441,-0.00114441,-0.00076294,0.00000000
0.64519262,215,3.09953498,-1.69981272,-3.09912880,-0.00076294,1.49298764,0.00000000,3.09957472,-1.64945872,-3.09912880,-0.00076051,1.49298764,-0.00000000,3.09953498,-1.65022166,-3.09951027,-0.00076294,1.49336911,-0.00038147,-0.00488281,-0.00976562,-0.00000000,-0.01464844,0.01464844,0.00000000,-0.00114441,-0.00114441,-0.00076294,-0.02441406
0.65947890,220,3.09953498,-1.69981272,-3.09912880,-0.00076294,1.49298764,0.00000000,3.09957925,-1.64945872,-3.09912880,-0.00076214,1.49298764,-0.00000000,3.09953498,-1.65022166,-3.09951027,-0.00076294,1.49336911,-0.00038147,-0.00488281,-0.00488281,0.00976562,-0.01464844,0.01464844,-0.01464844,-0.00114441,-0.00126648,-0.00076294,-0.02441406
0.67434764,225,3.09953498,-1.69981272,-3.09912880,-0.00076294,1.49298764,0.00000000,3.09954948,-1.64945872,-3.09912880,-0.00076268,1.49298764,-0.00000000,3.09953498,-1.65022166,-3.09951027,-0.00076294,1.49336911,-0.00038147,-0.00488281,-0.00488281,0.00488281,-0.01464844,0.01464844,0.00000000,-0.00114441,-0.00118441,-0.00076294,-0.02441406
0.69020414,230,3.09953498,-1.69981272,-3.09912880,-0.00076294,1.49298764,0.00000000,3.09953973,-1.64945872,-3.09912880,-0.00076285,1.49298764,-0.00000000,3.09953498,-1.65022166,-3.09951027,-0.00076294,1.49336911,-0.00038147,-0.00488281,-0.00488281,0.00488281,-0.01464844,0.02929688,-0.01464844,-0.00114441,-0.00115752,-0.00076294,-0.02441406
0.70446610,235,3.09953498,-1.69981272,-3.09912880,-0.00076294,1.49298764,0.00000000,3.09953653,-1.64945872,-3.09912880,-0.00076291,1.49298764,-0.00000000,3.09953498,-1.65022166,-3.09951027,-0.00076294,1.49336911,-0.00038147,-0.00976562,-0.00488281,0.00488281,-0.01464844,-0.01464844,-0.01464844,-0.00114441,-0.00114870,-0.00076294,-0.02441406
0.71999931,240,3.09953498,-1.69981272,-3.09912880,-0.00076294,1.49298764,0.00000000,3.09953549,-1.64945872,-3.09912880,-0.00076293,1.49298764,-0.00000000,3.09953498,-1.65022166,-3.09951027,-0.00076294,1.49336911,-0.00038147,-0.00488281,-0.00488281,0.00488281,-0.01464844,0.01464844,-0.01464844,-0.00114441,-0.00120832,-0.00076294,-0.02441406
0.73416710,245,3.09953498,-1.69981272,-3.09912880,-0.00076294,1.49298764,0.00000000,3.09959618,-1.64945872,-3.09912880,-0.00072387,1.49298764,-0.00000000,3.09953498,-1.65022166,-3.09951027,-0.00076294,1.49336911,-0.00038147,-0.00976562,-0.00488281,0.00976562,-0.01464844,-0.00000000,0.00000000,-0.00114441,-0.00122785,-0.00114441,-0.02441406
0.74725485,250,3.09953498,-1.69981272,-3.09912880,-0.00038147,1.49298764,0.00000000,3.09955503,-1.64945872,-3.09912880,-0.00067384,1.49298764,-0.00000000,3.09953498,-1.65022166,-3.09951027,-0.00076294,1.49336911,-0.00038147,-0.00488281,-0.00488281,0.00488281,-0.01464844,0.02929688,-0.01464844,-0.00114441,-0.00117175,-0.00114441,-0.04882812
0.76054716,255,3.09953498,-1.69981272,-3.09912880,-0.00076294,1.49298764,0.00000000,3.09958061,-1.64945872,-3.09912880,-0.00073374,1.49298764,-0.00000000,3.09953498,-1.65022166,-3.09951027,-0.00076294,1.49336911,-0.00038147,-0.00488281,-0.00488281,0.00488281,-0.02929688,-0.00000000,0.00000000,-0.00114441,-0.00115337,-0.00114441,-0.02441406
0.77651930,260,3.09991645,-1.69981272,-3.09912880,-0.00076294,1.49298764,0.00000000,3.09962622,-1.64945872,-3.09912880,-0.00075337,1.49298764,-0.00000000,3.09953498,-1.65022166,-3.09951027,-0.00076294,1.49336911,-0.00038147,-0.00488281,-0.00976562,-0.00000000,-0.02929688,0.01464844,-0.02929688,-0.00114441,-0.00114735,-0.00114441,-0.02441406
0.78932524,265,3.09953498,-1.69981272,-3.09912880,-0.00076294,1.49298764,0.00000000,3.09963519,-1.64945872,-3.09912880,-0.00075980,1.49298764,-0.00000000,3.09953498,-1.65022166,-3.09951027,-0.00076294,1.49336911,-0.00038147,-0.00976562,-0.00976562,0.00488281,-0.02929688,-0.00000000,0.00000000,-0.00114441,-0.00124303,-0.00076294,-0.02441406
0.80277014,270,3.09991645,-1.69981272,-3.09912880,-0.00076294,1.49298764,0.00000000,3.09969294,-1.64945872,-3.09912880,-0.00076191,1.49298764,-0.00000000,3.09953498,-1.65022166,-3.09951027,-0.00114441,1.49336911,-0.00038147,-0.00488281,-0.00976562,0.00488281,-0.01464844,-0.00000000,-0.01464844,-0.00114441,-0.00127438,-0.00114441,-0.02441406
0.81597209,275,3.09953498,-1.69981272,-3.09912880,-0.00076294,1.49298764,0.00000000,3.09963556,-1.64945872,-3.09912880,-0.00073135,1.49298764,-0.00000000,3.09953498,-1.65022166,-3.09951027,-0.00076294,1.49336911,-0.00038147,-0.00488281,-0.00488281,0.00488281,-0.01464844,0.01464844,-0.01464844,-0.00114441,-0.00118700,-0.00114441,-0.04882812
0.83104444,280,3.09953498,-1.69981272,-3.09912880,-0.00076294,1.49298764,0.00000000,3.09956794,-1.64945872,-3.09912880,-0.00075259,1.49298764,-0.00000000,3.09953498,-1.65022166,-3.09951027,-0.00076294,1.49336911,-0.00038147,-0.00488281,-0.00488281,0.00488281,-0.01464844,0.01464844,-0.01464844,-0.00114441,-0.00115836,-0.00114441,-0.02441406
0.84541273,285,3.09953498,-1.69981272,-3.09912880,-0.00076294,1.49298764,0.00000000,3.09954578,-1.64945872,-3.09912880,-0.00075955,1.49298764,-0.00000000,3.09953498,-1.65022166,-3.09951027,-0.00114441,1.49336911,-0.00038147,-0.00488281,-0.00488281,0.00488281,-0.01464844,0.02929688,-0.01464844,-0.00114441,-0.00114898,-0.00114441,-0.02441406
0.85776830,290,3.09953498,-1.69981272,-3.09912880,-0.00076294,1.49298764,0.00000000,3.09958734,-1.64945872,-3.09912880,-0.00076183,1.49298764,-0.00000000,3.09953498,-1.65022166,-3.09951027,-0.00114441,1.49336911,-0.00038147,-0.00488281,0.00000000,0.00488281,-0.01464844,0.01464844,-0.01464844,-0.00114441,-0.00114591,-0.00114441,0.00000000
0.87240505,295,3.09953498,-1.69981272,-3.09912880,-0.00076294,1.49298764,0.00000000,3.09959120,-1.64945872,-3.09912880,-0.00076258,1.49298764,-0.00000000,3.09953498,-1.65022166,-3.09951027,-0.00114441,1.49336911,-0.00038147,-0.00976562,-0.00488281,0.00488281,0.00000000,0.01464844,-0.01464844,-0.00114441,-0.00114490,-0.00114441,-0.02441406
0.89099765,300,3.09953498,-1.69981272,-3.09912880,-0.00076294,1.49298764,0.00000000,3.09955340,-1.64945872,-3.09912880,-0.00076282,1.49298764,-0.00000000,3.09953498,-1.65022166,-3.09951027,-0.00114441,1.49336911,-0.00038147,-0.00488281,-0.00488281,-0.00000000,-0.02929688,-0.00000000,-0.01464844,-0.00114441,-0.00114457,-0.00114441,-0.02441406
0.90207005,305,3.09953498,-1.69981272,-3.09912880,-0.00076294,1.49298764,0.00000000,3.09954101,-1.64945872,-3.09912880,-0.00071407,1.49298764,-0.00000000,3.09953498,-1.65022166,-3.09951027,-0.00114441,1.49336911,-0.00038147,-0.00488281,-0.00488281,0.00488281,0.00000000,0.01464844,-0.01464844,-0.00114441,-0.00114446,-0.00114441,-0.02441406
0.91722751,310,3.09953498,-1.69981272,-3.09912880,-0.00038147,1.49298764,0.00000000,3.09965610,-1.64945872,-3.09912880,-0.00067063,1.49298764,-0.00000000,3.09953498,-1.65022166,-3.09951027,-0.00114441,1.49336911,-0.00038147,-0.00488281,0.00000000,0.00488281,-0.04394531,0.02929688,0.00000000,-0.00114441,-0.00114443,-0.00114441,-0.04882812
0.93058610,315,3.09953498,-1.69981272,-3.09912880,-0.00076294,1.49298764,0.00000000,3.09957466,-1.64945872,-3.09912880,-0.00069363,1.49298764,-0.00000000,3.09953498,-1.65022166,-3.09951027,-0.00114441,1.49336911,-0.00038147,-0.00488281,0.00000000,0.00488281,-0.01464844,0.01464844,-0.01464844,-0.00114441,-0.00114441,-0.00114441,-0.02441406
0.94399095,320,3.09953498,-1.69981272,-3.09912880,-0.00038147,1.49298764,0.00000000,3.09954798,-1.64945872,-3.09912880,-0.00060290,1.49298764,-0.00000000,3.09953498,-1.65022166,-3.09951027,-0.00114441,1.49336911,-0.00038147,-0.00488281,-0.00488281,0.00488281,-0.02929688,0.02929688,-0.01464844,-0.00114441,-0.00114441,-0.00114441,-0.04882812
0.96006274,325,3.09953498,-1.69981272,-3.09912880,-0.00076294,1.49298764,0.00000000,3.09953924,-1.64945872,-3.09912880,-0.00066167,1.49298764,-0.00000000,3.09953498,-1.65022166,-3.09951027,-0.00114441,1.49336911,-0.00038147,-0.00488281,-0.00488281,-0.00000000,-0.01464844,0.01464844,0.00000000,-0.00114441,-0.00114441,-0.00114441,-0.02441406
0.97624683,330,3.09991645,-1.69981272,-3.09912880,-0.00038147,1.49298764,0.00000000,3.09975378,-1.64945872,-3.09912880,-0.00055336,1.49298764,-0.00000000,3.09953498,-1.65022166,-3.09951027,-0.00114441,1.49336911,-0.00038147,-0.00488281,-0.00488281,0.00488281,-0.01464844,-0.00000000,-0.01464844,-0.00114441,-0.00114441,-0.00114441,-0.02441406
0.98992229,335,3.09953498,-1.69981272,-3.09912880,-0.00038147,1.49298764,0.00000000,3.09960667,-1.64945872,-3.09912880,-0.00046905,1.49298764,-0.00000000,3.09953498,-1.65022166,-3.09951027,-0.00114441,1.49336911,-0.00038147,-0.00488281,-0.00488281,0.00488281,0.00000000,0.02929688,-0.01464844,-0.00114441,-0.00114441,-0.00114441,-0.04882812
1.00329804,340,3.09953498,-1.69981272,-3.09912880,-0.00076294,1.49298764,0.00000000,3.09961951,-1.64945872,-3.09912880,-0.00066664,1.49298764,-0.00000000,3.09953498,-1.65022166,-3.09951027,-0.00114441,1.49336911,-0.00038147,-0.00488281,0.00000000,0.00488281,0.00000000,0.01464844,-0.02929688,-0.00114441,-0.00114441,-0.00114441,0.00000000
1.01673913,345,3.09991645,-1.69981272,-3.09912880,-0.00076294,1.49298764,0.00000000,3.09968780,-1.64945872,-3.09912880,-0.00069232,1.49298764,-0.00000000,3.09953498,-1.65022166,-3.09951027,-0.00114441,1.49336911,-0.00038147,-0.00976562,-0.00488281,0.00488281,-0.01464844,0.02929688,-0.01464844,-0.00114441,-0.00120691,-0.00114441,0.00000000
1.02935433,350,3.09953498,-1.69981272,-3.09912880,-0.00076294,1.49298764,0.00000000,3.09958505,-1.64945872,-3.09912880,-0.00070074,1.49298764,-0.00000000,3.09953498,-1.65022166,-3.09951027,-0.00114441,1.49336911,-0.00038147,-0.00488281,-0.00976562,0.00976562,-0.01464844,0.01464844,-0.01464844,-0.00114441,-0.00116489,-0.00114441,-0.02441406
1.04378939,355,3.09953498,-1.69981272,-3.09912880,-0.00076294,1.49298764,0.00000000,3.09960021,-1.64945872,-3.09912880,-0.00074256,1.49298764,-0.00000000,3.09953498,-1.65022166,-3.09951027,-0.00114441,1.49336911,-0.00038147,-0.00488281,-0.00488281,0.00488281,-0.01464844,0.01464844,-0.01464844,-0.00114441,-0.00115112,-0.00114441,-0.02441406
1.05709982,360,3.09991645,-1.69981272,-3.09912880,-0.00076294,1.49298764,0.00000000,3.09963265,-1.64945872,-3.09912880,-0.00069523,1.49298764,-0.00000000,3.09953498,-1.65022166,-3.09951027,-0.00114441,1.49336911,-0.00038147,-0.00488281,-0.00976562,0.00976562,-0.01464844,0.01464844,-0.01464844,-0.00114441,-0.00114661,-0.00114441,-0.02441406
1.07203317,365,3.09953498,-1.69981272,-3.09912880,-0.00076294,1.49298764,0.00000000,3.09959823,-1.64945872,-3.09912880,-0.00074075,1.49298764,-0.00000000,3.09953498,-1.65022166,-3.09951027,-0.00114441,1.49336911,-0.00038147,-0.00488281,0.00000000,0.00488281,-0.01464844,0.01464844,-0.02929688,-0.00114441,-0.00114513,-0.00114441,0.00000000
1.08579230,370,3.09953498,-1.69981272,-3.09912880,-0.00038147,1.49298764,0.00000000,3.09955570,-1.64945872,-3.09912880,-0.00067937,1.49298764,-0.00000000,3.09953498,-1.65022166,-3.09951027,-0.00114441,1.49336911,-0.00038147,-0.00488281,-0.00488281,0.00976562,-0.02929688,0.02929688,-0.02929688,-0.00114441,-0.00114465,-0.00114441,-0.02441406
1.10028553,375,3.09953498,-1.69981272,-3.09912880,-0.00038147,1.49298764,0.00000000,3.09957302,-1.64945872,-3.09912880,-0.00059823,1.49298764,-0.00000000,3.09953498,-1.65022166,-3.09951027,-0.00114441,1.49336911,-0.00038147,-0.00488281,-0.00488281,0.00976562,-0.01464844,0.01464844,-0.01464844,-0.00114441,-0.00114449,-0.00114441,-0.02441406
1.11580563,380,3.09953498,-1.69981272,-3.09912880,-0.00038147,1.49298764,0.00000000,3.09957869,-1.64945872,-3.09912880,-0.00048375,1.49298764,-0.00000000,3.09953498,-1.65022166,-3.09951027,-0.00114441,1.49336911,-0.00038147,-0.00488281,-0.00488281,0.00488281,-0.01464844,-0.00000000,-0.02929688,-0.00114441,-0.00114443,-0.00114441,0.00000000
1.13079667,385,3.09991645,-1.69981272,-3.09912880,-0.00038147,1.49298764,0.00000000,3.09962560,-1.64945872,-3.09912880,-0.00056391,1.49298764,-0.00000000,3.09953498,-1.65022166,-3.09951027,-0.00114441,1.49336911,-0.00038147,-0.00488281,-0.00488281,0.00488281,0.00000000,0.04394531,-0.01464844,-0.00114441,-0.00114442,-0.00114441,0.00000000
1.14636064,390,3.09953498,-1.69981272,-3.09912880,-0.00076294,1.49298764,0.00000000,3.09959592,-1.64945872,-3.09912880,-0.00055661,1.49298764,-0.00000000,3.09953498,-1.65022166,-3.09951027,-0.00114441,1.49336911,-0.00038147,-0.00488281,0.00000000,0.00488281,0.00000000,0.01464844,-0.02929688,-0.00152588,-0.00129700,-0.00114441,-0.02441406
1.16141105,395,3.09953498,-1.69981272,-3.09912880,-0.00038147,1.49298764,0.00000000,3.09955495,-1.64945872,-3.09912880,-0.00047011,1.49298764,-0.00000000,3.09953498,-1.65022166,-3.09951027,-0.00114441,1.49336911,-0.00038147,-0.00488281,-0.00488281,0.00488281,-0.02929688,0.01464844,-0.02929688,-0.00114441,-0.00119441,-0.00114441,-0.02441406
1.17628789,400,3.09953498,-1.69981272,-3.09912880,-0.00076294,1.49298764,0.00000000,3.09958058,-1.64945872,-3.09912880,-0.00060595,1.49298764,-0.00000000,3.09953498,-1.65022166,-3.09951027,-0.00114441,1.49336911,-0.00038147,-0.00488281,-0.00488281,0.00488281,-0.01464844,0.01464844,-0.01464844,-0.00114441,-0.00116079,-0.00114441,-0.04882812
1.19234991,405,3.09953498,-1.69981272,-3.09912880,-0.00038147,1.49298764,0.00000000,3.09963781,-1.64945872,-3.09912880,-0.00049409,1.49298764,-0.00000000,3.09953498,-1.65022166,-3.09951027,-0.00114441,1.49336911,-0.00038147,0.00000000,-0.00976562,0.00488281,-0.02929688,0.01464844,-0.01464844,-0.00114441,-0.00114978,-0.00114441,0.00000000
1.20687199,410,3.09953498,-1.69981272,-3.09912880,-0.00076294,1.49298764,0.00000000,3.09971760,-1.64945872,-3.09912880,-0.00056498,1.49298764,-0.00000000,3.09953498,-1.65022166,-3.09951027,-0.00114441,1.49336911,-0.00038147,-0.00976562,-0.00488281,0.00488281,-0.01464844,0.01464844,0.00000000,-0.00114441,-0.00114617,-0.00114441,-0.02441406
1.22034597,415,3.09953498,-1.69981272,-3.09912880,-0.00076294,1.49298764,0.00000000,3.09959482,-1.64945872,-3.09912880,-0.00051790,1.49298764,-0.00000000,3.09953498,-1.65022166,-3.09951027,-0.00114441,1.49336911,-0.00038147,-0.00488281,-0.00488281,0.00488281,-0.02929688,0.01464844,-0.01464844,-0.00114441,-0.00114499,-0.00114441,-0.02441406
1.23457575,420,3.09953498,-1.69981272,-3.09912880,-0.00038147,1.49298764,0.00000000,3.09962490,-1.64945872,-3.09912880,-0.00045742,1.49298764,-0.00000000,3.09953498,-1.65022166,-3.09951027,-0.00114441,1.49336911,-0.00038147,-0.00488281,-0.00488281,0.00488281,-0.02929688,0.02929688,-0.01464844,-0.00114441,-0.00114460,-0.00114441,-0.02441406
1.25070810,425,3.09953498,-1.69981272,-3.09912880,-0.00038147,1.49298764,0.00000000,3.09956444,-1.64945872,-3.09912880,-0.00040636,1.49298764,-0.00000000,3.09953498,-1.65022166,-3.09951027,-0.00114441,1.49336911,-0.00038147,-0.00976562,-0.00976562,0.00488281,-0.01464844,-0.00000000,-0.01464844,-0.00114441,-0.00114447,-0.00114441,-0.02441406
1.26448345,430,3.09953498,-1.69981272,-3.09912880,-0.00076294,1.49298764,0.00000000,3.09954463,-1.64945872,-3.09912880,-0.00052695,1.49298764,-0.00000000,3.09953498,-1.65022166,-3.09951027,-0.00114441,1.49336911,-0.00038147,-0.00488281,-0.00488281,0.00976562,-0.01464844,-0.01464844,-0.02929688,-0.00114441,-0.00114443,-0.00114441,-0.02441406
1.27807641,435,3.09953498,-1.69981272,-3.09912880,-0.00076294,1.49298764,0.00000000,3.09953814,-1.64945872,-3.09912880,-0.00060553,1.49298764,-0.00000000,3.09953498,-1.65022166,-3.09951027,-0.00114441,1.49336911,-0.00038147,-0.00488281,-0.00488281,0.00488281,-0.01464844,0.02929688,-0.01464844,-0.00114441,-0.00114442,-0.00114441,0.00000000
1.29157043,440,3.09953498,-1.69981272,-3.09912880,-0.00076294,1.49298764,0.00000000,3.09953601,-1.64945872,-3.09912880,-0.00065033,1.49298764,-0.00000000,3.09953498,-1.65022166,-3.09951027,-0.00114441,1.49336911,-0.00038147,-0.00488281,-0.00488281,0.00488281,-0.02929688,0.02929688,-0.01464844,-0.00114441,-0.00126648,-0.00114441,-0.02441406
1.30539370,445,3.09953498,-1.69981272,-3.09912880,-0.00038147,1.49298764,0.00000000,3.09953532,-1.64945872,-3.09912880,-0.00050082,1.49298764,-0.00000000,3.09953498,-1.65022166,-3.09951027,-0.00114441,1.49336911,-0.00038147,-0.00488281,-0.00976562,0.00488281,0.00000000,0.01464844,-0.01464844,-0.00114441,-0.00118441,-0.00114441,-0.02441406
1.31969213,450,3.09953498,-1.69981272,-3.09912880,-0.00076294,1.49298764,0.00000000,3.09953509,-1.64945872,-3.09912880,-0.00056718,1.49298764,-0.00000000,3.09953498,-1.65022166,-3.09951027,-0.00114441,1.49336911,-0.00038147,-0.00488281,-0.00488281,0.00488281,-0.01464844,0.01464844,-0.01464844,-0.00114441,-0.00115752,-0.00114441,-0.02441406
1.33221126,455,3.09953498,-1.69981272,-3.09912880,-0.00076294,1.49298764,0.00000000,3.09953501,-1.64945872,-3.09912880,-0.00059870,1.49298764,-0.00000000,3.09953498,-1.65022166,-3.09951027,-0.00114441,1.49336911,-0.00038147,0.00000000,0.00000000,0.00488281,-0.01464844,0.01464844,-0.01464844,-0.00114441,-0.00114870,-0.00114441,-0.02441406
1.34743214,460,3.09953498,-1.69981272,-3.09912880,-0.00038147,1.49298764,0.00000000,3.09953499,-1.64945872,-3.09912880,-0.00056251,1.49298764,-0.00000000,3.09953498,-1.65022166,-3.09951027,-0.00114441,1.49336911,-0.00038147,-0.00488281,-0.00488281,-0.00000000,0.00000000,-0.00000000,-0.02929688,-0.00152588,-0.00129840,-0.00114441,0.00000000
1.35987616,465,3.09953498,-1.69981272,-3.09912880,-0.00038147,1.49298764,0.00000000,3.09953498,-1.64945872,-3.09912880,-0.00051111,1.49298764,-0.00000000,3.09953498,-1.65022166,-3.09951027,-0.00114441,1.49336911,-0.00038147,-0.00488281,-0.00488281,0.00976562,-0.01464844,-0.00000000,-0.01464844,-0.00114441,-0.00119487,-0.00152588,-0.04882812
1.37448740,470,3.09953498,-1.69981272,-3.09912880,-0.00038147,1.49298764,0.00000000,3.09953498,-1.64945872,-3.09912880,-0.00046301,1.49298764,-0.00000000,3.09953498,-1.65022166,-3.09951027,-0.00114441,1.49336911,-0.00038147,-0.00488281,-0.00488281,-0.00000000,-0.01464844,-0.00000000,-0.02929688,-0.00114441,-0.00116094,-0.00114441,0.00000000
1.38995314,475,3.09953498,-1.69981272,-3.09912880,-0.00038147,1.49298764,0.00000000,3.09953498,-1.64945872,-3.09912880,-0.00040819,1.49298764,-0.00000000,3.09953498,-1.65022166,-3.09951027,-0.00114441,1.49336911,-0.00038147,0.00000000,-0.00488281,0.00488281,-0.01464844,0.01464844,-0.01464844,-0.00152588,-0.00130242,-0.00114441,-0.02441406
1.40158343,480,3.09953498,-1.69981272,-3.09912880,-0.00038147,1.49298764,0.00000000,3.09953498,-1.64945872,-3.09912880,-0.00046054,1.49298764,-0.00000000,3.09953498,-1.65022166,-3.09951027,-0.00114441,1.49336911,-0.00038147,-0.00488281,-0.00488281,0.00488281,-0.01464844,0.01464844,-0.01464844,-0.00114441,-0.00119618,-0.00114441,-0.02441406
1.41625595,485,3.09953498,-1.69981272,-3.09912880,-0.00038147,1.49298764,0.00000000,3.09953498,-1.64945872,-3.09912880,-0.00049527,1.49298764,-0.00000000,3.09915351,-1.65022166,-3.09951027,-0.00114441,1.49336911,-0.00038147,-0.00488281,-0.00488281,0.00488281,-0.01464844,0.01464844,-0.02929688,-0.00114441,-0.00116137,-0.00152588,-0.02441406
1.42941904,490,3.09953498,-1.69981272,-3.09912880,-0.00038147,1.49298764,0.00000000,3.09953498,-1.64945872,-3.09912880,-0.00048907,1.49298764,-0.00000000,3.09953498,-1.65022166,-3.09951027,-0.00114441,1.49336911,-0.00038147,-0.00488281,-0.00488281,0.00488281,-0.01464844,0.01464844,-0.01464844,-0.00114441,-0.00114997,-0.00152588,-0.02441406
1.44500637,495,3.09953498,-1.69981272,-3.09912880,-0.00038147,1.49298764,0.00000000,3.09953498,-1.64945872,-3.09912880,-0.00051683,1.49298764,-0.00000000,3.09953498,-1.65022166,-3.09951027,-0.00114441,1.49336911,-0.00038147,0.00000000,-0.00488281,0.00488281,-0.02929688,0.01464844,-0.01464844,-0.00114441,-0.00114623,-0.00114441,-0.04882812
1.46004939,500,3.09953498,-1.69981272,-3.09912880,-0.00076294,1.49298764,0.00000000,3.09953498,-1.64945872,-3.09912880,-0.00061198,1.49298764,-0.00000000,3.09953498,-1.65022166,-3.09951027,-0.00114441,1.49336911,-0.00038147,-0.00488281,-0.00488281,0.00488281,-0.01464844,0.02929688,-0.01464844,-0.00114441,-0.00114501,-0.00152588,-0.04882812
1.47344494,505,3.09953498,-1.69981272,-3.09912880,-0.00038147,1.49298764,0.00000000,3.09953498,-1.64945872,-3.09912880,-0.00050583,1.49298764,-0.00000000,3.09953498,-1.65022166,-3.09951027,-0.00114441,1.49336911,-0.00038147,-0.00488281,-0.00488281,0.00488281,0.00000000,0.01464844,-0.01464844,-0.00114441,-0.00114460,-0.00152588,-0.02441406
1.48886490,510,3.09953498,-1.69981272,-3.09912880,-0.00076294,1.49298764,0.00000000,3.09953498,-1.64945872,-3.09912880,-0.00049851,1.49298764,-0.00000000,3.09953498,-1.65022166,-3.09951027,-0.00114441,1.49336911,-0.00038147,-0.00488281,-0.00488281,0.00488281,-0.01464844,0.01464844,-0.01464844,-0.00114441,-0.00136420,-0.00152588,-0.02441406
1.50167203,515,3.09953498,-1.69981272,-3.09912880,-0.00038147,1.49298764,0.00000000,3.09957404,-1.64945872,-3.09912880,-0.00045107,1.49298764,-0.00000000,3.09915351,-1.65022166,-3.09951027,-0.00114441,1.49336911,-0.00038147,-0.00976562,-0.00976562,-0.00000000,0.00000000,-0.00000000,-0.01464844,-0.00114441,-0.00121643,-0.00152588,-0.02441406
1.51618004,520,3.09991645,-1.69981272,-3.09912880,-0.00038147,1.49298764,0.00000000,3.09968511,-1.64945872,-3.09912880,-0.00040428,1.49298764,-0.00000000,3.09915351,-1.65022166,-3.09951027,-0.00114441,1.49336911,-0.00038147,-0.00976562,-0.00976562,0.00488281,-0.01464844,0.01464844,-0.01464844,-0.00114441,-0.00116801,-0.00152588,-0.04882812
1.52996683,525,3.09953498,-1.69981272,-3.09912880,-0.00038147,1.49298764,0.00000000,3.09958417,-1.64945872,-3.09912880,-0.00038894,1.49298764,-0.00000000,3.09915351,-1.65022166,-3.09951027,-0.00114441,1.49336911,-0.00038147,-0.00976562,-0.00488281,0.00488281,-0.01464844,0.01464844,0.00000000,-0.00114441,-0.00127421,-0.00152588,-0.02441406
1.54557729,530,3.09953498,-1.69981272,-3.09912880,-0.00076294,1.49298764,0.00000000,3.09959016,-1.64945872,-3.09912880,-0.00046021,1.49298764,-0.00000000,3.09953498,-1.65022166,-3.09951027,-0.00114441,1.49336911,-0.00038147,-0.00488281,-0.00488281,0.00976562,-0.04394531,0.01464844,-0.01464844,-0.00114441,-0.00118694,-0.00114441,-0.02441406
1.55950165,535,3.09991645,-1.69981272,-3.09912880,-0.00038147,1.49298764,0.00000000,3.09970943,-1.64945872,-3.09912880,-0.00044633,1.49298764,-0.00000000,3.09953498,-1.65022166,-3.09951027,-0.00114441,1.49336911,-0.00038147,-0.00976562,-0.00488281,0.00488281,-0.01464844,0.01464844,-0.01464844,-0.00152588,-0.00131093,-0.00152588,-0.02441406
1.57644224,540,3.09953498,-1.69981272,-3.09912880,-0.00076294,1.49298764,0.00000000,3.09969224,-1.64945872,-3.09912880,-0.00057912,1.49298764,-0.00000000,3.09915351,-1.65022166,-3.09951027,-0.00114441,1.49336911,-0.00038147,0.00000000,-0.00488281,0.00488281,-0.01464844,0.01464844,-0.02929688,-0.00114441,-0.00119898,-0.00152588,-0.02441406
1.59117794,545,3.09953498,-1.69981272,-3.09912880,-0.00076294,1.49298764,0.00000000,3.09958651,-1.64945872,-3.09912880,-0.00059284,1.49298764,-0.00000000,3.09915351,-1.65022166,-3.09951027,-0.00114441,1.49336911,-0.00038147,-0.00976562,-0.00488281,0.00488281,0.00000000,-0.00000000,-0.01464844,-0.00114441,-0.00116229,-0.00152588,-0.02441406
1.60702729,550,3.09991645,-1.69981272,-3.09912880,-0.00076294,1.49298764,0.00000000,3.09973802,-1.64945872,-3.09912880,-0.00061931,1.49298764,-0.00000000,3.09915351,-1.65022166,-3.09951027,-0.00114441,1.49336911,-0.00038147,-0.00488281,-0.00488281,0.00976562,0.00000000,-0.00000000,-0.01464844,-0.00114441,-0.00115027,-0.00152588,-0.02441406
1.62392902,555,3.09953498,-1.69981272,-3.09912880,-0.00038147,1.49298764,0.00000000,3.09966254,-1.64945872,-3.09912880,-0.00045941,1.49298764,-0.00000000,3.09915351,-1.65022166,-3.09951027,-0.00114441,1.49336911,-0.00038147,-0.00976562,0.00000000,0.00976562,-0.01464844,0.01464844,-0.01464844,-0.00114441,-0.00114633,-0.00152588,-0.04882812
1.63687420,560,3.09953498,-1.69981272,-3.09912880,-0.00076294,1.49298764,0.00000000,3.09968664,-1.64945872,-3.09912880,-0.00048330,1.49298764,-0.00000000,3.09915351,-1.65022166,-3.09951027,-0.00114441,1.49336911,-0.00038147,-0.00488281,-0.00488281,0.00976562,0.00000000,0.01464844,-0.01464844,-0.00114441,-0.00114504,-0.00152588,-0.02441406
1.65275550,565,3.09953498,-1.69981272,-3.09912880,-0.00038147,1.49298764,0.00000000,3.09972579,-1.64945872,-3.09912880,-0.00046367,1.49298764,-0.00000000,3.09915351,-1.65022166,-3.09951027,-0.00114441,1.49336911,-0.00038147,-0.00488281,-0.00488281,0.00976562,0.00000000,0.01464844,-0.01464844,-0.00114441,-0.00114462,-0.00152588,-0.02441406
1.66503763,570,3.09953498,-1.69981272,-3.09912880,-0.00038147,1.49298764,0.00000000,3.09973861,-1.64945872,-3.09912880,-0.00051827,1.49298764,-0.00000000,3.09953498,-1.65022166,-3.09951027,-0.00114441,1.49336911,-0.00038147,-0.00488281,-0.00488281,0.00976562,0.00000000,-0.00000000,-0.01464844,-0.00114441,-0.00114448,-0.00152588,-0.02441406
1.68112111,575,3.09991645,-1.69981272,-3.09912880,-0.00076294,1.49298764,0.00000000,3.09980935,-1.64945872,-3.09912880,-0.00050259,1.49298764,-0.00000000,3.09915351,-1.65022166,-3.09951027,-0.00114441,1.49336911,-0.00038147,-0.00488281,-0.00488281,0.00488281,0.00000000,0.02929688,-0.01464844,-0.00114441,-0.00114443,-0.00152588,-0.02441406
1.69573665,580,3.09991645,-1.69981272,-3.09912880,-0.00076294,1.49298764,0.00000000,3.09978125,-1.64945872,-3.09912880,-0.00053651,1.49298764,-0.00000000,3.09915351,-1.65022166,-3.09951027,-0.00114441,1.49336911,-0.00038147,-0.00488281,-0.00488281,0.00976562,-0.01464844,0.01464844,-0.01464844,-0.00114441,-0.00120692,-0.00152588,-0.04882812
1.70915437,585,3.09991645,-1.69981272,-3.09912880,-0.00076294,1.49298764,0.00000000,3.09977205,-1.64945872,-3.09912880,-0.00050857,1.49298764,-0.00000000,3.09915351,-1.65022166,-3.09951027,-0.00114441,1.49336911,-0.00038147,-0.00488281,-0.00488281,0.00488281,-0.01464844,0.01464844,-0.01464844,-0.00114441,-0.00116489,-0.00152588,-0.02441406
1.72330093,590,3.09991645,-1.69981272,-3.09912880,-0.00038147,1.49298764,0.00000000,3.09975927,-1.64945872,-3.09912880,-0.00049343,1.49298764,-0.00000000,3.09915351,-1.65022166,-3.09951027,-0.00114441,1.49336911,-0.00038147,-0.00488281,-0.00976562,0.00488281,-0.01464844,0.02929688,-0.01464844,-0.00152588,-0.00138183,-0.00152588,-0.02441406
1.73752689,595,3.09991645,-1.69981272,-3.09912880,-0.00076294,1.49298764,0.00000000,3.09982588,-1.64945872,-3.09912880,-0.00056476,1.49298764,-0.00000000,3.09915351,-1.65022166,-3.09951027,-0.00114441,1.49336911,-0.00038147,-0.00976562,-0.00488281,0.00488281,0.00000000,0.01464844,-0.02929688,-0.00114441,-0.00128471,-0.00152588,0.00000000
1.75317383,600,3.09991645,-1.69981272,-3.09912880,-0.00038147,1.49298764,0.00000000,3.09985552,-1.64945872,-3.09912880,-0.00050257,1.49298764,-0.00000000,3.09953498,-1.65022166,-3.09951027,-0.00114441,1.49336911,-0.00038147,-0.00488281,-0.00976562,-0.00000000,-0.01464844,-0.00000000,-0.01464844,-0.00152588,-0.00134297,-0.00152588,-0.02441406
1.76882291,605,3.09991645,-1.69981272,-3.09912880,-0.00038147,1.49298764,0.00000000,3.09985742,-1.64945872,-3.09912880,-0.00042115,1.49298764,-0.00000000,3.09915351,-1.65022166,-3.09951027,-0.00114441,1.49336911,-0.00038147,-0.00488281,-0.00488281,0.00488281,-0.01464844,0.02929688,-0.01464844,-0.00114441,-0.00120947,-0.00152588,0.00000000
1.78404284,610,3.09991645,-1.69981272,-3.09912880,-0.00076294,1.49298764,0.00000000,3.09989710,-1.64945872,-3.09912880,-0.00065094,1.49298764,-0.00000000,3.09915351,-1.65022166,-3.09951027,-0.00114441,1.49336911,-0.00038147,-0.00488281,-0.00488281,0.00488281,-0.01464844,0.01464844,-0.02929688,-0.00114441,-0.00116573,-0.00152588,-0.02441406
1.79778194,615,3.09991645,-1.69981272,-3.09912880,-0.00076294,1.49298764,0.00000000,3.09991011,-1.64945872,-3.09912880,-0.00064616,1.49298764,-0.00000000,3.09915351,-1.65022166,-3.09951027,-0.00114441,1.49336911,-0.00038147,-0.00488281,-0.00976562,0.00488281,-0.01464844,0.01464844,-0.01464844,-0.00114441,-0.00137112,-0.00152588,0.00000000
1.81274533,620,3.09991645,-1.69981272,-3.09912880,-0.00038147,1.49298764,0.00000000,3.09991437,-1.64945872,-3.09912880,-0.00050727,1.49298764,-0.00000000,3.09915351,-1.65022166,-3.09951027,-0.00114441,1.49336911,-0.00038147,-0.00976562,-0.00488281,0.00488281,-0.02929688,0.01464844,0.00000000,-0.00114441,-0.00121870,-0.00152588,-0.02441406
1.82789350,625,3.09991645,-1.69981272,-3.09912880,-0.00038147,1.49298764,0.00000000,3.09991577,-1.64945872,-3.09912880,-0.00045394,1.49298764,-0.00000000,3.09915351,-1.65022166,-3.09951027,-0.00114441,1.49336911,-0.00038147,-0.00488281,0.00000000,0.00488281,-0.01464844,-0.00000000,-0.02929688,-0.00152588,-0.00132134,-0.00152588,-0.04882812
1.84335756,630,3.09991645,-1.69981272,-3.09912880,-0.00038147,1.49298764,0.00000000,3.09991622,-1.64945872,-3.09912880,-0.00053656,1.49298764,-0.00000000,3.09915351,-1.65022166,-3.09951027,-0.00114441,1.49336911,-0.00038147,-0.00488281,-0.00488281,-0.00000000,0.00000000,-0.00000000,-0.01464844,-0.00114441,-0.00126489,-0.00152588,-0.07324219
1.85956311,635,3.09991645,-1.69981272,-3.09912880,-0.00076294,1.49298764,0.00000000,3.09991637,-1.64945872,-3.09912880,-0.00055741,1.49298764,-0.00000000,3.09915351,-1.65022166,-3.09951027,-0.00114441,1.49336911,-0.00038147,-0.00976562,-0.00976562,0.00488281,-0.01464844,0.01464844,0.00000000,-0.00152588,-0.00143413,-0.00152588,-0.04882812
1.87454867,640,3.09991645,-1.69981272,-3.09874733,-0.00038147,1.49298764,0.00000000,3.09991642,-1.64945872,-3.09887233,-0.00053141,1.49298764,-0.00000000,3.09915351,-1.65022166,-3.09951027,-0.00114441,1.49336911,-0.00038147,-0.00976562,-0.00488281,0.00488281,0.00000000,0.01464844,-0.01464844,-0.00152588,-0.00148959,-0.00152588,0.00000000
1.89060950,645,3.09991645,-1.69981272,-3.09874733,-0.00076294,1.49298764,0.00000000,3.09991644,-1.64945872,-3.09878829,-0.00068707,1.49298764,-0.00000000,3.09953498,-1.65022166,-3.09951027,-0.00114441,1.49336911,-0.00038147,0.00000000,-0.00488281,0.00488281,-0.01464844,0.01464844,-0.02929688,-0.00152588,-0.00157026,-0.00152588,-0.04882812
1.90378261,650,3.09991645,-1.69981272,-3.09874733,-0.00076294,1.49298764,0.00000000,3.09991644,-1.64945872,-3.09876075,-0.00073808,1.49298764,-0.00000000,3.09915351,-1.65022166,-3.09912880,-0.00114441,1.49336911,-0.00038147,-0.00488281,0.00000000,0.00488281,-0.02929688,0.01464844,-0.01464844,-0.00114441,-0.00128395,-0.00152588,-0.02441406
1.91674376,655,3.09991645,-1.69981272,-3.09836586,-0.00076294,1.49298764,0.00000000,3.09991645,-1.64945872,-3.09849526,-0.00075479,1.49298764,-0.00000000,3.09915351,-1.65022166,-3.09951027,-0.00114441,1.49336911,-0.00038147,-0.00488281,-0.00488281,-0.00000000,0.00000000,-0.00000000,-0.01464844,-0.00114441,-0.00136592,-0.00152588,0.00000000
1.93276858,660,3.09991645,-1.69981272,-3.09760292,-0.00076294,1.49298764,0.00000000,3.09991645,-1.64945872,-3.09810675,-0.00076027,1.49298764,-0.00000000,3.09915351,-1.65022166,-3.09951027,-0.00114441,1.49336911,-0.00038147,-0.00976562,-0.00488281,0.00488281,-0.02929688,0.01464844,-0.01464844,-0.00152588,-0.00155415,-0.00152588,-0.02441406
1.94648957,665,3.09991645,-1.69981272,-3.09760292,-0.00076294,1.49298764,0.00000000,3.09991645,-1.64945872,-3.09776802,-0.00076206,1.49298764,-0.00000000,3.09915351,-1.65022166,-3.09912880,-0.00114441,1.49336911,-0.00038147,-0.00976562,-0.00488281,0.00976562,-0.02929688,0.02929688,0.00000000,-0.00152588,-0.00143126,-0.00152588,-0.02441406
1.95990515,670,3.09991645,-1.69981272,-3.09645851,-0.00076294,1.49298764,0.00000000,3.09991645,-1.64945872,-3.09713810,-0.00076265,1.49298764,-0.00000000,3.09953498,-1.65022166,-3.09912880,-0.00114441,1.49336911,-0.00038147,-0.00488281,-0.00488281,0.00488281,-0.02929688,-0.00000000,0.00000000,-0.00114441,-0.00139856,-0.00152588,-0.02441406
1.97279835,675,3.09991645,-1.69981272,-3.09569558,-0.00076294,1.49298764,0.00000000,3.09991645,-1.64945872,-3.09626982,-0.00076285,1.49298764,-0.00000000,3.09953498,-1.65022166,-3.09912880,-0.00114441,1.49336911,-0.00038147,-0.00488281,0.00000000,0.00488281,-0.01464844,0.02929688,-0.01464844,-0.00114441,-0.00132535,-0.00152588,-0.04882812
1.99023676,680,3.10029792,-1.69981272,-3.09378823,-0.00076294,1.49298764,0.00000000,3.10017292,-1.64945872,-3.09505110,-0.00076291,1.49298764,-0.00000000,3.09915351,-1.65022166,-3.09912880,-0.00114441,1.49336911,-0.00038147,-0.00488281,-0.00488281,0.00976562,-0.02929688,0.01464844,-0.01464844,-0.00114441,-0.00126620,-0.00152588,-0.02441406
2.00410891,685,3.10144233,-1.69981272,-3.09149941,-0.00076294,1.49260617,0.00000000,3.10077588,-1.64945872,-3.09318325,-0.00076293,1.49281125,-0.00000000,3.09915351,-1.65022166,-3.09912880,-0.00114441,1.49336911,-0.00038147,-0.00488281,-0.00488281,0.01464844,-0.02929688,0.01464844,-0.01464844,-0.00114441,-0.00132494,-0.00152588,-0.02441406
2.01689434,690,3.10182379,-1.69981272,-3.08997353,-0.00076294,1.49260617,0.00000000,3.10141010,-1.64945872,-3.09142617,-0.00076294,1.49267337,-0.00000000,3.09915351,-1.65022166,-3.09912880,-0.00114441,1.49336911,-0.00038147,-0.00488281,-0.00488281,0.01464844,-0.02929688,0.01464844,0.00000000,-0.00114441,-0.00128169,-0.00152588,0.00000000
2.03141260,695,3.10296820,-1.69981272,-3.08730324,-0.00076294,1.49260617,0.00000000,3.10220716,-1.64945872,-3.08936664,-0.00076294,1.49262819,-0.00000000,3.09953498,-1.65022166,-3.09874733,-0.00114441,1.49336911,-0.00038147,-0.00488281,-0.00488281,0.02441406,0.00000000,0.02929688,-0.02929688,-0.00152588,-0.00163983,-0.00152588,-0.02441406
2.04564500,700,3.10296820,-1.69981272,-3.08463295,-0.00076294,1.49260617,0.00000000,3.10271882,-1.64945872,-3.08682325,-0.00076294,1.49261338,-0.00000000,3.09953498,-1.65022166,-3.09836586,-0.00114441,1.49336911,-0.00038147,0.00000000,-0.00488281,0.01953125,-0.01464844,0.02929688,-0.02929688,-0.00114441,-0.00130675,-0.00152588,-0.04882812
2.06136036,705,3.10373114,-1.69981272,-3.08196266,-0.00076294,1.49260617,0.00000000,3.10332911,-1.64945872,-3.08400899,-0.00076294,1.49260853,-0.00000000,3.09953498,-1.65022166,-3.09836586,-0.00114441,1.49336911,-0.00038147,-0.00488281,-0.00488281,0.02441406,-0.01464844,-0.00000000,-0.01464844,-0.00152588,-0.00156992,-0.00152588,-0.02441406
2.07578588,710,3.10411261,-1.69981272,-3.07814797,-0.00076294,1.49260617,0.00000000,3.10378556,-1.64945872,-3.08084488,-0.00076294,1.49260694,-0.00000000,3.09953498,-1.65022166,-3.09798439,-0.00114441,1.49336911,-0.00038147,0.00000000,-0.00976562,0.02441406,-0.01464844,0.01464844,-0.01464844,-0.00152588,-0.00159658,-0.00152588,-0.04882812
2.09187222,715,3.10563849,-1.69981272,-3.07433327,-0.00076294,1.49184323,0.00000000,3.10463972,-1.64945872,-3.07750068,-0.00076294,1.49230491,-0.00000000,3.09953498,-1.65022166,-3.09760292,-0.00114441,1.49336911,-0.00038147,0.00000000,0.00000000,0.02441406,0.00000000,0.02929688,-0.01464844,-0.00114441,-0.00159043,-0.00152588,-0.02441406
2.10390639,720,3.10640143,-1.69981272,-3.07166298,-0.00076294,1.49108029,0.00000000,3.10567376,-1.64945872,-3.07407832,-0.00076294,1.49160071,-0.00000000,3.09953498,-1.65022166,-3.09760292,-0.00114441,1.49336911,-0.00038147,-0.00488281,-0.00488281,0.02441406,-0.01464844,0.01464844,-0.01464844,-0.00152588,-0.00168143,-0.00152588,-0.02441406
2.12095356,725,3.10754584,-1.69981272,-3.06746682,-0.00076294,1.48879147,0.00000000,3.10660183,-1.64945872,-3.07066550,-0.00076294,1.49046103,-0.00000000,3.09953498,-1.65022166,-3.09683998,-0.00114441,1.49336911,-0.00038147,-0.00488281,-0.00488281,0.04394531,-0.02929688,0.01464844,-0.01464844,-0.00114441,-0.00158308,-0.00152588,-0.04882812
2.13647246,730,3.10792731,-1.69981272,-3.06365212,-0.00076294,1.48650265,0.00000000,3.10742267,-1.64945872,-3.06672028,-0.00076294,1.48824895,-0.00000000,3.09953498,-1.65022166,-3.09645851,-0.00114441,1.49298764,-0.00038147,0.00000000,-0.00976562,0.04882812,-0.01464844,-0.00000000,-0.01464844,-0.00114441,-0.00142878,-0.00152588,0.00000000
2.15194798,735,3.10830878,-1.69981272,-3.05907448,-0.00076294,1.48421383,0.00000000,3.10801842,-1.64945872,-3.06238162,-0.00076294,1.48588811,-0.00000000,3.09953498,-1.65022166,-3.09569558,-0.00114441,1.49298764,-0.00038147,-0.00488281,0.00000000,0.03906250,-0.01464844,-0.00000000,-0.01464844,-0.00152588,-0.00160991,-0.00152588,-0.02441406
2.16705441,740,3.10830878,-1.69981272,-3.05525978,-0.00076294,1.48268796,0.00000000,3.10821363,-1.64945872,-3.05838741,-0.00076294,1.48406715,-0.00000000,3.09953498,-1.65022166,-3.09493264,-0.00114441,1.49336911,-0.00038147,0.00488281,-0.00976562,0.05859375,-0.01464844,0.02929688,-0.02929688,-0.00152588,-0.00162531,-0.00152588,-0.04882812
2.18040085,745,3.10830878,-1.69981272,-3.05182656,-0.00076294,1.48116208,0.00000000,3.10827760,-1.64945872,-3.05477818,-0.00076294,1.48240503,-0.00000000,3.09953498,-1.65022166,-3.09455117,-0.00114441,1.49260617,-0.00038147,0.00488281,-0.00488281,0.05371094,-0.01464844,-0.05859375,-0.02929688,-0.00152588,-0.00169286,-0.00152588,-0.02441406
2.19486499,750,3.10830878,-1.69981272,-3.04801186,-0.00076294,1.47811032,0.00000000,3.10829856,-1.64945872,-3.05109184,-0.00076294,1.48016116,-0.00000000,3.09991645,-1.65022166,-3.09378823,-0.00114441,1.49108029,-0.00038147,0.00488281,-0.00488281,0.03906250,-0.01464844,-0.10253906,-0.02929688,-0.00152588,-0.00167691,-0.00152588,-0.02441406
2.20900488,755,3.10830878,-1.69981272,-3.04381569,-0.00076294,1.47505856,0.00000000,3.10830543,-1.64945872,-3.04705053,-0.00076294,1.47734289,-0.00000000,3.10029792,-1.65022166,-3.09302529,-0.00114441,1.48955441,-0.00038147,0.01464844,-0.00488281,0.06347656,-0.01464844,-0.10253906,-0.02929688,-0.00152588,-0.00183184,-0.00152588,-0.02441406
2.22386980,760,3.10830878,-1.69981272,-3.04038246,-0.00076294,1.47200680,0.00000000,3.10830768,-1.64945872,-3.04335994,-0.00076294,1.47438521,-0.00000000,3.10029792,-1.65022166,-3.09226235,-0.00114441,1.48726559,-0.00038147,-0.00488281,-0.00488281,0.06835938,0.00000000,-0.14648438,-0.02929688,-0.00152588,-0.00188261,-0.00152588,0.00000000
2.23706126,765,3.10830878,-1.69981272,-3.03618630,-0.00076294,1.46895505,0.00000000,3.10830842,-1.64945872,-3.03957065,-0.00076294,1.47169778,-0.00000000,3.10029792,-1.65022166,-3.09149941,-0.00114441,1.48573971,-0.00038147,0.00000000,-0.00976562,0.05859375,0.00000000,-0.11718750,0.00000000,-0.00152588,-0.00189924,-0.00190735,0.00000000
2.25021386,770,3.10830878,-1.69981272,-3.03160866,-0.00076294,1.46704770,0.00000000,3.10830866,-1.64945872,-3.03532848,-0.00076294,1.46920132,-0.00000000,3.10029792,-1.65022166,-3.09073647,-0.00114441,1.48535824,-0.00038147,0.00000000,0.00000000,0.06835938,0.00000000,-0.02929688,-0.02929688,-0.00152588,-0.00190469,-0.00190735,-0.04882812
2.26545334,775,3.10830878,-1.69981272,-3.02703102,-0.00076294,1.46514035,0.00000000,3.10830874,-1.64945872,-3.03090228,-0.00076294,1.46697202,-0.00000000,3.10067939,-1.65022166,-3.08921059,-0.00114441,1.48497677,-0.00038147,0.00488281,-0.00488281,0.09277344,-0.02929688,-0.00000000,-0.01464844,-0.00152588,-0.00196898,-0.00152588,-0.02441406
2.28016162,780,3.10830878,-1.69981272,-3.02245339,-0.00076294,1.46323300,0.00000000,3.10830877,-1.64945872,-3.02642456,-0.00070190,1.46503926,-0.00000000,3.10067939,-1.65022166,-3.08806618,-0.00114441,1.48497677,-0.00038147,0.01464844,-0.00488281,0.09277344,-0.01464844,0.01464844,-0.01464844,-0.00152588,-0.00192754,-0.00190735,-0.02441406
2.29406309,785,3.10830878,-1.69981272,-3.01863869,-0.00076294,1.46132565,0.00000000,3.10830878,-1.64945872,-3.02211086,-0.00070388,1.46297465,-0.00000000,3.10106086,-1.65022166,-3.08692177,-0.00114441,1.48497677,-0.00038147,0.02441406,-0.00488281,0.09765625,-0.02929688,-0.00000000,-0.01464844,-0.00152588,-0.00197647,-0.00190735,-0.02441406
2.30724382,790,3.10830878,-1.69981272,-3.01444252,-0.00038147,1.45903683,0.00000000,3.10830878,-1.64945872,-3.01768624,-0.00066729,1.46061819,-0.00000000,3.10106086,-1.65022166,-3.08577736,-0.00114441,1.48383236,-0.00038147,0.00000000,-0.00488281,0.06835938,-0.01464844,-0.08789062,-0.01464844,-0.00152588,-0.00193000,-0.00190735,-0.04882812
2.32156181,795,3.10830878,-1.69981272,-3.01024636,-0.00038147,1.45674801,0.00000000,3.10830878,-1.64945872,-3.01333270,-0.00056302,1.45835604,-0.00000000,3.10106086,-1.65022166,-3.08463295,-0.00114441,1.48192502,-0.00038147,-0.00488281,-0.00488281,0.10742188,-0.02929688,-0.17578125,-0.01464844,-0.00152588,-0.00199290,-0.00190735,-0.02441406
2.33453488,800,3.10830878,-1.69981272,-3.00528725,-0.00076294,1.45407773,0.00000000,3.10830878,-1.64945872,-3.00901928,-0.00069743,1.45608218,-0.00000000,3.10144233,-1.65022166,-3.08310707,-0.00114441,1.47887326,-0.00038147,0.00000000,-0.00488281,0.10253906,0.00000000,-0.13183594,-0.01464844,-0.00190735,-0.00208797,-0.00190735,-0.02441406
2.35008407,805,3.10830878,-1.69981272,-2.99956520,-0.00076294,1.44988156,0.00000000,3.10830878,-1.64945872,-3.00421683,-0.00074147,1.45298760,-0.00000000,3.10144233,-1.65022166,-3.08196266,-0.00114441,1.47772885,-0.00038147,0.00000000,-0.00488281,0.07812500,-0.02929688,-0.07324219,-0.02929688,-0.00152588,-0.00196653,-0.00190735,0.00000000
2.36294103,810,3.10830878,-1.69981272,-2.99613198,-0.00076294,1.44644833,0.00000000,3.10830878,-1.64945872,-2.99976315,-0.00075591,1.44957305,-0.00000000,3.10144233,-1.65022166,-3.08043679,-0.00114441,1.47696591,-0.00038147,0.00488281,0.00000000,0.10253906,0.00000000,-0.02929688,-0.01464844,-0.00152588,-0.00214647,-0.00228882,-0.04882812
2.38044715,815,3.10869025,-1.69981272,-2.99079140,-0.00076294,1.44187069,0.00000000,3.10853400,-1.64945872,-2.99501691,-0.00069032,1.44546882,-0.00000000,3.10144233,-1.65022166,-3.07891091,-0.00114441,1.47620297,-0.00038147,0.00000000,-0.00488281,0.13183594,-0.02929688,-0.04394531,-0.01464844,-0.00190735,-0.00249864,-0.00228882,-0.04882812
2.39297795,820,3.10869025,-1.69981272,-2.98735817,-0.00076294,1.43958188,0.00000000,3.10855897,-1.64945872,-2.99052843,-0.00063905,1.44198210,-0.00000000,3.10182379,-1.65022166,-3.07700356,-0.00114441,1.47429562,-0.00038147,0.00976562,-0.00488281,0.13671875,-0.01464844,-0.11718750,0.00000000,-0.00228882,-0.00284476,-0.00267029,-0.04882812
2.40806580,825,3.10869025,-1.69981272,-2.98316201,-0.00038147,1.43691159,0.00000000,3.10859840,-1.64945872,-2.98648892,-0.00053618,1.43924350,-0.00000000,3.10182379,-1.65022166,-3.07509621,-0.00114441,1.47162533,-0.00038147,0.00976562,-0.00488281,0.12695312,-0.01464844,-0.17578125,-0.01464844,-0.00228882,-0.00317790,-0.00381470,-0.12207031
2.42250109,830,3.10869025,-1.69981272,-2.97934731,-0.00038147,1.43424130,0.00000000,3.10866015,-1.64945872,-2.98229929,-0.00048099,1.43630279,-0.00000000,3.10182379,-1.65022166,-3.07357033,-0.00114441,1.46781064,-0.00038147,0.00488281,-0.00488281,0.12207031,0.01464844,-0.24902344,-0.01464844,-0.00343323,-0.00438740,-0.00724792,-0.09765625
2.43642044,835,3.10869025,-1.69981272,-2.97591408,-0.00076294,1.43157101,0.00000000,3.10868039,-1.64945872,-2.97862797,-0.00055141,1.43355365,-0.00000000,3.10220526,-1.65022166,-3.07204445,-0.00114441,1.46323300,-0.00038147,0.00000000,-0.00488281,0.11230469,-0.01464844,-0.30761719,-0.01464844,-0.00801086,-0.00961479,-0.00724792,-0.02441406
2.44988608,840,3.10869025,-1.69981272,-2.97286232,-0.00076294,1.42966366,0.00000000,3.10868702,-1.64945872,-2.97529311,-0.00055251,1.43132945,-0.00000000,3.10220526,-1.65022166,-3.07051857,-0.00114441,1.45903683,-0.00038147,0.00000000,-0.00488281,0.12695312,-0.02929688,-0.30761719,-0.01464844,-0.00686646,-0.01195782,-0.00724792,-0.02441406
2.46653986,845,3.10869025,-1.69981272,-2.96866616,-0.00076294,1.42661191,0.00000000,3.10868919,-1.64945872,-2.97171951,-0.00063295,1.42880130,-0.00000000,3.10220526,-1.65022166,-3.06861122,-0.00114441,1.45751095,-0.00038147,-0.00488281,-0.00488281,0.13671875,-0.01464844,-0.07324219,-0.01464844,-0.00686646,-0.01245997,-0.00724792,-0.02441406
2.48124218,850,3.10869025,-1.69981272,-2.96523293,-0.00038147,1.42317868,0.00000000,3.10868990,-1.64945872,-2.96805865,-0.00046388,1.42575255,-0.00000000,3.10220526,-1.65022166,-3.06670388,-0.00114441,1.45598507,-0.00038147,0.00000000,-0.00488281,0.11718750,0.00000000,-0.13183594,-0.01464844,-0.00686646,-0.01264404,-0.00724792,-0.02441406
2.49589419,855,3.10907172,-1.69981272,-2.96218117,-0.00076294,1.42012692,0.00000000,3.10876643,-1.64945872,-2.96487761,-0.00048477,1.42274083,-0.00000000,3.10220526,-1.65022166,-3.06441506,-0.00114441,1.45484067,-0.00038147,0.00000000,-0.00488281,0.13183594,-0.01464844,-0.04394531,-0.01464844,-0.00686646,-0.01260670,-0.00724792,-0.02441406
2.50876689,860,3.10907172,-1.69981272,-2.96027382,-0.00076294,1.41821957,0.00000000,3.10897168,-1.64945872,-2.96221452,-0.00063273,1.42010198,-0.00000000,3.10258673,-1.65022166,-3.06250771,-0.00114441,1.45331479,-0.00038147,0.00488281,-0.00488281,0.16601562,-0.01464844,-0.08789062,-0.01464844,-0.00686646,-0.01267259,-0.00801086,-0.09765625
2.52173066,865,3.10907172,-1.69981272,-2.95798500,-0.00038147,1.41631222,0.00000000,3.10903894,-1.64945872,-2.95981087,-0.00064398,1.41787485,-0.00000000,3.10258673,-1.65022166,-3.06060036,-0.00114441,1.45217038,-0.00038147,0.00976562,-0.00488281,0.13671875,-0.01464844,-0.07324219,-0.01464844,-0.00686646,-0.01271371,-0.00991821,-0.19531250
2.53429317,870,3.10945319,-1.69981272,-2.95531472,-0.00076294,1.41516781,0.00000000,3.10931745,-1.64945872,-2.95735149,-0.00065365,1.41633659,-0.00000000,3.10296820,-1.65022166,-3.05907448,-0.00114441,1.45064450,-0.00038147,0.01953125,-0.00488281,0.11718750,-0.01464844,-0.13183594,-0.02929688,-0.00686646,-0.01262953,-0.01144409,-0.09765625
2.54703879,875,3.10945319,-1.69981272,-2.95302590,-0.00038147,1.41364193,0.00000000,3.10940871,-1.64945872,-2.95484419,-0.00047066,1.41477541,-0.00000000,3.10296820,-1.65022166,-3.05754860,-0.00114441,1.44911862,-0.00038147,0.00976562,-0.00488281,0.12207031,-0.01464844,-0.16113281,-0.02929688,-0.00686646,-0.01260195,-0.01144409,-0.02441406
2.56081629,880,3.10945319,-1.69981272,-2.95073708,-0.00038147,1.41287900,0.00000000,3.10943861,-1.64945872,-2.95256385,-0.00041069,1.41361955,-0.00000000,3.10334967,-1.65022166,-3.05564125,-0.00114441,1.44568539,-0.00038147,0.00488281,-0.00488281,0.15625000,0.00000000,-0.26367188,-0.02929688,-0.00686646,-0.01259291,-0.01144409,-0.02441406
2.57439518,885,3.10945319,-1.69981272,-2.94768532,-0.00076294,1.41211606,0.00000000,3.10944841,-1.64945872,-2.94984300,-0.00058648,1.41272786,-0.00000000,3.10334967,-1.65022166,-3.05373391,-0.00114441,1.44187069,-0.00038147,0.00000000,-0.00488281,0.13671875,-0.01464844,-0.24902344,-0.01464844,-0.00686646,-0.01258994,-0.01144409,-0.02441406
2.59017062,890,3.10945319,-1.69981272,-2.94463356,-0.00038147,1.40982724,0.00000000,3.10945162,-1.64945872,-2.94699196,-0.00059757,1.41117859,-0.00000000,3.10334967,-1.65022166,-3.05182656,-0.00114441,1.43958188,-0.00038147,0.00000000,-0.00488281,0.12695312,-0.02929688,-0.13183594,0.00000000,-0.00686646,-0.01258897,-0.01144409,-0.02441406
2.60270524,895,3.10983466,-1.70019419,-2.94234474,-0.00076294,1.40830136,0.00000000,3.10963883,-1.64968394,-2.94444860,-0.00058961,1.40946487,-0.00000000,3.10334967,-1.65022166,-3.04991921,-0.00114441,1.43691159,-0.00038147,0.00000000,0.00000000,0.13671875,0.00000000,-0.20507812,-0.01464844,-0.00686646,-0.01258866,-0.01144409,-0.02441406
2.61867619,900,3.10983466,-1.70019419,-2.94005593,-0.00076294,1.40639401,0.00000000,3.10977049,-1.64978899,-2.94199336,-0.00065732,1.40782801,-0.00000000,3.10373114,-1.65022166,-3.04763039,-0.00114441,1.43309689,-0.00038147,0.00488281,-0.00488281,0.16113281,-0.02929688,-0.26367188,-0.01464844,-0.00686646,-0.01258855,-0.01144409,-0.04882812
2.63006091,905,3.10983466,-1.70019419,-2.93700417,-0.00038147,1.40448666,0.00000000,3.10981363,-1.64982341,-2.93931237,-0.00054217,1.40604347,-0.00000000,3.10373114,-1.65022166,-3.04572304,-0.00114441,1.43157101,-0.00038147,0.00000000,-0.00488281,0.15136719,-0.02929688,-0.07324219,-0.01464844,-0.00686646,-0.01258852,-0.01144409,-0.04882812
2.64380574,910,3.10983466,-1.70019419,-2.93471535,-0.00076294,1.40257931,0.00000000,3.10982777,-1.64983469,-2.93672414,-0.00065154,1.40418564,-0.00000000,3.10373114,-1.65022166,-3.04381569,-0.00114441,1.43118954,-0.00038147,0.00488281,-0.00488281,0.14160156,0.00000000,-0.02929688,-0.01464844,-0.00686646,-0.01277308,-0.01144409,-0.02441406
2.66030908,915,3.11021613,-1.70019419,-2.93204506,-0.00038147,1.39952756,0.00000000,3.11005762,-1.64983839,-2.93391033,-0.00061108,1.40159737,-0.00000000,3.10411261,-1.65022166,-3.04152687,-0.00114441,1.42966366,-0.00038147,0.00000000,-0.00488281,0.15625000,0.00000000,-0.11718750,-0.01464844,-0.00686646,-0.01264898,-0.01144409,-0.02441406
2.67352414,920,3.11059760,-1.70019419,-2.92937477,-0.00076294,1.39647580,0.00000000,3.11042066,-1.64983960,-2.93123989,-0.00066435,1.39866429,-0.00000000,3.10411261,-1.65022166,-3.03923806,-0.00114441,1.42813778,-0.00038147,0.00488281,-0.00488281,0.15136719,-0.01464844,-0.05859375,-0.01464844,-0.00686646,-0.01270598,-0.01144409,-0.02441406
2.68894339,925,3.11136054,-1.70019419,-2.92632302,-0.00076294,1.39227963,0.00000000,3.11095100,-1.64984000,-2.92853672,-0.00069938,1.39519500,-0.00000000,3.10411261,-1.65022166,-3.03733071,-0.00114441,1.42623044,-0.00038147,0.00000000,-0.00488281,0.14160156,-0.01464844,-0.10253906,-0.01464844,-0.00686646,-0.01270512,-0.01144409,-0.02441406
2.70276189,930,3.11212348,-1.70019419,-2.92403420,-0.00076294,1.38960934,0.00000000,3.11162014,-1.64984013,-2.92625861,-0.00074211,1.39212764,-0.00000000,3.10411261,-1.65022166,-3.03504189,-0.00114441,1.42470456,-0.00038147,0.00000000,-0.00488281,0.15136719,-0.02929688,-0.14648438,-0.01464844,-0.00686646,-0.01292457,-0.01144409,-0.02441406
2.71604586,935,3.11288642,-1.70019419,-2.92136391,-0.00076294,1.38693905,0.00000000,3.11232109,-1.64984017,-2.92369925,-0.00068580,1.38937851,0.00006104,3.10411261,-1.65022166,-3.03351601,-0.00114441,1.42279721,-0.00038147,-0.00488281,-0.00488281,0.14160156,0.00000000,-0.10253906,0.00000000,-0.00724792,-0.01308949,-0.01182556,-0.04882812
2.73044991,940,3.11364936,-1.70019419,-2.91983803,-0.00038147,1.38503171,0.00038147,3.11306372,-1.64984018,-2.92150415,-0.00048119,1.38697608,0.00027647,3.10411261,-1.65022166,-3.03160866,-0.00114441,1.42050839,-0.00038147,0.00488281,-0.00488281,0.16113281,0.00000000,-0.16113281,-0.01464844,-0.00724792,-0.01312498,-0.01144409,-0.04882812
2.74478579,945,3.11441230,-1.70019419,-2.91754921,-0.00076294,1.38350583,0.00038147,3.11379022,-1.64984019,-2.91934614,-0.00049044,1.38492470,0.00023720,3.10449408,-1.65022166,-3.02893837,-0.00114441,1.41745663,-0.00038147,0.00976562,-0.00488281,0.16601562,0.00000000,-0.23437500,0.00000000,-0.00724792,-0.01327723,-0.01182556,-0.04882812
2.75704622,950,3.11479377,-1.70019419,-2.91564186,-0.00038147,1.38159848,0.00038147,3.11428475,-1.64984019,-2.91721750,-0.00050946,1.38308929,0.00033420,3.10487555,-1.65022166,-3.02703102,-0.00114441,1.41440487,-0.00038147,0.01953125,-0.00488281,0.14160156,-0.01464844,-0.20507812,-0.01464844,-0.00724792,-0.01324900,-0.01182556,-0.04882812
2.76987720,955,3.11517524,-1.70019419,-2.91411599,-0.00038147,1.38007260,0.00038147,3.11476430,-1.64984019,-2.91549411,-0.00054255,1.38131306,0.00036598,3.10487555,-1.65022166,-3.02550515,-0.00114441,1.41287900,-0.00038147,0.01953125,0.00000000,0.12695312,-0.01464844,-0.14648438,-0.01464844,-0.00724792,-0.01319580,-0.01182556,0.00000000
2.78299999,960,3.11517524,-1.70019419,-2.91220864,-0.00038147,1.37892819,0.00038147,3.11504058,-1.64984019,-2.91368610,-0.00053435,1.37989912,0.00037639,3.10525702,-1.65022166,-3.02359780,-0.00114441,1.40868283,-0.00038147,0.00976562,-0.00488281,0.15625000,-0.01464844,-0.27832031,-0.01464844,-0.00686646,-0.01314785,-0.01182556,-0.02441406
2.79763222,965,3.11517524,-1.70019419,-2.91030129,-0.00038147,1.37778378,0.00038147,3.11513111,-1.64984019,-2.91184255,-0.00051946,1.37880750,0.00037981,3.10525702,-1.65022166,-3.02130898,-0.00114441,1.40524960,-0.00038147,0.00976562,-0.00488281,0.15625000,0.00000000,-0.21972656,-0.01464844,-0.00724792,-0.01310016,-0.01144409,0.00000000
2.81058359,970,3.11517524,-1.70019419,-2.90877541,-0.00038147,1.37625790,0.00038147,3.11516078,-1.64984019,-2.91021111,-0.00042669,1.37746298,0.00038092,3.10563849,-1.65022166,-3.01940163,-0.00114441,1.40410519,-0.00038147,0.01953125,-0.00488281,0.14648438,-0.02929688,-0.07324219,-0.01464844,-0.00724792,-0.01320660,-0.01182556,-0.04882812
2.82299209,975,3.11517524,-1.70019419,-2.90724953,-0.00038147,1.37511349,0.00038147,3.11517050,-1.64984019,-2.90858961,-0.00049638,1.37610408,0.00038129,3.10601996,-1.65022166,-3.01787575,-0.00114441,1.40257931,-0.00038147,0.00488281,-0.00488281,0.13671875,0.01464844,-0.05859375,0.00000000,-0.00724792,-0.01322585,-0.01182556,-0.02441406
2.83715415,980,3.11517524,-1.70019419,-2.90572365,-0.00038147,1.37282467,0.00038147,3.11517368,-1.64984019,-2.90688347,-0.00050702,1.37438804,0.00038141,3.10601996,-1.65022166,-3.01520546,-0.00114441,1.40181637,-0.00038147,-0.00488281,-0.00488281,0.16113281,-0.01464844,-0.07324219,-0.01464844,-0.00724792,-0.01331029,-0.01182556,-0.04882812
2.85065532,985,3.11555670,-1.70019419,-2.90419777,-0.00038147,1.37168027,0.00038147,3.11543120,-1.64984019,-2.90539862,-0.00047144,1.37275700,0.00038145,3.10601996,-1.65022166,-3.01367958,-0.00114441,1.40105343,-0.00038147,0.00000000,-0.00488281,0.15625000,-0.01464844,-0.04394531,-0.01464844,-0.00724792,-0.01321589,-0.01182556,-0.02441406
2.86321115,990,3.11555670,-1.70019419,-2.90229042,-0.00038147,1.36977292,0.00038147,3.11551558,-1.64984019,-2.90370980,-0.00049884,1.37105934,0.00038146,3.10601996,-1.65022166,-3.01139077,-0.00114441,1.39990902,-0.00038147,0.00488281,-0.00488281,0.15136719,-0.02929688,-0.05859375,0.00000000,-0.00724792,-0.01316640,-0.01182556,0.00000000
2.87755251,995,3.11555670,-1.70057566,-2.90076454,-0.00038147,1.36710263,0.00038147,3.11554323,-1.65009666,-2.90201138,-0.00045118,1.36883129,0.00038147,3.10601996,-1.65022166,-3.00948342,-0.00114441,1.39800168,-0.00038147,0.00488281,-0.00976562,0.15136719,-0.02929688,-0.11718750,-0.01464844,-0.00724792,-0.01319315,-0.01220703,-0.02441406
2.88970232,1000,3.11555670,-1.70133860,-2.89923867,-0.00038147,1.36443234,0.00038147,3.11555229,-1.65044315,-2.90039918,-0.00040431,1.36631959,0.00038147,3.10640143,-1.65022166,-3.00795754,-0.00114441,1.39647580,-0.00038147,0.00488281,-0.00488281,0.14160156,0.00000000,-0.11718750,-0.01464844,-0.00724792,-0.01329957,-0.01220703,-0.04882812
2.90613723,1005,3.11555670,-1.70210154,-2.89694985,-0.00076294,1.36138058,0.00038147,3.11555526,-1.65116973,-2.89848100,-0.00052628,1.36358005,0.00038147,3.10678290,-1.65022166,-3.00566872,-0.00114441,1.39380551,-0.00038147,0.01953125,-0.00488281,0.16113281,-0.01464844,-0.19042969,0.00000000,-0.00724792,-0.01333444,-0.01220703,-0.02441406
2.92031145,1010,3.11555670,-1.70248301,-2.89504250,-0.00038147,1.35871029,0.00038147,3.11555623,-1.65178342,-2.89652128,-0.00056027,1.36074742,0.00038147,3.10678290,-1.65022166,-3.00337990,-0.00114441,1.38999081,-0.00038147,0.00488281,-0.00488281,0.16113281,0.00000000,-0.20507812,-0.01464844,-0.00724792,-0.01334587,-0.01220703,-0.02441406
2.93827772,1015,3.11555670,-1.70324595,-2.89275368,-0.00038147,1.35489560,0.00038147,3.11555655,-1.65227822,-2.89449069,-0.00054016,1.35752846,0.00038147,3.10716437,-1.65022166,-3.00070961,-0.00114441,1.38693905,-0.00038147,0.00000000,-0.00488281,0.13183594,0.00000000,-0.10253906,-0.01464844,-0.00724792,-0.01334962,-0.01258850,-0.02441406
2.95475268,1020,3.11555670,-1.70477183,-2.89008339,-0.00076294,1.35184384,0.00038147,3.11555665,-1.65338615,-2.89218871,-0.00065088,1.35436771,0.00038147,3.10716437,-1.65022166,-2.99842079,-0.00114441,1.38388730,-0.00038147,0.00488281,-0.00488281,0.15136719,0.00000000,-0.19042969,-0.01464844,-0.00724792,-0.01335084,-0.01258850,-0.04882812
2.96923614,1025,3.11555670,-1.70515330,-2.88817604,-0.00038147,1.34879208,0.00076294,3.11555669,-1.65430499,-2.88997187,-0.00058889,1.35125045,0.00045776,3.10716437,-1.65022166,-2.99651345,-0.00114441,1.38159848,-0.00038147,0.00976562,-0.00488281,0.17578125,-0.01464844,-0.20507812,-0.01464844,-0.00724792,-0.01335124,-0.01296997,-0.02441406
2.98250961,1030,3.11555670,-1.70629771,-2.88588723,-0.00076294,1.34421444,0.00038147,3.11555670,-1.65512499,-2.88769687,-0.00065708,1.34730418,0.00044553,3.10754584,-1.65022166,-2.99460610,-0.00114441,1.37930966,-0.00038147,0.01464844,-0.00976562,0.14160156,0.00000000,-0.07324219,-0.01464844,-0.00724792,-0.01335138,-0.01296997,-0.02441406
2.99648070,1035,3.11555670,-1.70782359,-2.88283547,-0.00076294,1.34039975,0.00038147,3.11555670,-1.65625160,-2.88515990,-0.00072825,1.34351278,0.00047277,3.10754584,-1.65022166,-2.99269875,-0.00114441,1.37816525,-0.00038147,0.00488281,-0.00488281,0.13671875,-0.01464844,-0.05859375,-0.02929688,-0.00724792,-0.01335142,-0.01335144,-0.02441406
3.01058674,1040,3.11555670,-1.71011241,-2.88016518,-0.00038147,1.33620358,0.00038147,3.11555670,-1.65808927,-2.88239218,-0.00058739,1.33955862,0.00044264,3.10792731,-1.65022166,-2.99040993,-0.00114441,1.37549496,-0.00038147,0.00000000,-0.00976562,0.17578125,0.01464844,-0.20507812,-0.02929688,-0.00724792,-0.01335143,-0.01411438,-0.09765625
3.02569890,1045,3.11555670,-1.71163829,-2.87635048,-0.00038147,1.33200741,0.00038147,3.11555670,-1.65983646,-2.87921206,-0.00044895,1.33554380,0.00040151,3.10792731,-1.65022166,-2.98850258,-0.00114441,1.37320614,-0.00038147,0.00488281,-0.00488281,0.16113281,-0.02929688,-0.17578125,-0.01464844,-0.00724792,-0.01335144,-0.01602173,-0.21972656
3.03905082,1050,3.11555670,-1.71278269,-2.87329872,-0.00076294,1.32781125,0.00076294,3.11555670,-1.66135857,-2.87580916,-0.00062099,1.33119954,0.00046433,3.10792731,-1.65022166,-2.98621376,-0.00114441,1.37206173,-0.00038147,0.00000000,-0.00488281,0.13671875,0.00000000,-0.05859375,-0.02929688,-0.00724792,-0.01347351,-0.01640320,-0.02441406
3.05226040,1055,3.11555670,-1.71545298,-2.86872109,-0.00076294,1.32323361,0.00076294,3.11555670,-1.66318533,-2.87218140,-0.00059728,1.32698158,0.00048492,3.10792731,-1.65022166,-2.98430641,-0.00114441,1.37015439,-0.00038147,0.00488281,-0.00976562,0.14648438,-0.01464844,-0.14648438,-0.01464844,-0.00724792,-0.01339144,-0.01640320,-0.02441406
3.06817818,1060,3.11555670,-1.71774180,-2.86490639,-0.00076294,1.31827450,0.00038147,3.11555670,-1.66560058,-2.86804027,-0.00062077,1.32211592,0.00044662,3.10830878,-1.65022166,-2.98239907,-0.00114441,1.36748410,-0.00038147,0.00000000,-0.00488281,0.16113281,0.00000000,-0.21972656,-0.02929688,-0.00724792,-0.01336455,-0.01640320,0.00000000
3.08252335,1065,3.11555670,-1.72079356,-2.85803994,-0.00076294,1.30950070,0.00076294,3.11555670,-1.66841251,-2.86264009,-0.00063627,1.31515643,0.00058897,3.10830878,-1.65022166,-2.97972878,-0.00114441,1.36214352,-0.00038147,0.00976562,-0.01953125,0.16601562,-0.01464844,-0.23437500,-0.01464844,-0.00724792,-0.01335574,-0.01640320,-0.02441406
3.09645367,1070,3.11555670,-1.72384532,-2.85231789,-0.00038147,1.30301571,0.00038147,3.11555670,-1.67119770,-2.85702009,-0.00057483,1.30849398,0.00044946,3.10869025,-1.65060313,-2.97743996,-0.00114441,1.35756589,-0.00038147,0.00976562,-0.01464844,0.15625000,-0.02929688,-0.30761719,-0.02929688,-0.00724792,-0.01335285,-0.01640320,-0.02441406
3.11342955,1075,3.11555670,-1.72804148,-2.84430703,-0.00038147,1.29347897,0.00038147,3.11555670,-1.67440808,-2.85065497,-0.00051514,1.30130192,0.00040375,3.10869025,-1.65098460,-2.97438820,-0.00114441,1.35146237,-0.00038147,-0.00488281,-0.04394531,0.17089844,-0.01464844,-0.27832031,-0.01464844,-0.00724792,-0.01335190,-0.01640320,-0.02441406
3.12843919,1080,3.11555670,-1.73071177,-2.83896645,-0.00038147,1.28699399,0.00038147,3.11555670,-1.67794479,-2.84370133,-0.00051756,1.29286893,0.00038877,3.10869025,-1.65136607,-2.97248085,-0.00114441,1.34764767,-0.00038147,-0.00488281,-0.02929688,0.17578125,-0.01464844,-0.24902344,0.00000000,-0.00724792,-0.01335159,-0.01640320,-0.02441406
3.14287305,1085,3.11555670,-1.73376353,-2.83209999,-0.00038147,1.27936459,0.00038147,3.11555670,-1.68105537,-2.83710855,-0.00051395,1.28503579,0.00038386,3.10869025,-1.65212901,-2.96981057,-0.00114441,1.34535885,-0.00038147,0.00000000,-0.05859375,0.17089844,-0.01464844,-0.08789062,-0.01464844,-0.00724792,-0.01335149,-0.01640320,-0.02441406
3.15553951,1090,3.11555670,-1.73757823,-2.82523354,-0.00038147,1.27135373,0.00038147,3.11555670,-1.68443230,-2.83036644,-0.00055623,1.27741714,0.00038225,3.10907172,-1.65251048,-2.96752175,-0.00114441,1.34307004,-0.00038147,0.00000000,-0.04882812,0.17578125,-0.01464844,-0.26367188,0.00000000,-0.00724792,-0.01335146,-0.01640320,0.00000000
3.17135096,1095,3.11555670,-1.74024852,-2.81798561,-0.00076294,1.26296139,0.00038147,3.11555670,-1.68761589,-2.82327206,-0.00056386,1.26934620,0.00038173,3.10907172,-1.65327342,-2.96446999,-0.00114441,1.33887387,-0.00038147,0.00000000,-0.04394531,0.20996094,-0.01464844,-0.29296875,-0.01464844,-0.00724792,-0.01335145,-0.01640320,-0.02441406
3.18407798,1100,3.11555670,-1.74330027,-2.81111916,-0.00038147,1.25418759,0.00038147,3.11555670,-1.69045059,-2.81681089,-0.00044123,1.26125291,0.00038155,3.10907172,-1.65403636,-2.96218117,-0.00114441,1.33391476,-0.00038147,0.00976562,-0.06347656,0.19042969,0.00000000,-0.38085938,-0.01464844,-0.00724792,-0.01335144,-0.01640320,-0.04882812
3.19611478,1105,3.11555670,-1.74597056,-2.80577858,-0.00038147,1.24846554,0.00038147,3.11555670,-1.69331147,-2.81056504,-0.00040105,1.25396821,0.00038150,3.10945319,-1.65479930,-2.95989235,-0.00114441,1.32857419,-0.00038147,0.00976562,-0.06347656,0.18554688,0.00000000,-0.39550781,-0.01464844,-0.00724792,-0.01335144,-0.01640320,-0.04882812
3.20986342,1110,3.11555670,-1.74864085,-2.79967507,-0.00038147,1.24236203,0.00038147,3.11555670,-1.69624636,-2.80400716,-0.00038789,1.24704795,0.00038148,3.10945319,-1.65518077,-2.95722206,-0.00114441,1.32247067,-0.00038147,0.00976562,-0.03906250,0.20996094,-0.01464844,-0.49804688,0.00000000,-0.00724792,-0.01344910,-0.01640320,-0.02441406
3.22547507,1115,3.11555670,-1.75169261,-2.79280861,-0.00038147,1.23282528,0.00038147,3.11555670,-1.69901714,-2.79778528,-0.00038357,1.23946331,0.00038147,3.10983466,-1.65594371,-2.95493325,-0.00114441,1.31713009,-0.00038147,0.00976562,-0.06835938,0.19042969,-0.02929688,-0.38085938,-0.01464844,-0.00724792,-0.01338344,-0.01640320,-0.02441406
3.23762131,1120,3.11555670,-1.75359996,-2.78594216,-0.00038147,1.22519589,0.00038147,3.11555670,-1.70149844,-2.79104899,-0.00038216,1.23130854,0.00038147,3.10983466,-1.65670665,-2.95150002,-0.00114441,1.30988217,0.00000000,0.00000000,-0.07812500,0.21484375,-0.01464844,-0.45410156,0.00000000,-0.00724792,-0.01336193,-0.01640320,-0.02441406
3.25192165,1125,3.11555670,-1.75665171,-2.77907570,-0.00038147,1.21909237,0.00038147,3.11555670,-1.70401122,-2.78463827,-0.00038170,1.22452310,0.00038147,3.10983466,-1.65746958,-2.94882973,-0.00114441,1.30454159,0.00000000,0.00488281,-0.06347656,0.21972656,-0.02929688,-0.46875000,0.00000000,-0.00724792,-0.01335488,-0.01602173,0.00000000
3.26613092,1130,3.11555670,-1.75894053,-2.77259072,-0.00038147,1.21108151,0.00038147,3.11555670,-1.70650624,-2.77832117,-0.00038154,1.21776046,0.00038147,3.10983466,-1.65861399,-2.94539650,-0.00114441,1.29996396,0.00000000,0.00488281,-0.07324219,0.24414062,-0.01464844,-0.32226562,-0.01464844,-0.00724792,-0.01347464,-0.01640320,0.00000000
3.28001809,1135,3.11555670,-1.76046641,-2.76725014,-0.00038147,1.20459652,0.00038147,3.11555670,-1.70849080,-2.77226022,-0.00038149,1.21046428,0.00038147,3.11021613,-1.65899546,-2.94234474,-0.00114441,1.29462338,0.00000000,0.00488281,-0.03906250,0.20019531,-0.01464844,-0.33691406,0.00000000,-0.00724792,-0.01346993,-0.01602173,-0.02441406
3.29289198,1140,3.11555670,-1.76237376,-2.76229103,-0.00038147,1.20078183,0.00038147,3.11555670,-1.71047227,-2.76664856,-0.00038148,1.20490477,0.00038147,3.11021613,-1.66013987,-2.93967446,-0.00114441,1.29004574,0.00000000,0.00488281,-0.06835938,0.23925781,0.00000000,-0.38085938,-0.01464844,-0.00724792,-0.01339027,-0.01602173,-0.02441406
3.30563951,1145,3.11555670,-1.76389964,-2.75733193,-0.00038147,1.19696713,0.00038147,3.11555670,-1.71225682,-2.76135843,-0.00038147,1.20029128,0.00038147,3.11021613,-1.66090281,-2.93662270,-0.00114441,1.28432370,0.00000000,0.00488281,-0.06835938,0.23925781,-0.01464844,-0.46875000,0.00000000,-0.00724792,-0.01336416,-0.01602173,-0.02441406
3.32382035,1150,3.11555670,-1.76504405,-2.75160988,-0.00038147,1.19315243,0.00038147,3.11555670,-1.71372085,-2.75569882,-0.00038147,1.19609521,0.00038147,3.11059760,-1.66242869,-2.93204506,-0.00114441,1.27440548,0.00000000,0.00000000,-0.08300781,0.25878906,-0.04394531,-0.45410156,-0.01464844,-0.00724792,-0.01335561,-0.01602173,-0.04882812
3.33675289,1155,3.11555670,-1.76695140,-2.74512490,-0.00038147,1.18704892,0.00038147,3.11555670,-1.71533401,-2.75003165,-0.00038147,1.19145510,0.00038147,3.11059760,-1.66319163,-2.92899330,-0.00114441,1.26868344,0.00000000,-0.00488281,-0.07324219,0.20996094,0.00000000,-0.38085938,-0.01464844,-0.00724792,-0.01335281,-0.01602173,0.00000000
3.35170484,1160,3.11555670,-1.76809581,-2.74054726,-0.00038147,1.18323422,0.00038147,3.11555670,-1.71667108,-2.74483089,-0.00038147,1.18680450,0.00038147,3.11059760,-1.66433604,-2.92594155,-0.00114441,1.26448727,0.00000000,0.00000000,-0.06835938,0.22460938,-0.01464844,-0.30761719,0.00000000,-0.00724792,-0.01335189,-0.01602173,-0.02441406
3.36800003,1165,3.11555670,-1.76847727,-2.73558815,-0.00038147,1.17941952,0.00038147,3.11555670,-1.71764742,-2.73945959,-0.00038147,1.18253182,0.00038147,3.11059760,-1.66548045,-2.92212685,-0.00114441,1.25800229,0.00000000,0.00000000,-0.08300781,0.24902344,0.00000000,-0.42480469,-0.01464844,-0.00724792,-0.01335159,-0.01602173,-0.07324219
3.38250184,1170,3.11555670,-1.76962168,-2.73062905,-0.00038147,1.17674923,0.00038147,3.11555670,-1.71848626,-2.73419305,-0.00038147,1.17892581,0.00038147,3.11059760,-1.66662486,-2.91831215,-0.00114441,1.25113583,-0.00038147,0.00000000,-0.07324219,0.28320312,0.00000000,-0.43945312,-0.01464844,-0.00724792,-0.01335149,-0.01602173,-0.02441406
3.40014744,1175,3.11555670,-1.77038462,-2.72490700,-0.00038147,1.17407895,0.00038147,3.11555670,-1.71940542,-2.72904653,-0.00038147,1.17634539,0.00038147,3.11059760,-1.66776927,-2.91411599,-0.00114441,1.24541379,-0.00038147,0.00000000,-0.08300781,0.24414062,-0.01464844,-0.32226562,-0.01464844,-0.00724792,-0.01322939,-0.01602173,-0.04882812
3.41361451,1180,3.11555670,-1.77076609,-2.72071083,-0.00038147,1.17064572,0.00038147,3.11555670,-1.72008223,-2.72417079,-0.00038147,1.17312276,0.00038147,3.11059760,-1.66853221,-2.91030129,-0.00114441,1.24045468,-0.00038147,0.00000000,-0.04394531,0.23437500,-0.01464844,-0.30761719,-0.01464844,-0.00724792,-0.01331145,-0.01602173,-0.02441406
3.42808890,1185,3.11555670,-1.77114756,-2.71689614,-0.00038147,1.16835690,0.00038147,3.11555670,-1.72056047,-2.71997033,-0.00038147,1.17031946,0.00038147,3.11059760,-1.66967662,-2.90648659,-0.00114441,1.23549557,-0.00038147,-0.00488281,-0.07812500,0.27343750,-0.01464844,-0.33691406,-0.02929688,-0.00724792,-0.01333833,-0.01602173,-0.02441406
3.44234300,1190,3.11555670,-1.77191050,-2.71269997,-0.00038147,1.16530514,0.00038147,3.11555670,-1.72115981,-2.71597636,-0.00038147,1.16774071,0.00038147,3.11097907,-1.67043956,-2.90267189,-0.00114441,1.22977353,0.00000000,0.00488281,-0.05371094,0.26367188,-0.02929688,-0.38085938,-0.01464844,-0.00724792,-0.01326902,-0.01602173,-0.02441406
3.45954537,1195,3.11555670,-1.77229197,-2.70850380,-0.00038147,1.16072751,0.00038147,3.11555670,-1.72161267,-2.71181667,-0.00038147,1.16410909,0.00038147,3.11097907,-1.67158396,-2.89847573,-0.00114441,1.22443295,0.00000000,0.00488281,-0.07324219,0.27343750,-0.02929688,-0.29296875,0.01464844,-0.00724792,-0.01332443,-0.01602173,0.00000000
3.47279716,1200,3.11555670,-1.77267344,-2.70468911,-0.00038147,1.15805722,0.00038147,3.11555670,-1.72205659,-2.70803785,-0.00038147,1.16077174,0.00038147,3.11136054,-1.67234690,-2.89504250,-0.00114441,1.22023678,0.00000000,0.00976562,-0.04882812,0.24902344,-0.01464844,-0.26367188,-0.01464844,-0.00724792,-0.01334259,-0.01602173,-0.02441406
3.48805380,1205,3.11555670,-1.77305491,-2.70163735,-0.00038147,1.15538693,0.00038147,3.11555670,-1.72245853,-2.70444853,-0.00038147,1.15783404,0.00038147,3.11136054,-1.67349131,-2.89122780,-0.00114441,1.21565915,0.00000000,0.01464844,-0.08789062,0.26367188,-0.01464844,-0.26367188,-0.01464844,-0.00724792,-0.01334854,-0.01602173,-0.02441406
3.50158739,1210,3.11555670,-1.77381785,-2.69820412,-0.00038147,1.15347958,0.00038147,3.11555670,-1.72292300,-2.70104277,-0.00038147,1.15541719,0.00038147,3.11174201,-1.67463572,-2.88779457,-0.00114441,1.21146298,-0.00038147,0.00976562,-0.08789062,0.26855469,-0.02929688,-0.35156250,-0.01464844,-0.00724792,-0.01335049,-0.01602173,-0.04882812
3.51503015,1215,3.11555670,-1.77419932,-2.69591530,-0.00038147,1.15195370,0.00038147,3.11555670,-1.72336292,-2.69794752,-0.00038147,1.15333911,0.00038147,3.11174201,-1.67578013,-2.88436135,-0.00114441,1.20726681,0.00000000,0.00000000,-0.07324219,0.26855469,-0.01464844,-0.29296875,0.00000000,-0.00724792,-0.01335113,-0.01602173,-0.02441406
3.52886415,1220,3.11555670,-1.77458079,-2.69286354,-0.00038147,1.15119076,0.00038147,3.11555670,-1.72387340,-2.69536100,-0.00038147,1.15210616,0.00038147,3.11174201,-1.67654307,-2.88092812,-0.00114441,1.20383359,0.00000000,0.00000000,-0.08789062,0.25390625,0.00000000,-0.23437500,-0.01464844,-0.00724792,-0.01335134,-0.01602173,-0.02441406
3.54271698,1225,3.11555670,-1.77496226,-2.69133766,-0.00038147,1.15119076,0.00038147,3.11555670,-1.72436746,-2.69302566,-0.00038147,1.15155175,0.00038147,3.11174201,-1.67768748,-2.87749489,-0.00114441,1.20001889,0.00000000,0.00000000,-0.06835938,0.23925781,-0.01464844,-0.33691406,-0.01464844,-0.00724792,-0.01335141,-0.01602173,-0.02441406
3.56004834,1230,3.11555670,-1.77534373,-2.68904885,-0.00038147,1.15157223,0.00038147,3.11555670,-1.72475457,-2.69072306,-0.00038147,1.15142441,0.00038147,3.11212348,-1.67883189,-2.87329872,-0.00114441,1.19467831,0.00000000,0.00488281,-0.08300781,0.25878906,-0.01464844,-0.30761719,-0.02929688,-0.00724792,-0.01335143,-0.01602173,-0.02441406
3.57414627,1235,3.11555670,-1.77572520,-2.68714150,-0.00038147,1.15157223,0.00038147,3.11555670,-1.72516914,-2.68859684,-0.00038147,1.15138268,0.00038147,3.11212348,-1.67959483,-2.87024697,-0.00114441,1.19086361,0.00000000,0.00976562,-0.06835938,0.22949219,0.00000000,-0.26367188,-0.01464844,-0.00724792,-0.01335144,-0.01602173,-0.02441406
3.58803058,1240,3.11555670,-1.77686961,-2.68561562,-0.00038147,1.15119076,0.00038147,3.11555670,-1.72577508,-2.68701096,-0.00038147,1.15125365,0.00038147,3.11212348,-1.68035777,-2.86719521,-0.00114441,1.18857480,0.00000000,0.00000000,-0.07812500,0.24902344,-0.01464844,-0.10253906,-0.01464844,-0.00724792,-0.01335144,-0.01602173,-0.02441406
3.60499835,1245,3.11555670,-1.77725108,-2.68408974,-0.00038147,1.15119076,0.00038147,3.11555670,-1.72645911,-2.68536777,-0.00038147,1.15121137,0.00038147,3.11212348,-1.68150218,-2.86299904,-0.00114441,1.18743039,0.00000000,-0.00488281,-0.05859375,0.22949219,-0.02929688,-0.04394531,-0.01464844,-0.00724792,-0.01335144,-0.01602173,0.00000000
3.61945701,1250,3.11555670,-1.77763255,-2.68294533,-0.00038147,1.15119076,0.00038147,3.11555670,-1.72701003,-2.68398960,-0.00038147,1.15119752,0.00038147,3.11212348,-1.68226512,-2.85880287,-0.00114441,1.18590451,0.00000000,0.00000000,-0.06835938,0.26855469,-0.01464844,-0.10253906,-0.01464844,-0.00724792,-0.01325378,-0.01564026,-0.02441406
3.63538146,1255,3.11555670,-1.77877696,-2.68218239,-0.00038147,1.15119076,0.00038147,3.11555670,-1.72767823,-2.68287614,-0.00038147,1.15119298,0.00038147,3.11250495,-1.68340953,-2.85575112,-0.00114441,1.18399716,0.00000000,0.00000000,-0.07812500,0.25878906,-0.01464844,-0.19042969,-0.02929688,-0.00724792,-0.01331944,-0.01564026,-0.02441406
3.65015864,1260,3.11555670,-1.77992137,-2.68103798,-0.00038147,1.15119076,0.00038147,3.11555670,-1.72866659,-2.68189080,-0.00038147,1.15119149,0.00038147,3.11250495,-1.68417247,-2.85155495,-0.00114441,1.17903805,0.00000000,-0.00488281,-0.06835938,0.22949219,-0.01464844,-0.21972656,-0.01464844,-0.00724792,-0.01321888,-0.01564026,-0.02441406
3.66522026,1265,3.11555670,-1.78068431,-2.68027504,-0.00038147,1.15119076,0.00038147,3.11555670,-1.72959568,-2.68095488,-0.00038147,1.15119100,0.00038147,3.11250495,-1.68493540,-2.84850319,-0.00114441,1.17522336,0.00000000,-0.00488281,-0.05371094,0.21972656,-0.01464844,-0.24902344,-0.02929688,-0.00724792,-0.01318593,-0.01602173,-0.02441406
3.67917442,1270,3.11555670,-1.78182872,-2.67951210,-0.00038147,1.15119076,0.00038147,3.11555670,-1.73063829,-2.68017433,-0.00038147,1.15119084,0.00038147,3.11250495,-1.68569834,-2.84621437,-0.00114441,1.17217160,0.00000000,-0.00488281,-0.05371094,0.22460938,0.00000000,-0.23437500,0.00000000,-0.00724792,-0.01329721,-0.01602173,0.00000000
3.69396710,1275,3.11555670,-1.78297312,-2.67836769,-0.00038147,1.15119076,0.00038147,3.11555670,-1.73173176,-2.67925901,-0.00038147,1.15119079,0.00038147,3.11250495,-1.68684275,-2.84201821,-0.00114441,1.16950131,0.00000000,-0.00488281,-0.06835938,0.22949219,-0.02929688,-0.08789062,0.00000000,-0.00724792,-0.01333367,-0.01602173,-0.02441406
3.70629930,1280,3.11555670,-1.78373606,-2.67760475,-0.00038147,1.15157223,0.00038147,3.11555670,-1.73277098,-2.67839731,-0.00038147,1.15137693,0.00038147,3.11250495,-1.68722422,-2.83972939,-0.00114441,1.16873837,0.00000000,-0.00488281,-0.05371094,0.22949219,0.00000000,-0.05859375,-0.01464844,-0.00724792,-0.01326749,-0.01602173,0.00000000
3.72029305,1285,3.11555670,-1.78488047,-2.67684182,-0.00076294,1.15157223,0.00038147,3.11555670,-1.73376178,-2.67745308,-0.00045776,1.15150824,0.00038147,3.11250495,-1.68836863,-2.83705910,-0.00076294,1.16873837,0.00000000,0.00000000,-0.08789062,0.21972656,0.01464844,-0.00000000,-0.01464844,-0.00724792,-0.01322628,-0.01602173,-0.02441406
3.73479867,1290,3.11555670,-1.78640635,-2.67569741,-0.00076294,1.15195370,0.00038147,3.11555670,-1.73483986,-2.67666431,-0.00062388,1.15162756,0.00038147,3.11250495,-1.68951304,-2.83362587,-0.00114441,1.16911984,0.00000000,0.00000000,-0.05859375,0.24414062,-0.02929688,0.01464844,-0.01464844,-0.00724792,-0.01331043,-0.01564026,-0.02441406
3.74933600,1295,3.11555670,-1.78755076,-2.67455300,-0.00076294,1.15195370,0.00038147,3.11555670,-1.73623500,-2.67549532,-0.00071737,1.15184683,0.00038147,3.11250495,-1.69027598,-2.83057412,-0.00114441,1.16835690,0.00000000,0.00000000,-0.07324219,0.20507812,-0.02929688,-0.02929688,-0.01464844,-0.00724792,-0.01325988,-0.01564026,-0.02441406
3.76355028,1300,3.11555670,-1.78907664,-2.67340859,-0.00076294,1.15195370,0.00038147,3.11555670,-1.73762575,-2.67442293,-0.00089693,1.15191868,0.00038147,3.11250495,-1.69103892,-2.82714089,-0.00114441,1.16759396,0.00000000,0.00000000,-0.04394531,0.21972656,-0.01464844,-0.07324219,-0.02929688,-0.00724792,-0.01332144,-0.01564026,-0.02441406
3.77828002,1305,3.11555670,-1.79022105,-2.67188271,-0.00114441,1.15195370,0.00038147,3.11555670,-1.73883330,-2.67304566,-0.00106332,1.15194223,0.00038147,3.11250495,-1.69218333,-2.82447060,-0.00076294,1.16492367,0.00000000,-0.00488281,-0.07324219,0.20507812,0.00000000,-0.14648438,-0.01464844,-0.00724792,-0.01324395,-0.01564026,0.00000000
3.79396987,1310,3.11555670,-1.79136546,-2.67035683,-0.00076294,1.15195370,0.00038147,3.11555670,-1.74004723,-2.67156847,-0.00104154,1.15194994,0.00038147,3.11250495,-1.69294627,-2.82065590,-0.00114441,1.16263485,0.00000000,-0.00488281,-0.04394531,0.22460938,-0.01464844,-0.08789062,0.00000000,-0.00724792,-0.01331622,-0.01564026,0.00000000
3.80784154,1315,3.11555670,-1.79289134,-2.66921242,-0.00076294,1.15195370,0.00038147,3.11555670,-1.74132050,-2.67020515,-0.00103441,1.15195247,0.00038147,3.11250495,-1.69409068,-2.81836708,-0.00114441,1.16263485,0.00000000,-0.00488281,-0.09277344,0.19531250,-0.01464844,-0.00000000,-0.01464844,-0.00724792,-0.01333990,-0.01564026,-0.04882812
3.82022357,1320,3.11555670,-1.79365428,-2.66806801,-0.00114441,1.15195370,0.00038147,3.11555670,-1.74246209,-2.66895776,-0.00110836,1.15195330,0.00038147,3.11250495,-1.69485362,-2.81531533,-0.00114441,1.16301632,0.00000000,0.00000000,-0.05859375,0.20507812,-0.01464844,0.02929688,-0.01464844,-0.00724792,-0.01334766,-0.01602173,-0.04882812
3.83656693,1325,3.11555670,-1.79479869,-2.66616066,-0.00114441,1.15195370,0.00038147,3.11555670,-1.74367588,-2.66744685,-0.00113260,1.15195357,0.00038147,3.11250495,-1.69599803,-2.81226357,-0.00114441,1.16263485,0.00000000,0.00000000,-0.09277344,0.19531250,-0.01464844,-0.01464844,-0.01464844,-0.00686646,-0.01319761,-0.01564026,-0.02441406
3.84966564,1330,3.11555670,-1.79556163,-2.66501625,-0.00114441,1.15195370,0.00038147,3.11555670,-1.74463539,-2.66600216,-0.00114054,1.15195366,0.00038147,3.11250495,-1.69676097,-2.80959328,-0.00114441,1.16263485,0.00000000,-0.00488281,-0.05371094,0.20507812,0.00000000,-0.00000000,-0.02929688,-0.00724792,-0.01330103,-0.01564026,0.00000000
3.86402345,1335,3.11555670,-1.79670603,-2.66349037,-0.00114441,1.15233517,0.00038147,3.11555670,-1.74567038,-2.66453414,-0.00111189,1.15213985,0.00038147,3.11288642,-1.69752391,-2.80730446,-0.00114441,1.16187192,0.00000000,-0.00488281,-0.07324219,0.20019531,-0.01464844,-0.01464844,-0.02929688,-0.00724792,-0.01333492,-0.01564026,-0.02441406
3.87818122,1340,3.11555670,-1.79746897,-2.66234597,-0.00114441,1.15233517,0.00038147,3.11555670,-1.74652247,-2.66336230,-0.00113375,1.15227117,0.00038147,3.11288642,-1.69866831,-2.80463417,-0.00114441,1.16072751,0.00000000,0.00000000,-0.06835938,0.17578125,-0.01464844,-0.05859375,-0.02929688,-0.00686646,-0.01305282,-0.01564026,-0.02441406
3.89207077,1345,3.11555670,-1.79861338,-2.66120156,-0.00114441,1.15233517,0.00038147,3.11555670,-1.74743974,-2.66209904,-0.00114092,1.15231420,0.00038147,3.11288642,-1.69943125,-2.80158242,-0.00114441,1.16034604,0.00000000,0.00000000,-0.08300781,0.18554688,-0.01464844,-0.01464844,-0.01464844,-0.00686646,-0.01290080,-0.01564026,0.00000000
3.90668011,1350,3.11555670,-1.79937632,-2.65967568,-0.00114441,1.15233517,0.00038147,3.11555670,-1.74829231,-2.66072172,-0.00114327,1.15232830,0.00038147,3.11288642,-1.70019419,-2.79891213,-0.00114441,1.15958310,0.00000000,0.00000000,-0.05859375,0.18554688,-0.01464844,-0.04394531,-0.02929688,-0.00724792,-0.01284342,-0.01564026,0.00000000
3.92403221,1355,3.11555670,-1.79975779,-2.65853127,-0.00114441,1.15233517,0.00038147,3.11555670,-1.74900833,-2.65949952,-0.00114403,1.15233292,0.00038147,3.11288642,-1.70133860,-2.79624184,-0.00114441,1.15882016,0.00000000,0.00488281,-0.08789062,0.18554688,-0.01464844,-0.00000000,-0.02929688,-0.00686646,-0.01296989,-0.01564026,0.00000000
3.93723750,1360,3.11555670,-1.80052073,-2.65738686,-0.00114441,1.15233517,0.00038147,3.11555670,-1.74963675,-2.65836088,-0.00114429,1.15233443,0.00038147,3.11288642,-1.70248301,-2.79319008,-0.00114441,1.15805722,0.00000000,-0.00488281,-0.06835938,0.19042969,0.00000000,-0.04394531,0.00000000,-0.00724792,-0.01308579,-0.01564026,-0.04882812
3.95073915,1365,3.11555670,-1.80090220,-2.65624245,-0.00114441,1.15233517,0.00038147,3.11555670,-1.75021829,-2.65721835,-0.00114437,1.15233493,0.00038147,3.11326789,-1.70362742,-2.79051979,-0.00114441,1.15691281,0.00000000,0.00488281,-0.08789062,0.19531250,-0.01464844,-0.05859375,-0.01464844,-0.00686646,-0.01293602,-0.01564026,-0.04882812
3.96704292,1370,3.11555670,-1.80090220,-2.65471657,-0.00114441,1.15233517,0.00038147,3.11555670,-1.75044009,-2.65590598,-0.00114440,1.15233509,0.00038147,3.11326789,-1.70439036,-2.78784951,-0.00114441,1.15576840,0.00000000,0.00488281,-0.05859375,0.19531250,-0.01464844,-0.05859375,-0.01464844,-0.00724792,-0.01301512,-0.01525879,-0.02441406
3.98086739,1375,3.11555670,-1.80128367,-2.65357216,-0.00114441,1.15233517,0.00038147,3.11555670,-1.75073799,-2.65463623,-0.00114440,1.15233515,0.00038147,3.11326789,-1.70553477,-2.78517922,-0.00114441,1.15538693,0.00000000,0.00000000,-0.06835938,0.17089844,-0.01464844,-0.00000000,0.00000000,-0.00686646,-0.01291287,-0.01564026,-0.02441406
3.99499917,1380,3.11555670,-1.80128367,-2.65242775,-0.00114441,1.15233517,0.00038147,3.11555670,-1.75086686,-2.65334088,-0.00114441,1.15233516,0.00038147,3.11326789,-1.70591624,-2.78289040,-0.00114441,1.15538693,0.00000000,0.00488281,-0.04882812,0.18066406,-0.02929688,-0.00000000,-0.01464844,-0.00724792,-0.01300753,-0.01525879,-0.02441406
4.01176882,1385,3.11555670,-1.80128367,-2.65128334,-0.00114441,1.15233517,0.00038147,3.11555670,-1.75090909,-2.65219584,-0.00114441,1.15233517,0.00038147,3.11326789,-1.70706065,-2.78022011,-0.00114441,1.15500546,0.00000000,-0.00488281,-0.08789062,0.17089844,-0.01464844,-0.02929688,-0.02929688,-0.00724792,-0.01297605,-0.01525879,0.00000000
4.02549648,1390,3.11555670,-1.80128367,-2.65052040,-0.00114441,1.15233517,0.00038147,3.11547663,-1.75092292,-2.65113972,-0.00114441,1.15233517,0.00038147,3.11326789,-1.70782359,-2.77793129,-0.00114441,1.15462399,0.00000000,0.00000000,-0.05371094,0.18554688,0.00000000,0.02929688,-0.01464844,-0.00724792,-0.01304386,-0.01564026,-0.02441406
4.03982043,1395,3.11555670,-1.80128367,-2.64975746,-0.00114441,1.15233517,0.00038147,3.11553046,-1.75092746,-2.65046089,-0.00114441,1.15233517,0.00038147,3.11326789,-1.70896800,-2.77564247,-0.00114441,1.15500546,0.00000000,-0.00488281,-0.08300781,0.18066406,-0.01464844,0.01464844,-0.01464844,-0.00724792,-0.01318815,-0.01525879,0.00000000
4.05413604,1400,3.11555670,-1.80128367,-2.64899453,-0.00114441,1.15233517,0.00038147,3.11543824,-1.75092894,-2.64972551,-0.00114441,1.15233517,0.00038147,3.11364936,-1.70973094,-2.77297219,-0.00114441,1.15462399,0.00000000,-0.00488281,-0.05859375,0.17089844,-0.02929688,-0.00000000,-0.02929688,-0.00724792,-0.01329793,-0.01525879,-0.02441406
4.06960726,1405,3.11555670,-1.80128367,-2.64861306,-0.00076294,1.15233517,0.00038147,3.11544757,-1.75092943,-2.64900884,-0.00100708,1.15233517,0.00038147,3.11364936,-1.71049388,-2.77068337,-0.00076294,1.15500546,0.00000000,-0.00488281,-0.07324219,0.16601562,-0.01464844,0.04394531,-0.02929688,-0.00724792,-0.01309563,-0.01525879,-0.04882812
4.08422256,1410,3.11517524,-1.80128367,-2.64746865,-0.00076294,1.15233517,0.00038147,3.11544465,-1.75092959,-2.64822382,-0.00084294,1.15233517,0.00038147,3.11364936,-1.71163829,-2.76763161,-0.00114441,1.15462399,0.00000000,-0.00488281,-0.06347656,0.17089844,-0.01464844,-0.04394531,0.00000000,-0.00724792,-0.01326762,-0.01525879,-0.02441406
4.09658813,1415,3.11555670,-1.80128367,-2.64708718,-0.00076294,1.15233517,0.00038147,3.11544967,-1.75092964,-2.64752995,-0.00078915,1.15233517,0.00038147,3.11364936,-1.71201976,-2.76610573,-0.00114441,1.15424252,0.00000000,0.00000000,-0.05859375,0.15136719,-0.01464844,-0.00000000,0.00000000,-0.00686646,-0.01307373,-0.01525879,0.00000000
4.11083436,1420,3.11555670,-1.80128367,-2.64670571,-0.00076294,1.15233517,0.00038147,3.11548257,-1.75092966,-2.64697579,-0.00077153,1.15233517,0.00038147,3.11364936,-1.71278269,-2.76419838,-0.00114441,1.15424252,0.00000000,-0.00488281,-0.05371094,0.15625000,-0.01464844,0.02929688,-0.01464844,-0.00686646,-0.01301020,-0.01525879,-0.04882812
4.12627268,1425,3.11555670,-1.80128367,-2.64594277,-0.00076294,1.15271664,0.00038147,3.11553241,-1.75092966,-2.64635158,-0.00076575,1.15252133,0.00038147,3.11364936,-1.71354563,-2.76076516,-0.00114441,1.15386105,0.00000000,-0.00488281,-0.03906250,0.18554688,0.00000000,0.01464844,-0.01464844,-0.00724792,-0.01317712,-0.01487732,-0.02441406
4.13826442,1430,3.11555670,-1.80128367,-2.64517983,-0.00076294,1.15271664,0.00038147,3.11551749,-1.75092967,-2.64563410,-0.00079511,1.15265264,0.00038147,3.11364936,-1.71392710,-2.75962075,-0.00114441,1.15386105,0.00000000,-0.00488281,-0.07324219,0.15625000,-0.01464844,-0.02929688,0.00000000,-0.00686646,-0.01314173,-0.01525879,-0.02441406
4.15372682,1435,3.11555670,-1.80128367,-2.64403542,-0.00076294,1.15271664,0.00038147,3.11554386,-1.75092967,-2.64480976,-0.00077348,1.15269567,0.00038147,3.11364936,-1.71507151,-2.75695046,-0.00114441,1.15386105,0.00000000,-0.00488281,-0.05859375,0.15625000,0.00000000,0.04394531,0.00000000,-0.00724792,-0.01320460,-0.01525879,-0.02441406
4.16666412,1440,3.11555670,-1.80128367,-2.64212807,-0.00114441,1.15233517,0.00038147,3.11555249,-1.75092967,-2.64343747,-0.00094279,1.15263348,0.00038147,3.11364936,-1.71545298,-2.75466164,-0.00114441,1.15386105,0.00000000,-0.00488281,-0.05371094,0.16113281,-0.02929688,-0.00000000,-0.01464844,-0.00686646,-0.01302866,-0.01525879,-0.02441406
4.18031907,1445,3.11555670,-1.80128367,-2.64060219,-0.00114441,1.15233517,0.00038147,3.11555533,-1.75092967,-2.64197120,-0.00097824,1.15243292,0.00038147,3.11364936,-1.71621592,-2.75275429,-0.00114441,1.15347958,0.00000000,0.00000000,-0.06347656,0.14648438,0.00000000,-0.00000000,-0.01464844,-0.00686646,-0.01273273,-0.01525879,-0.04882812
4.19426990,1450,3.11555670,-1.80128367,-2.63831337,-0.00076294,1.15233517,0.00038147,3.11555625,-1.75092967,-2.63990504,-0.00087255,1.15236720,0.00038147,3.11364936,-1.71697886,-2.75084694,-0.00114441,1.15386105,0.00000000,-0.00488281,-0.05371094,0.14648438,-0.01464844,0.02929688,-0.02929688,-0.00686646,-0.01282033,-0.01487732,-0.02441406
4.20790648,1455,3.11555670,-1.80128367,-2.63602455,-0.00114441,1.15233517,0.00038147,3.11555656,-1.75092967,-2.63781613,-0.00090640,1.15234567,0.00038147,3.11364936,-1.71736033,-2.74855812,-0.00114441,1.15347958,0.00000000,-0.00488281,-0.04394531,0.14648438,-0.01464844,-0.01464844,0.00000000,-0.00686646,-0.01280509,-0.01487732,0.00000000
