MingxuanLei/DMarm_date_collection/data/episode_01/trajectory/teach_record_20260627_221614.csv
time_s,loop_count,master_q1,master_q2,master_q3,master_q4,master_q5,master_q6,slave_target_q1,slave_target_q2,slave_target_q3,slave_target_q4,slave_target_q5,slave_target_q6,slave_actual_q1,slave_actual_q2,slave_actual_q3,slave_actual_q4,slave_actual_q5,slave_actual_q6,slave_actual_v1,slave_actual_v2,slave_actual_v3,slave_actual_v4,slave_actual_v5,slave_actual_v6,master_tool,slave_tool_target,slave_tool_actual,slave_tool_actual_vel
0.00742006,315,3.11288642,2.73095559,-1.59308632,-0.02174377,-1.59119510,-2.70004272,3.05757331,2.73744058,-1.59575661,0.00343323,-1.57441043,-2.03361511,3.05757331,2.73210000,-1.59270485,0.00305176,-1.57441043,-2.03399658,-0.00488281,0.00000000,0.00488281,-0.01464844,0.01464844,-0.02929688,-2.97584534,-0.18324766,-0.18310547,-0.04882812
0.01926780,320,3.11288642,2.73095559,-1.59308632,-0.02174377,-1.59119510,-2.70004272,3.05757331,2.73744058,-1.59575661,0.00343323,-1.57441043,-2.03361511,3.05757331,2.73210000,-1.59270485,0.00305176,-1.57441043,-2.03399658,-0.00488281,0.00000000,-0.00000000,-0.01464844,0.02929688,-0.02929688,-2.97584534,-0.18328646,-0.18310547,-0.04882812
0.03408360,325,3.11288642,2.73095559,-1.59308632,-0.02174377,-1.59119510,-2.70004272,3.05757331,2.73744058,-1.59575661,0.00343323,-1.57441043,-2.03361511,3.05757331,2.73210000,-1.59270485,0.00305176,-1.57441043,-2.03399658,-0.00488281,0.00000000,-0.00000000,-0.01464844,0.01464844,0.00000000,-2.97584534,-0.18334312,-0.18310547,-0.02441406
0.04666066,330,3.11288642,2.73095559,-1.59308632,-0.02174377,-1.59119510,-2.70004272,3.05757331,2.73744058,-1.59575661,0.00343323,-1.57436161,-2.03361511,3.05757331,2.73248147,-1.59270485,0.00305176,-1.57441043,-2.03399658,-0.00488281,0.00000000,0.00488281,-0.01464844,0.01464844,-0.01464844,-2.97584534,-0.18336169,-0.18310547,-0.02441406
0.06109571,335,3.11288642,2.73095559,-1.59308632,-0.02174377,-1.59119510,-2.70004272,3.05757331,2.73744058,-1.59575661,0.00343323,-1.57439443,-2.03361511,3.05757331,2.73248147,-1.59270485,0.00305176,-1.57441043,-2.03399658,0.00000000,0.00000000,-0.00000000,-0.01464844,0.01464844,-0.02929688,-2.97584534,-0.18344590,-0.18272400,0.00000000
0.07569408,340,3.11288642,2.73095559,-1.59308632,-0.02174377,-1.59119510,-2.70004272,3.05757331,2.73744058,-1.59575661,0.00343323,-1.57440519,-2.03361511,3.05757331,2.73248147,-1.59270485,0.00305176,-1.57441043,-2.03399658,0.00000000,-0.00488281,-0.00000000,-0.01464844,-0.00000000,-0.01464844,-2.97584534,-0.18327329,-0.18310547,-0.02441406
0.08887005,345,3.11288642,2.73095559,-1.59308632,-0.02174377,-1.59119510,-2.70004272,3.05757331,2.73744058,-1.59575661,0.00343323,-1.57440872,-2.03361511,3.05757331,2.73248147,-1.59308632,0.00305176,-1.57441043,-2.03361511,-0.00488281,0.00488281,0.00488281,-0.02929688,0.02929688,-0.01464844,-2.97584534,-0.18311908,-0.18310547,-0.04882812
0.10476589,350,3.11288642,2.73095559,-1.59308632,-0.02174377,-1.59119510,-2.70004272,3.05757331,2.73744058,-1.59575661,0.00343323,-1.57440987,-2.03361511,3.05757331,2.73248147,-1.59308632,0.00305176,-1.57441043,-2.03399658,-0.00488281,-0.00488281,0.00488281,-0.01464844,0.02929688,-0.01464844,-2.97546387,-0.18291596,-0.18310547,-0.02441406
0.11756873,355,3.11288642,2.73095559,-1.59308632,-0.02174377,-1.59081363,-2.70004272,3.05757331,2.73744058,-1.59575661,0.00343323,-1.57433395,-2.03361511,3.05757331,2.73248147,-1.59308632,0.00305176,-1.57441043,-2.03399658,-0.00488281,0.00000000,0.00488281,-0.01464844,0.01464844,-0.01464844,-2.97584534,-0.18308011,-0.18310547,0.00000000
0.13124776,360,3.11288642,2.73095559,-1.59308632,-0.02174377,-1.59119510,-2.70004272,3.05757331,2.73744058,-1.59575661,0.00343323,-1.57435412,-2.03361511,3.05757331,2.73248147,-1.59308632,0.00305176,-1.57441043,-2.03399658,-0.00488281,0.00000000,-0.00000000,-0.02929688,0.01464844,-0.01464844,-2.97584534,-0.18335363,-0.18272400,0.00000000
0.14554214,365,3.11288642,2.73095559,-1.59308632,-0.02174377,-1.59119510,-2.70004272,3.05757331,2.73744058,-1.59575661,0.00343323,-1.57439198,-2.03361511,3.05757331,2.73248147,-1.59308632,0.00305176,-1.57441043,-2.03399658,-0.00488281,-0.00488281,0.00488281,-0.01464844,0.01464844,-0.02929688,-2.97584534,-0.18344326,-0.18310547,-0.04882812
0.15941286,370,3.11288642,2.73095559,-1.59308632,-0.02174377,-1.59119510,-2.70004272,3.05757331,2.73744058,-1.59575661,0.00343323,-1.57440439,-2.03361511,3.05757331,2.73248147,-1.59308632,0.00305176,-1.57402896,-2.03399658,-0.00488281,0.00000000,0.00488281,-0.01464844,0.01464844,-0.01464844,-2.97584534,-0.18347262,-0.18310547,-0.02441406
0.17328525,375,3.11288642,2.73095559,-1.59308632,-0.02174377,-1.59119510,-2.70004272,3.05757331,2.73744058,-1.59575661,0.00343323,-1.57440845,-2.03361511,3.05757331,2.73248147,-1.59308632,0.00305176,-1.57402896,-2.03399658,-0.00488281,0.00000000,-0.00000000,-0.01464844,0.01464844,-0.01464844,-2.97584534,-0.18348225,-0.18348694,-0.04882812
0.18769455,380,3.11288642,2.73095559,-1.59308632,-0.02174377,-1.59119510,-2.70004272,3.05757331,2.73744058,-1.59575661,0.00343323,-1.57440978,-2.03361511,3.05757331,2.73286294,-1.59308632,0.00305176,-1.57402896,-2.03399658,-0.00488281,0.00000000,-0.00000000,0.00000000,0.01464844,-0.01464844,-2.97584534,-0.18338775,-0.18310547,0.00000000
0.20144033,385,3.11288642,2.73095559,-1.59308632,-0.02174377,-1.59119510,-2.70004272,3.05757331,2.73744058,-1.59575661,0.00343323,-1.57436139,-2.03361511,3.05757331,2.73286294,-1.59308632,0.00305176,-1.57402896,-2.03361511,-0.00488281,-0.00488281,0.00488281,-0.02929688,0.01464844,0.00000000,-2.97584534,-0.18329428,-0.18272400,-0.04882812
0.21695065,390,3.11288642,2.73095559,-1.59308632,-0.02174377,-1.59119510,-2.70004272,3.05757331,2.73744058,-1.59575661,0.00343323,-1.57436311,-2.03361511,3.05757331,2.73286294,-1.59308632,0.00305176,-1.57402896,-2.03399658,-0.00488281,-0.00488281,-0.00000000,0.00000000,0.02929688,-0.01464844,-2.97584534,-0.18342381,-0.18310547,-0.02441406
0.22943115,395,3.11288642,2.73095559,-1.59308632,-0.02174377,-1.59119510,-2.70004272,3.05757331,2.73744058,-1.59575661,0.00343323,-1.57439493,-2.03361511,3.05757331,2.73286294,-1.59308632,0.00305176,-1.57402896,-2.03361511,-0.00488281,-0.00488281,-0.00000000,-0.02929688,0.01464844,-0.01464844,-2.97584534,-0.18340375,-0.18310547,-0.04882812
0.24654889,400,3.11288642,2.73095559,-1.59308632,-0.02174377,-1.59119510,-2.70004272,3.05757331,2.73744058,-1.59575661,0.00343323,-1.57440535,-2.03361511,3.05757331,2.73286294,-1.59308632,0.00305176,-1.57402896,-2.03399658,-0.00488281,0.00000000,0.00488281,-0.01464844,0.01464844,-0.02929688,-2.97584534,-0.18323995,-0.18272400,0.00000000
0.26233172,405,3.11288642,2.73095559,-1.59308632,-0.02174377,-1.59119510,-2.70004272,3.05757331,2.73744058,-1.59575661,0.00343323,-1.57440877,-2.03361511,3.05757331,2.73286294,-1.59308632,0.00305176,-1.57402896,-2.03399658,-0.00488281,0.00000000,-0.00000000,-0.01464844,0.01464844,-0.02929688,-2.97584534,-0.18334351,-0.18310547,-0.02441406
0.27915454,410,3.11288642,2.73095559,-1.59308632,-0.02174377,-1.59119510,-2.70004272,3.05757331,2.73744058,-1.59575661,0.00343323,-1.57440989,-2.03361511,3.05757331,2.73286294,-1.59346779,0.00305176,-1.57402896,-2.03399658,0.00000000,-0.00488281,0.00488281,0.00000000,0.01464844,-0.01464844,-2.97584534,-0.18326416,-0.18310547,-0.04882812
0.29301834,415,3.11288642,2.73095559,-1.59308632,-0.02174377,-1.59119510,-2.70004272,3.05757331,2.73744058,-1.59575661,0.00343323,-1.57441025,-2.03361511,3.05757331,2.73286294,-1.59346779,0.00305176,-1.57402896,-2.03399658,0.00000000,-0.00488281,0.00488281,-0.01464844,-0.00000000,-0.01464844,-2.97584534,-0.18329187,-0.18310547,-0.04882812
0.30659986,420,3.11288642,2.73095559,-1.59308632,-0.02174377,-1.59119510,-2.70004272,3.05757331,2.73744058,-1.59575661,0.00343323,-1.57441037,-2.03361511,3.05757331,2.73286294,-1.59346779,0.00305176,-1.57402896,-2.03399658,-0.00976562,0.00000000,0.00488281,-0.01464844,-0.00000000,-0.02929688,-2.97584534,-0.18306267,-0.18310547,-0.02441406
0.32324982,425,3.11288642,2.73095559,-1.59308632,-0.02174377,-1.59119510,-2.70004272,3.05757331,2.73744058,-1.59575661,0.00343323,-1.57441041,-2.03361511,3.05757331,2.73286294,-1.59346779,0.00305176,-1.57402896,-2.03399658,-0.00488281,0.00000000,0.00488281,-0.01464844,-0.00000000,-0.01464844,-2.97546387,-0.18319532,-0.18310547,-0.02441406
0.33704758,430,3.11288642,2.73095559,-1.59308632,-0.02174377,-1.59119510,-2.70004272,3.05757331,2.73744058,-1.59575661,0.00343323,-1.57441043,-2.03361511,3.05757331,2.73286294,-1.59346779,0.00305176,-1.57402896,-2.03399658,-0.00488281,0.00000000,0.00488281,-0.01464844,0.01464844,-0.02929688,-2.97546387,-0.18317629,-0.18310547,-0.02441406
0.35177851,435,3.11288642,2.73095559,-1.59308632,-0.02174377,-1.59119510,-2.70004272,3.05757331,2.73744058,-1.59575661,0.00343323,-1.57441043,-2.03361511,3.05757331,2.73286294,-1.59346779,0.00305176,-1.57402896,-2.03399658,-0.00488281,0.00000000,-0.00000000,0.00000000,0.01464844,0.00000000,-2.97546387,-0.18317006,-0.18310547,0.00000000
0.36713457,440,3.11288642,2.73095559,-1.59308632,-0.02174377,-1.59119510,-2.70004272,3.05757331,2.73744058,-1.59575661,0.00343323,-1.57441043,-2.03361511,3.05757331,2.73324441,-1.59346779,0.00305176,-1.57402896,-2.03361511,-0.00488281,0.00488281,0.00488281,-0.02929688,0.01464844,-0.02929688,-2.97546387,-0.18305473,-0.18310547,-0.02441406
0.38044310,445,3.11288642,2.73095559,-1.59308632,-0.02174377,-1.59119510,-2.70004272,3.05757331,2.73744058,-1.59575661,0.00343323,-1.57441043,-2.03361511,3.05757331,2.73324441,-1.59346779,0.00305176,-1.57402896,-2.03399658,-0.00488281,0.00000000,0.00488281,-0.01464844,0.01464844,-0.02929688,-2.97584534,-0.18312559,-0.18310547,-0.02441406
0.39418364,450,3.11288642,2.73095559,-1.59308632,-0.02174377,-1.59119510,-2.70004272,3.05757331,2.73744058,-1.59575661,0.00343323,-1.57441043,-2.03361511,3.05757331,2.73324441,-1.59346779,0.00305176,-1.57402896,-2.03399658,0.00000000,0.00488281,-0.00000000,-0.01464844,0.02929688,-0.02929688,-2.97584534,-0.18330603,-0.18310547,-0.02441406
0.41042852,455,3.11288642,2.73095559,-1.59308632,-0.02174377,-1.59119510,-2.70004272,3.05757331,2.73744058,-1.59575661,0.00343323,-1.57441043,-2.03361511,3.05757331,2.73324441,-1.59346779,0.00305176,-1.57402896,-2.03399658,-0.00488281,0.00976562,0.00488281,-0.02929688,0.01464844,-0.01464844,-2.97584534,-0.18342766,-0.18310547,0.00000000
0.42511153,460,3.11288642,2.73095559,-1.59308632,-0.02174377,-1.59119510,-2.70004272,3.05757331,2.73744058,-1.59575661,0.00343323,-1.57441043,-2.03361511,3.05757331,2.73362588,-1.59346779,0.00305176,-1.57402896,-2.03399658,-0.00488281,0.00488281,0.00488281,-0.01464844,0.01464844,-0.01464844,-2.97584534,-0.18326732,-0.18310547,-0.02441406
0.43984771,465,3.11288642,2.73095559,-1.59308632,-0.02174377,-1.59119510,-2.70004272,3.05757331,2.73744058,-1.59575661,0.00343323,-1.57441043,-2.03361511,3.05757331,2.73362588,-1.59346779,0.00305176,-1.57402896,-2.03399658,-0.00488281,0.00488281,-0.00000000,-0.01464844,0.02929688,-0.02929688,-2.97584534,-0.18327435,-0.18310547,-0.02441406
0.45306492,470,3.11288642,2.73095559,-1.59308632,-0.02174377,-1.59119510,-2.70004272,3.05757331,2.73744058,-1.59575661,0.00343323,-1.57441043,-2.03361511,3.05757331,2.73400735,-1.59346779,0.00305176,-1.57402896,-2.03399658,-0.00488281,0.00976562,0.00488281,-0.01464844,-0.00000000,-0.04394531,-2.97584534,-0.18331962,-0.18310547,-0.04882812
0.46635032,475,3.11288642,2.73095559,-1.59308632,-0.02174377,-1.59119510,-2.70004272,3.05757331,2.73744058,-1.59575661,0.00343323,-1.57441043,-2.03361511,3.05757331,2.73400735,-1.59346779,0.00305176,-1.57402896,-2.03361511,-0.00488281,0.00000000,-0.00000000,-0.01464844,0.02929688,0.00000000,-2.97584534,-0.18324754,-0.18310547,-0.02441406
0.47986412,480,3.11288642,2.73095559,-1.59308632,-0.02174377,-1.59119510,-2.70004272,3.05757331,2.73744058,-1.59575661,0.00343323,-1.57441043,-2.03361511,3.05757331,2.73400735,-1.59346779,0.00305176,-1.57402896,-2.03361511,-0.00488281,-0.00488281,-0.00000000,-0.02929688,-0.00000000,0.00000000,-2.97584534,-0.18333037,-0.18348694,-0.07324219
0.49622607,485,3.11288642,2.73095559,-1.59308632,-0.02174377,-1.59119510,-2.70004272,3.05757331,2.73744058,-1.59575661,0.00343323,-1.57441043,-2.03361511,3.05757331,2.73400735,-1.59346779,0.00305176,-1.57402896,-2.03399658,-0.00488281,0.00000000,0.00488281,0.00000000,0.01464844,-0.02929688,-2.97546387,-0.18322055,-0.18310547,-0.04882812
0.51073837,490,3.11288642,2.73095559,-1.59308632,-0.02174377,-1.59119510,-2.70004272,3.05757331,2.73744058,-1.59575661,0.00343323,-1.57441043,-2.03361511,3.05757331,2.73438882,-1.59346779,0.00305176,-1.57364749,-2.03399658,-0.00488281,0.00000000,-0.00000000,0.01464844,0.02929688,0.00000000,-2.97584534,-0.18316137,-0.18310547,0.00000000
0.52530313,495,3.11288642,2.73095559,-1.59308632,-0.02174377,-1.59119510,-2.70004272,3.05757331,2.73744058,-1.59575661,0.00343323,-1.57441043,-2.03361511,3.05757331,2.73438882,-1.59384926,0.00305176,-1.57402896,-2.03361511,-0.00488281,0.00488281,-0.00000000,-0.02929688,0.02929688,0.00000000,-2.97546387,-0.18316517,-0.18310547,-0.02441406
0.53815222,500,3.11288642,2.73095559,-1.59308632,-0.02174377,-1.59119510,-2.70004272,3.05757331,2.73744058,-1.59575661,0.00343323,-1.57441043,-2.03361511,3.05757331,2.73438882,-1.59384926,0.00305176,-1.57402896,-2.03399658,-0.00488281,0.00000000,-0.00000000,-0.01464844,0.01464844,-0.01464844,-2.97546387,-0.18310684,-0.18310547,-0.02441406
0.55413604,505,3.11288642,2.73095559,-1.59308632,-0.02174377,-1.59119510,-2.70004272,3.05757331,2.73744058,-1.59575661,0.00343323,-1.57441043,-2.03361511,3.05719184,2.73438882,-1.59384926,0.00305176,-1.57364749,-2.03399658,-0.00488281,-0.00488281,0.00488281,0.00000000,0.02929688,-0.01464844,-2.97584534,-0.18306454,-0.18310547,-0.04882812
0.56903172,510,3.11288642,2.73095559,-1.59308632,-0.02174377,-1.59119510,-2.70004272,3.05757331,2.73744058,-1.59575661,0.00343323,-1.57441043,-2.03361511,3.05719184,2.73438882,-1.59384926,0.00305176,-1.57364749,-2.03399658,-0.00976562,0.00000000,-0.00000000,-0.02929688,0.02929688,-0.01464844,-2.97584534,-0.18322646,-0.18310547,-0.02441406
0.58411050,515,3.11288642,2.73095559,-1.59308632,-0.02174377,-1.59119510,-2.70004272,3.05757331,2.73744058,-1.59575661,0.00343323,-1.57441043,-2.03361511,3.05757331,2.73438882,-1.59384926,0.00305176,-1.57402896,-2.03399658,-0.00488281,-0.00976562,-0.00000000,-0.02929688,-0.00000000,-0.01464844,-2.97546387,-0.18310837,-0.18310547,0.00000000
0.59847713,520,3.11288642,2.73095559,-1.59308632,-0.02174377,-1.59119510,-2.70004272,3.05757331,2.73744058,-1.59575661,0.00343323,-1.57441043,-2.03361511,3.05757331,2.73438882,-1.59384926,0.00305176,-1.57402896,-2.03399658,-0.00488281,-0.00488281,-0.00000000,-0.02929688,-0.00000000,-0.01464844,-2.97546387,-0.18306968,-0.18348694,-0.04882812
0.61435318,525,3.11288642,2.73095559,-1.59308632,-0.02174377,-1.59119510,-2.70004272,3.05757331,2.73744058,-1.59575661,0.00343323,-1.57441043,-2.03361511,3.05719184,2.73438882,-1.59384926,0.00305176,-1.57402896,-2.03399658,-0.00976562,0.00000000,0.00488281,-0.01464844,0.01464844,-0.01464844,-2.97584534,-0.18322814,-0.18310547,-0.02441406
0.62662864,530,3.11288642,2.73095559,-1.59308632,-0.02174377,-1.59119510,-2.70004272,3.05757331,2.73744058,-1.59575661,0.00343323,-1.57441043,-2.03361511,3.05757331,2.73438882,-1.59384926,0.00305176,-1.57364749,-2.03399658,-0.00488281,0.00000000,-0.00000000,-0.01464844,0.01464844,0.00000000,-2.97584534,-0.18330448,-0.18310547,-0.02441406
0.64331627,535,3.11288642,2.73095559,-1.59308632,-0.02174377,-1.59119510,-2.70004272,3.05757331,2.73744058,-1.59575661,0.00343323,-1.57441043,-2.03361511,3.05719184,2.73477029,-1.59384926,0.00305176,-1.57364749,-2.03361511,-0.00488281,-0.00488281,0.00488281,-0.01464844,0.02929688,-0.01464844,-2.97584534,-0.18330508,-0.18310547,0.00000000
0.65583920,540,3.11288642,2.73095559,-1.59308632,-0.02174377,-1.59119510,-2.70004272,3.05757331,2.73744058,-1.59575661,0.00343323,-1.57441043,-2.03361511,3.05719184,2.73477029,-1.59384926,0.00305176,-1.57402896,-2.03361511,-0.00488281,-0.00488281,0.00488281,-0.01464844,0.01464844,0.00000000,-2.97584534,-0.18334922,-0.18310547,-0.02441406
0.66962624,545,3.11288642,2.73095559,-1.59308632,-0.02174377,-1.59119510,-2.70004272,3.05757331,2.73744058,-1.59575661,0.00343323,-1.57441043,-2.03361511,3.05719184,2.73477029,-1.59384926,0.00305176,-1.57364749,-2.03399658,-0.00488281,-0.00488281,0.00488281,-0.01464844,0.01464844,0.00000000,-2.97546387,-0.18312907,-0.18310547,0.00000000
0.68383336,550,3.11288642,2.73095559,-1.59308632,-0.02174377,-1.59119510,-2.70004272,3.05757331,2.73744058,-1.59575661,0.00343323,-1.57441043,-2.03361511,3.05719184,2.73477029,-1.59384926,0.00305176,-1.57364749,-2.03399658,-0.00488281,-0.00488281,-0.00000000,-0.01464844,0.01464844,-0.02929688,-2.97546387,-0.18321708,-0.18310547,-0.02441406
0.69783163,555,3.11288642,2.73095559,-1.59308632,-0.02174377,-1.59119510,-2.70004272,3.05757331,2.73744058,-1.59575661,0.00343323,-1.57441043,-2.03361511,3.05719184,2.73477029,-1.59384926,0.00305176,-1.57402896,-2.03399658,-0.00976562,-0.00488281,0.00488281,-0.01464844,0.01464844,-0.01464844,-2.97584534,-0.18316023,-0.18310547,-0.04882812
0.71108246,560,3.11288642,2.73095559,-1.59308632,-0.02174377,-1.59119510,-2.70004272,3.05757331,2.73744058,-1.59575661,0.00343323,-1.57441043,-2.03361511,3.05719184,2.73477029,-1.59384926,0.00305176,-1.57402896,-2.03399658,-0.00488281,-0.00488281,0.00488281,-0.01464844,-0.00000000,-0.01464844,-2.97546387,-0.18306714,-0.18310547,-0.02441406
0.72494340,565,3.11288642,2.73095559,-1.59308632,-0.02174377,-1.59119510,-2.70004272,3.05757331,2.73744058,-1.59575661,0.00343323,-1.57441043,-2.03361511,3.05719184,2.73477029,-1.59384926,0.00305176,-1.57364749,-2.03399658,-0.00488281,-0.00488281,0.00488281,-0.01464844,0.01464844,-0.01464844,-2.97584534,-0.18327125,-0.18310547,0.00000000
0.73927665,570,3.11288642,2.73095559,-1.59308632,-0.02174377,-1.59119510,-2.70004272,3.05757331,2.73744058,-1.59575661,0.00343323,-1.57441043,-2.03361511,3.05719184,2.73477029,-1.59384926,0.00305176,-1.57364749,-2.03399658,-0.00488281,-0.00488281,-0.00000000,-0.01464844,0.02929688,-0.02929688,-2.97546387,-0.18318555,-0.18310547,-0.02441406
0.75331712,575,3.11288642,2.73095559,-1.59308632,-0.02174377,-1.59119510,-2.70004272,3.05757331,2.73744058,-1.59575661,0.00343323,-1.57441043,-2.03361511,3.05719184,2.73477029,-1.59384926,0.00305176,-1.57402896,-2.03399658,-0.00488281,0.00000000,0.00488281,-0.01464844,0.01464844,0.00000000,-2.97584534,-0.18332568,-0.18348694,-0.04882812
0.76722121,580,3.11288642,2.73095559,-1.59308632,-0.02174377,-1.59119510,-2.70004272,3.05757331,2.73744058,-1.59575661,0.00343323,-1.57441043,-2.03361511,3.05719184,2.73477029,-1.59384926,0.00305176,-1.57364749,-2.03399658,-0.00976562,0.00000000,0.00488281,-0.01464844,0.02929688,-0.01464844,-2.97584534,-0.18343410,-0.18310547,-0.02441406
0.78243780,585,3.11288642,2.73095559,-1.59308632,-0.02174377,-1.59119510,-2.70004272,3.05757331,2.73744058,-1.59575661,0.00343323,-1.57441043,-2.03361511,3.05719184,2.73477029,-1.59423073,0.00305176,-1.57402896,-2.03399658,-0.00488281,0.00000000,-0.00000000,-0.01464844,0.01464844,-0.01464844,-2.97584534,-0.18326943,-0.18348694,-0.04882812
0.79675722,590,3.11288642,2.73095559,-1.59308632,-0.02174377,-1.59119510,-2.70004272,3.05757331,2.73744058,-1.59575661,0.00343323,-1.57441043,-2.03361511,3.05719184,2.73477029,-1.59423073,0.00305176,-1.57364749,-2.03399658,-0.00488281,0.00000000,-0.00000000,-0.01464844,0.01464844,0.00000000,-2.97584534,-0.18325551,-0.18310547,-0.02441406
0.80960584,595,3.11288642,2.73095559,-1.59308632,-0.02174377,-1.59119510,-2.70004272,3.05757331,2.73744058,-1.59575661,0.00343323,-1.57441043,-2.03361511,3.05719184,2.73477029,-1.59423073,0.00305176,-1.57402896,-2.03399658,-0.00488281,0.00000000,0.00488281,-0.02929688,0.01464844,0.00000000,-2.97584534,-0.18341110,-0.18348694,-0.04882812
0.82645059,600,3.11288642,2.73095559,-1.59308632,-0.02174377,-1.59119510,-2.70004272,3.05757331,2.73744058,-1.59575661,0.00343323,-1.57441043,-2.03361511,3.05719184,2.73477029,-1.59423073,0.00305176,-1.57402896,-2.03399658,0.00000000,0.00000000,0.00488281,-0.01464844,0.02929688,-0.01464844,-2.97584534,-0.18338396,-0.18348694,-0.04882812
0.83866024,605,3.11288642,2.73095559,-1.59308632,-0.02174377,-1.59119510,-2.70004272,3.05757331,2.73744058,-1.59575661,0.00343323,-1.57441043,-2.03361511,3.05719184,2.73477029,-1.59423073,0.00305176,-1.57402896,-2.03399658,-0.00488281,0.00000000,0.00488281,-0.01464844,0.01464844,-0.01464844,-2.97584534,-0.18345320,-0.18348694,0.00000000
0.85399055,610,3.11288642,2.73095559,-1.59308632,-0.02174377,-1.59119510,-2.70004272,3.05757331,2.73744058,-1.59575661,0.00343323,-1.57441043,-2.03361511,3.05719184,2.73477029,-1.59423073,0.00305176,-1.57402896,-2.03399658,-0.00488281,-0.00488281,0.00488281,-0.01464844,-0.00000000,-0.01464844,-2.97584534,-0.18330010,-0.18348694,-0.04882812
0.86697865,615,3.11288642,2.73095559,-1.59308632,-0.02174377,-1.59119510,-2.70004272,3.05757331,2.73744058,-1.59575661,0.00343323,-1.57441043,-2.03361511,3.05719184,2.73477029,-1.59423073,0.00305176,-1.57364749,-2.03399658,-0.00488281,-0.00488281,0.00488281,-0.02929688,0.01464844,-0.02929688,-2.97546387,-0.18321063,-0.18310547,-0.02441406
0.88117552,620,3.11288642,2.73095559,-1.59308632,-0.02174377,-1.59119510,-2.70004272,3.05757331,2.73744058,-1.59575661,0.00343323,-1.57441043,-2.03361511,3.05719184,2.73477029,-1.59423073,0.00305176,-1.57402896,-2.03399658,-0.00488281,0.00000000,0.00976562,-0.01464844,0.01464844,-0.02929688,-2.97584534,-0.18322062,-0.18348694,-0.02441406
0.89828014,625,3.11288642,2.73095559,-1.59308632,-0.02174377,-1.59119510,-2.70004272,3.05757331,2.73744058,-1.59575661,0.00343323,-1.57441043,-2.03361511,3.05719184,2.73477029,-1.59423073,0.00305176,-1.57402896,-2.03399658,-0.00488281,-0.00488281,0.00488281,-0.02929688,0.02929688,-0.01464844,-2.97584534,-0.18327760,-0.18348694,-0.02441406
0.91382694,630,3.11288642,2.73095559,-1.59308632,-0.02174377,-1.59119510,-2.70004272,3.05757331,2.73744058,-1.59575661,0.00343323,-1.57441043,-2.03361511,3.05719184,2.73515176,-1.59423073,0.00305176,-1.57364749,-2.03399658,-0.00488281,0.00000000,0.00488281,-0.01464844,0.01464844,-0.01464844,-2.97546387,-0.18314368,-0.18348694,-0.02441406
0.92723393,635,3.11288642,2.73095559,-1.59308632,-0.02174377,-1.59119510,-2.70004272,3.05757331,2.73744058,-1.59575661,0.00343323,-1.57437137,-2.03361511,3.05719184,2.73515176,-1.59423073,0.00305176,-1.57402896,-2.03399658,-0.00488281,0.00000000,0.00488281,-0.01464844,0.01464844,-0.01464844,-2.97546387,-0.18303730,-0.18348694,0.00000000
0.94660687,640,3.11288642,2.73095559,-1.59308632,-0.02174377,-1.59119510,-2.70004272,3.05757331,2.73744058,-1.59575661,0.00343323,-1.57439763,-2.03361511,3.05719184,2.73515176,-1.59423073,0.00305176,-1.57364749,-2.03399658,-0.00488281,0.00000000,0.00488281,-0.02929688,0.01464844,-0.02929688,-2.97546387,-0.18298682,-0.18348694,0.00000000
0.96113658,645,3.11288642,2.73095559,-1.59308632,-0.02174377,-1.59119510,-2.70004272,3.05757331,2.73744058,-1.59575661,0.00343323,-1.57440624,-2.03361511,3.05719184,2.73515176,-1.59423073,0.00305176,-1.57402896,-2.03399658,0.00000000,0.00000000,-0.00000000,-0.01464844,0.01464844,-0.01464844,-2.97584534,-0.18332306,-0.18348694,-0.02441406
0.97452784,650,3.11288642,2.73057412,-1.59346779,-0.02098083,-1.59157657,-2.70004272,3.05757331,2.73721536,-1.59589394,0.00373474,-1.57448535,-2.03361511,3.05719184,2.73515176,-1.59423073,0.00305176,-1.57402896,-2.03399658,-0.00488281,0.00000000,0.00488281,-0.01464844,0.01464844,-0.01464844,-2.97584534,-0.18313539,-0.18348694,0.00000000
0.98972774,655,3.11288642,2.73057412,-1.59346779,-0.02098083,-1.59348392,-2.70004272,3.05757331,2.73711031,-1.59605808,0.00404497,-1.57557292,-2.03361511,3.05719184,2.73515176,-1.59423073,0.00305176,-1.57364749,-2.03399658,-0.00488281,0.00488281,0.00976562,0.00000000,0.02929688,-0.01464844,-2.97546387,-0.18307853,-0.18310547,0.00000000
1.00558925,660,3.11288642,2.73057412,-1.59346779,-0.02136230,-1.59424686,-2.70004272,3.05757331,2.73707588,-1.59611187,0.00407033,-1.57674155,-2.03361511,3.05719184,2.73515176,-1.59423073,0.00305176,-1.57402896,-2.03399658,-0.00488281,0.00000000,0.00976562,-0.01464844,-0.00000000,-0.01464844,-2.97584534,-0.18335311,-0.18348694,-0.02441406
1.01652741,665,3.11364936,2.73057412,-1.59346779,-0.02136230,-1.59348392,-2.70004272,3.05787482,2.73706460,-1.59612949,0.00407864,-1.57692454,-2.03361511,3.05719184,2.73553323,-1.59423073,0.00305176,-1.57402896,-2.03399658,-0.00488281,0.00000000,-0.00000000,-0.01464844,0.01464844,-0.01464844,-2.97584534,-0.18325852,-0.18348694,-0.02441406
1.03113890,670,3.11403083,2.73057412,-1.59346779,-0.02098083,-1.59348392,-2.70004272,3.05844152,2.73706091,-1.59613527,0.00415766,-1.57677307,-2.03361511,3.05719184,2.73553323,-1.59423073,0.00305176,-1.57402896,-2.03399658,-0.00488281,0.00000000,0.00488281,0.00000000,-0.00000000,0.00000000,-2.97546387,-0.18311888,-0.18348694,0.00000000
1.04707742,675,3.11441230,2.73057412,-1.59346779,-0.02098083,-1.59348392,-2.70004272,3.05885243,2.73705970,-1.59613716,0.00418355,-1.57681133,-2.03361511,3.05719184,2.73553323,-1.59423073,0.00305176,-1.57402896,-2.03399658,-0.00488281,0.00000000,0.00488281,-0.01464844,-0.00000000,0.00000000,-2.97584534,-0.18322571,-0.18348694,-0.04882812
1.06043506,680,3.11441230,2.73057412,-1.59346779,-0.02136230,-1.59348392,-2.70004272,3.05901833,2.73705930,-1.59613778,0.00400587,-1.57679701,-2.03361511,3.05719184,2.73553323,-1.59423073,0.00305176,-1.57402896,-2.03399658,-0.00488281,0.00000000,-0.00000000,0.00000000,0.02929688,-0.01464844,-2.97546387,-0.18302902,-0.18348694,-0.04882812
1.07299137,685,3.11441230,2.73057412,-1.59346779,-0.02136230,-1.59348392,-2.70004272,3.05907269,2.73705917,-1.59613798,0.00387734,-1.57679232,-2.03361511,3.05719184,2.73553323,-1.59423073,0.00305176,-1.57402896,-2.03361511,0.00000000,0.00000000,0.00488281,-0.01464844,0.01464844,-0.01464844,-2.97584534,-0.18333689,-0.18348694,-0.02441406
1.08727098,690,3.11441230,2.73057412,-1.59346779,-0.02136230,-1.59386539,-2.70004272,3.05909050,2.73705913,-1.59613805,0.00383522,-1.57685487,-2.03361511,3.05719184,2.73553323,-1.59423073,0.00305176,-1.57402896,-2.03399658,-0.00976562,0.00000000,-0.00000000,-0.02929688,0.01464844,-0.01464844,-2.97584534,-0.18337527,-0.18348694,0.00000000
1.10338902,695,3.11441230,2.73057412,-1.59346779,-0.02136230,-1.59348392,-2.70004272,3.05909634,2.73705911,-1.59613807,0.00382142,-1.57675024,-2.03361511,3.05719184,2.73553323,-1.59423073,0.00305176,-1.57402896,-2.03399658,-0.00488281,-0.00976562,0.00488281,-0.01464844,-0.00000000,0.00000000,-2.97584534,-0.18325015,-0.18348694,-0.04882812
1.11657882,700,3.11441230,2.73057412,-1.59346779,-0.02136230,-1.59348392,-2.70004272,3.05909825,2.73705911,-1.59613808,0.00381690,-1.57671596,-2.03361511,3.05719184,2.73591470,-1.59423073,0.00305176,-1.57441043,-2.03399658,0.00000000,-0.00488281,0.00488281,-0.01464844,0.01464844,-0.01464844,-2.97546387,-0.18315910,-0.18348694,0.00000000
1.13306808,705,3.11441230,2.73057412,-1.59346779,-0.02136230,-1.59348392,-2.70004272,3.05909888,2.73705911,-1.59613808,0.00376659,-1.57670473,-2.03361511,3.05719184,2.73591470,-1.59423073,0.00305176,-1.57441043,-2.03399658,-0.00488281,0.00000000,0.00488281,0.00000000,0.01464844,-0.01464844,-2.97584534,-0.18323889,-0.18348694,-0.02441406
1.14714503,710,3.11441230,2.73057412,-1.59346779,-0.02136230,-1.59348392,-2.70004272,3.05909909,2.73705911,-1.59613808,0.00379893,-1.57670105,-2.03361511,3.05719184,2.73591470,-1.59423073,0.00305176,-1.57441043,-2.03399658,-0.00488281,-0.00976562,0.00488281,-0.01464844,0.01464844,0.00000000,-2.97584534,-0.18316738,-0.18348694,-0.04882812
1.16214466,715,3.11403083,2.73057412,-1.59346779,-0.02174377,-1.59348392,-2.70004272,3.05891300,2.73705911,-1.59613808,0.00373324,-1.57669984,-2.03361511,3.05719184,2.73591470,-1.59423073,0.00305176,-1.57441043,-2.03399658,0.00000000,-0.00488281,0.00488281,-0.01464844,0.02929688,-0.02929688,-2.97584534,-0.18338222,-0.18348694,-0.04882812
1.17669749,720,3.11403083,2.73057412,-1.59346779,-0.02136230,-1.59348392,-2.70004272,3.05878170,2.73705911,-1.59613808,0.00378800,-1.57669944,-2.03361511,3.05719184,2.73591470,-1.59423073,0.00305176,-1.57441043,-2.03399658,-0.00976562,-0.00488281,0.00488281,-0.01464844,-0.00000000,-0.01464844,-2.97584534,-0.18345263,-0.18348694,-0.04882812
1.19095278,725,3.11403083,2.73057412,-1.59346779,-0.02136230,-1.59348392,-2.70004272,3.05873868,2.73705911,-1.59613808,0.00380595,-1.57669931,-2.03361511,3.05719184,2.73591470,-1.59423073,0.00305176,-1.57441043,-2.03399658,0.00000000,0.00000000,0.00488281,-0.02929688,0.01464844,-0.01464844,-2.97546387,-0.18322545,-0.18348694,-0.02441406
1.20400000,730,3.11403083,2.73057412,-1.59346779,-0.02136230,-1.59348392,-2.70004272,3.05872459,2.73705911,-1.59613808,0.00381183,-1.57669927,-2.03361511,3.05719184,2.73591470,-1.59423073,0.00305176,-1.57479190,-2.03399658,0.00000000,-0.00488281,0.00488281,-0.02929688,0.01464844,-0.01464844,-2.97546387,-0.18298597,-0.18348694,-0.02441406
1.21850967,735,3.11403083,2.73057412,-1.59346779,-0.02136230,-1.59348392,-2.70004272,3.05871997,2.73705911,-1.59613808,0.00381376,-1.57669926,-2.03361511,3.05757331,2.73591470,-1.59423073,0.00305176,-1.57479190,-2.03399658,-0.00488281,-0.00976562,0.00488281,-0.01464844,0.01464844,0.01464844,-2.97546387,-0.18310769,-0.18348694,-0.02441406
1.23206735,740,3.11403083,2.73057412,-1.59346779,-0.02136230,-1.59348392,-2.70004272,3.05871845,2.73705911,-1.59613808,0.00377533,-1.57669925,-2.03361511,3.05719184,2.73591470,-1.59423073,0.00305176,-1.57479190,-2.03399658,-0.00976562,-0.00488281,0.00488281,-0.01464844,0.01464844,-0.01464844,-2.97584534,-0.18326501,-0.18348694,0.00000000
1.24755311,745,3.11403083,2.73057412,-1.59346779,-0.02136230,-1.59348392,-2.70004272,3.05871796,2.73705911,-1.59613808,0.00380180,-1.57669925,-2.03361511,3.05719184,2.73591470,-1.59423073,0.00305176,-1.57479190,-2.03399658,-0.00976562,-0.00488281,0.00488281,-0.01464844,-0.00000000,-0.01464844,-2.97584534,-0.18329215,-0.18348694,-0.02441406
1.26182318,750,3.11403083,2.73057412,-1.59346779,-0.02136230,-1.59348392,-2.70004272,3.05871779,2.73705911,-1.59613808,0.00381047,-1.57669925,-2.03361511,3.05719184,2.73591470,-1.59423073,0.00305176,-1.57479190,-2.03399658,-0.00488281,-0.00488281,-0.00000000,-0.02929688,0.02929688,-0.02929688,-2.97584534,-0.18336061,-0.18348694,0.00000000
1.27688193,755,3.11403083,2.73057412,-1.59346779,-0.02136230,-1.59348392,-2.70004272,3.05871774,2.73705911,-1.59613808,0.00381331,-1.57669925,-2.03361511,3.05719184,2.73591470,-1.59423073,0.00305176,-1.57479190,-2.03399658,-0.00488281,-0.00976562,0.00488281,-0.01464844,0.01464844,-0.01464844,-2.97584534,-0.18308519,-0.18348694,-0.04882812
1.29237604,760,3.11403083,2.73057412,-1.59346779,-0.02136230,-1.59348392,-2.70004272,3.05871772,2.73705911,-1.59613808,0.00381424,-1.57669925,-2.03361511,3.05719184,2.73591470,-1.59461220,0.00305176,-1.57479190,-2.03399658,-0.00488281,0.00000000,-0.00000000,-0.01464844,-0.00000000,-0.01464844,-2.97584534,-0.18307307,-0.18348694,-0.02441406
1.30620623,765,3.11403083,2.73057412,-1.59346779,-0.02136230,-1.59348392,-2.70004272,3.05871772,2.73705911,-1.59613808,0.00378330,-1.57669925,-2.03361511,3.05719184,2.73591470,-1.59461220,0.00305176,-1.57517337,-2.03399658,-0.00488281,-0.00488281,-0.00000000,-0.01464844,-0.00000000,-0.01464844,-2.97546387,-0.18307666,-0.18348694,0.00000000
1.32035542,770,3.11403083,2.73057412,-1.59346779,-0.02174377,-1.59348392,-2.70004272,3.05871772,2.73705911,-1.59613808,0.00372811,-1.57669925,-2.03361511,3.05719184,2.73591470,-1.59461220,0.00305176,-1.57479190,-2.03399658,-0.00488281,0.00000000,-0.00000000,0.00000000,0.02929688,-0.01464844,-2.97584534,-0.18335250,-0.18348694,-0.02441406
1.33472514,775,3.11403083,2.73057412,-1.59346779,-0.02174377,-1.59348392,-2.70004272,3.05871772,2.73705911,-1.59613808,0.00367878,-1.57669925,-2.03361511,3.05719184,2.73591470,-1.59461220,0.00305176,-1.57479190,-2.03399658,-0.00976562,-0.00488281,0.00488281,0.00000000,-0.00000000,-0.01464844,-2.97546387,-0.18316823,-0.18310547,0.00000000
1.34687138,780,3.11403083,2.73057412,-1.59346779,-0.02136230,-1.59348392,-2.70004272,3.05871772,2.73705911,-1.59613808,0.00373891,-1.57669925,-2.03361511,3.05719184,2.73591470,-1.59461220,0.00305176,-1.57479190,-2.03399658,-0.00488281,0.00000000,-0.00000000,-0.01464844,0.02929688,-0.02929688,-2.97546387,-0.18304534,-0.18348694,-0.02441406
1.36063266,785,3.11403083,2.73057412,-1.59346779,-0.02136230,-1.59348392,-2.70004272,3.05871772,2.73705911,-1.59613808,0.00371955,-1.57669925,-2.03361511,3.05757331,2.73629617,-1.59461220,0.00305176,-1.57517337,-2.03399658,-0.00488281,0.00000000,-0.00000000,-0.01464844,0.01464844,-0.02929688,-2.97584534,-0.18322017,-0.18348694,-0.02441406
1.37623525,790,3.11403083,2.73057412,-1.59346779,-0.02174377,-1.59348392,-2.70004272,3.05871772,2.73705911,-1.59613808,0.00370723,-1.57669925,-2.03361511,3.05719184,2.73629617,-1.59461220,0.00305176,-1.57517337,-2.03399658,0.00000000,0.00000000,-0.00000000,-0.02929688,-0.00000000,-0.02929688,-2.97584534,-0.18333702,-0.18348694,-0.02441406
1.39005303,795,3.11403083,2.73057412,-1.59346779,-0.02174377,-1.59348392,-2.70004272,3.05871772,2.73705911,-1.59613808,0.00364215,-1.57669925,-2.03361511,3.05719184,2.73629617,-1.59461220,0.00305176,-1.57517337,-2.03399658,-0.00488281,0.00000000,0.00488281,0.01464844,-0.00000000,-0.01464844,-2.97546387,-0.18328523,-0.18348694,-0.02441406
1.40466833,800,3.11403083,2.73057412,-1.59346779,-0.02136230,-1.59348392,-2.70004272,3.05871772,2.73705911,-1.59613808,0.00370933,-1.57669925,-2.03361511,3.05719184,2.73629617,-1.59461220,0.00305176,-1.57517337,-2.03399658,-0.00488281,-0.00488281,0.00488281,-0.01464844,-0.01464844,-0.02929688,-2.97584534,-0.18323627,-0.18348694,0.00000000
1.42049623,805,3.11403083,2.73057412,-1.59346779,-0.02136230,-1.59348392,-2.70004272,3.05871772,2.73705911,-1.59613808,0.00378017,-1.57669925,-2.03361511,3.05757331,2.73629617,-1.59461220,0.00305176,-1.57517337,-2.03399658,-0.00488281,-0.00488281,-0.00000000,-0.01464844,0.01464844,-0.01464844,-2.97584534,-0.18322902,-0.18348694,-0.02441406
1.43369484,810,3.11403083,2.73057412,-1.59346779,-0.02136230,-1.59348392,-2.70004272,3.05871772,2.73705911,-1.59613808,0.00380338,-1.57669925,-2.03361511,3.05757331,2.73629617,-1.59461220,0.00305176,-1.57517337,-2.03399658,-0.00488281,-0.00488281,-0.00000000,-0.04394531,0.01464844,0.01464844,-2.97546387,-0.18312777,-0.18348694,-0.02441406
1.44864535,815,3.11403083,2.73057412,-1.59346779,-0.02136230,-1.59348392,-2.70004272,3.05871772,2.73705911,-1.59613808,0.00377974,-1.57669925,-2.03361511,3.05757331,2.73629617,-1.59461220,0.00305176,-1.57517337,-2.03399658,0.00000000,-0.00488281,-0.00000000,-0.01464844,0.02929688,-0.01464844,-2.97584534,-0.18336924,-0.18348694,-0.04882812
1.46353173,820,3.11403083,2.73057412,-1.59346779,-0.02136230,-1.59348392,-2.70004272,3.05871772,2.73705911,-1.59613808,0.00380324,-1.57669925,-2.03361511,3.05757331,2.73629617,-1.59461220,0.00305176,-1.57555484,-2.03399658,-0.00488281,-0.00488281,0.00488281,-0.01464844,0.02929688,-0.02929688,-2.97546387,-0.18311121,-0.18348694,-0.04882812
1.47725463,825,3.11403083,2.73057412,-1.59346779,-0.02136230,-1.59386539,-2.70004272,3.05871772,2.73705911,-1.59613808,0.00381094,-1.57682437,-2.03361511,3.05757331,2.73629617,-1.59499367,0.00305176,-1.57517337,-2.03399658,-0.00488281,0.00000000,-0.00000000,-0.01464844,0.02929688,-0.02929688,-2.97584534,-0.18336382,-0.18348694,0.00000000
1.49382687,830,3.11403083,2.73057412,-1.59346779,-0.02174377,-1.59386539,-2.70004272,3.05871772,2.73705911,-1.59613808,0.00373717,-1.57699672,-2.03361511,3.05757331,2.73629617,-1.59499367,0.00305176,-1.57555484,-2.03399658,0.00000000,-0.00488281,-0.00000000,-0.01464844,0.01464844,-0.01464844,-2.97584534,-0.18318390,-0.18348694,0.00000000
1.50660658,835,3.11403083,2.73057412,-1.59423073,-0.02174377,-1.59424686,-2.70004272,3.05871772,2.73705911,-1.59643959,0.00353282,-1.57730967,-2.03361511,3.05757331,2.73629617,-1.59499367,0.00305176,-1.57555484,-2.03399658,-0.00488281,0.00000000,-0.00000000,-0.02929688,-0.01464844,-0.01464844,-2.97546387,-0.18311298,-0.18348694,-0.02441406
1.52226186,840,3.11403083,2.73057412,-1.59537514,-0.02212524,-1.59386539,-2.70004272,3.05871772,2.73705911,-1.59736884,0.00320939,-1.57733592,-2.03361511,3.05757331,2.73629617,-1.59499367,0.00305176,-1.57555484,-2.03399658,-0.00488281,0.00000000,-0.00000000,0.00000000,-0.00000000,-0.01464844,-2.97584534,-0.18318862,-0.18348694,0.00000000
1.53849149,845,3.11403083,2.73057412,-1.59651955,-0.02174377,-1.59386539,-2.70004272,3.05871772,2.73705911,-1.59831139,0.00324074,-1.57728348,-2.03361511,3.05757331,2.73629617,-1.59499367,0.00305176,-1.57555484,-2.03399658,-0.00488281,-0.00488281,0.00488281,0.00000000,0.02929688,-0.01464844,-2.97584534,-0.18331106,-0.18348694,-0.02441406
1.55567527,850,3.11403083,2.73057412,-1.59880837,-0.02021790,-1.59348392,-2.70004272,3.05871772,2.73705911,-1.59999110,0.00409525,-1.57707087,-2.03361511,3.05757331,2.73629617,-1.59499367,0.00305176,-1.57555484,-2.03399658,-0.00488281,-0.00488281,0.00488281,-0.01464844,0.01464844,-0.01464844,-2.97546387,-0.18321422,-0.18348694,-0.02441406
1.56932330,855,3.11403083,2.73057412,-1.60109719,-0.01945496,-1.59348392,-2.70004272,3.05871772,2.73705911,-1.60209790,0.00511867,-1.57682102,-2.03361511,3.05757331,2.73629617,-1.59499367,0.00305176,-1.57555484,-2.03399658,-0.00488281,0.00000000,-0.00000000,-0.02929688,0.01464844,-0.01464844,-2.97584534,-0.18327550,-0.18348694,0.00000000
1.58317709,860,3.11403083,2.73057412,-1.60453041,-0.01945496,-1.59348392,-2.70004272,3.05871772,2.73705911,-1.60450713,0.00552433,-1.57660781,-2.03361511,3.05757331,2.73629617,-1.59499367,0.00305176,-1.57555484,-2.03399658,-0.00488281,-0.00488281,-0.00488281,0.00000000,0.02929688,-0.01464844,-2.97546387,-0.18326507,-0.18348694,-0.02441406
1.59949446,865,3.11403083,2.73057412,-1.60910805,-0.01983643,-1.59310245,-2.70004272,3.05871772,2.73705911,-1.60836348,0.00548087,-1.57641282,-2.03361511,3.05757331,2.73629617,-1.59537514,0.00305176,-1.57593631,-2.03399658,0.00000000,-0.00488281,-0.00976562,-0.01464844,-0.00000000,-0.01464844,-2.97584534,-0.18329217,-0.18348694,-0.02441406
1.61427593,870,3.11403083,2.73057412,-1.61444863,-0.01983643,-1.59272098,-2.70004272,3.05871772,2.73705911,-1.61296478,0.00538655,-1.57621159,-2.03361511,3.05757331,2.73629617,-1.59537514,0.00305176,-1.57593631,-2.03399658,-0.00488281,0.00000000,-0.00488281,-0.01464844,0.01464844,-0.01464844,-2.97584534,-0.18324733,-0.18348694,0.00000000
1.63009953,875,3.11403083,2.73057412,-1.62017067,-0.01983643,-1.59195804,-2.70004272,3.05871772,2.73705911,-1.61854956,0.00535564,-1.57570303,-2.03361511,3.05757331,2.73629617,-1.59575661,0.00343323,-1.57593631,-2.03399658,-0.00488281,-0.00488281,-0.02441406,-0.01464844,0.01464844,-0.01464844,-2.97584534,-0.18318870,-0.18348694,-0.02441406
1.64341378,880,3.11403083,2.73095559,-1.62627419,-0.01983643,-1.58966922,-2.70004272,3.05871772,2.73724526,-1.62401141,0.00534551,-1.57441114,-2.03361511,3.05757331,2.73629617,-1.59613808,0.00343323,-1.57593631,-2.03399658,-0.00976562,0.00000000,-0.01953125,0.00000000,0.01464844,-0.01464844,-2.97546387,-0.18323662,-0.18348694,-0.02441406
1.65800738,885,3.11403083,2.73133706,-1.63237770,-0.01983643,-1.58623599,-2.70004272,3.05871772,2.73756273,-1.63029969,0.00534219,-1.57178603,-2.03361511,3.05757331,2.73629617,-1.59651955,0.00343323,-1.57593631,-2.03399658,-0.00488281,0.00000000,-0.00976562,-0.02929688,-0.00000000,-0.02929688,-2.97584534,-0.18332679,-0.18348694,0.00000000
1.67288089,890,3.11326789,2.73171853,-1.63886269,-0.01945496,-1.58051395,-2.70004272,3.05845526,2.73792323,-1.63636914,0.00547844,-1.56796209,-2.03361511,3.05757331,2.73629617,-1.59690102,0.00343323,-1.57593631,-2.03399658,-0.00976562,-0.00488281,-0.03417969,-0.02929688,0.01464844,-0.02929688,-2.97584534,-0.18337196,-0.18348694,-0.02441406
1.68570971,895,3.11288642,2.73248147,-1.64305886,-0.01983643,-1.57402896,-2.70004272,3.05789356,2.73850547,-1.64181929,0.00541700,-1.56207027,-2.03361511,3.05757331,2.73629617,-1.59766396,0.00343323,-1.57555484,-2.03399658,-0.00488281,-0.00976562,-0.04882812,0.00000000,0.02929688,-0.01464844,-2.97546387,-0.18329667,-0.18348694,-0.02441406
1.70212984,900,3.11250495,2.73324441,-1.64839943,-0.01945496,-1.56411075,-2.70004272,3.05754092,2.73920920,-1.64719088,0.00562209,-1.55369457,-2.03361511,3.05757331,2.73629617,-1.59842690,0.00343323,-1.57517337,-2.03399658,-0.00488281,-0.00488281,-0.04394531,-0.02929688,0.05859375,-0.02929688,-2.97584534,-0.18334647,-0.18348694,-0.02441406
1.71564031,905,3.11250495,2.73400735,-1.65412148,-0.01945496,-1.55304813,-2.70004272,3.05730622,2.73988242,-1.65242651,0.00575960,-1.54428534,-2.03361511,3.05757331,2.73629617,-1.59957131,0.00343323,-1.57479190,-2.03399658,-0.00488281,-0.00488281,-0.06835938,-0.01464844,0.04394531,0.00000000,-2.97584534,-0.18330028,-0.18348694,0.00000000
1.72992253,910,3.11250495,2.73591470,-1.66136940,-0.01945496,-1.53931522,-2.70004272,3.05722932,2.74129309,-1.65870792,0.00573435,-1.53246141,-2.03361511,3.05757331,2.73629617,-1.60033425,0.00343323,-1.57364749,-2.03399658,-0.00488281,-0.00488281,-0.05859375,-0.01464844,0.10253906,-0.01464844,-2.97584534,-0.18312792,-0.18348694,-0.02441406
1.74287510,915,3.11212348,2.73820352,-1.66709145,-0.01945496,-1.52977848,-2.70004272,3.05701796,2.74305587,-1.66480027,0.00572608,-1.52164102,-2.03361511,3.05757331,2.73629617,-1.60147866,0.00343323,-1.57174015,-2.03399658,-0.00488281,-0.00488281,-0.08789062,0.01464844,0.16113281,-0.01464844,-2.97584534,-0.18327164,-0.18348694,-0.02441406
1.75771976,920,3.11174201,2.74125527,-1.67433937,-0.01945496,-1.51833438,-2.70004272,3.05674106,2.74559297,-1.67166514,0.00572337,-1.51025726,-2.03361511,3.05757331,2.73667764,-1.60300454,0.00343323,-1.56678104,-2.03399658,-0.00488281,0.00000000,-0.08789062,-0.02929688,0.33691406,-0.01464844,-2.97584534,-0.18341639,-0.18348694,-0.04882812
1.77302599,925,3.11097907,2.74583291,-1.68387612,-0.01945496,-1.50422000,-2.70004272,3.05616864,2.74889113,-1.67938251,0.00572248,-1.49817339,-2.03361511,3.05757331,2.73667764,-1.60414894,0.00343323,-1.56144046,-2.03399658,-0.00488281,0.00976562,-0.06347656,-0.01464844,0.43945312,-0.01464844,-2.97546387,-0.18323311,-0.18348694,-0.04882812
1.78704333,930,3.10983466,2.75079202,-1.69074257,-0.01945496,-1.49315738,-2.70004272,3.05534301,2.75328303,-1.68699801,0.00572219,-1.48628052,-2.03361511,3.05757331,2.73667764,-1.60567482,0.00343323,-1.55571842,-2.03399658,-0.00976562,0.00976562,-0.09765625,-0.01464844,0.39550781,-0.01464844,-2.97546387,-0.18318868,-0.18348694,0.00000000
1.80161238,935,3.10830878,2.75613259,-1.69760903,-0.01907349,-1.48209476,-2.70004272,3.05426582,2.75831860,-1.69424712,0.00579839,-1.47472026,-2.03361511,3.05757331,2.73744058,-1.60720070,0.00343323,-1.54999637,-2.03399658,-0.00488281,0.03417969,-0.09277344,0.00000000,0.35156250,-0.01464844,-2.97584534,-0.18326713,-0.18348694,-0.02441406
1.81532145,940,3.10716437,2.76223611,-1.70371254,-0.01754761,-1.47293949,-2.70004272,3.05301209,2.76356143,-1.70076509,0.00658947,-1.46474225,-2.03361511,3.05757331,2.73782205,-1.60872658,0.00381470,-1.54465579,-2.03399658,-0.00488281,0.04394531,-0.10253906,0.00000000,0.41015625,-0.01464844,-2.97584534,-0.18329284,-0.18348694,-0.04882812
1.82903314,945,3.10563849,2.76948403,-1.70981606,-0.01525879,-1.46492862,-2.70004272,3.05165547,2.76984178,-1.70706349,0.00830743,-1.45561462,-2.03361511,3.05757331,2.73858499,-1.61025246,0.00381470,-1.53893375,-2.03399658,-0.00488281,0.02929688,-0.11230469,0.00000000,0.45410156,-0.01464844,-2.97546387,-0.18317309,-0.18348694,-0.04882812
1.84771085,950,3.10373114,2.77902078,-1.71706398,-0.01373291,-1.45958805,-2.70004272,3.04984069,2.77839545,-1.71413700,0.01023463,-1.44777773,-2.03361511,3.05757331,2.73896646,-1.61254128,0.00381470,-1.53244876,-2.03399658,0.00000000,0.03417969,-0.14160156,-0.01464844,0.51269531,-0.01464844,-2.97584534,-0.18312140,-0.18348694,0.00000000
1.86270976,955,3.10182379,2.78855752,-1.72278603,-0.01335144,-1.45882511,-2.70004272,3.04806378,2.78750996,-1.72060267,0.01127300,-1.44395168,-2.03361511,3.05757331,2.73972939,-1.61483010,0.00381470,-1.52405643,-2.03399658,-0.00488281,0.04882812,-0.13183594,0.00000000,0.39550781,-0.01464844,-2.97584534,-0.18312888,-0.18348694,0.00000000
1.87913227,960,3.10029792,2.80038308,-1.72850808,-0.01373291,-1.45958805,-2.70004272,3.04626325,2.79825332,-1.72668069,0.01150717,-1.44310934,-2.03361511,3.05719184,2.74087380,-1.61673745,0.00419617,-1.51986026,-2.03399658,-0.00976562,0.06347656,-0.12207031,0.01464844,0.24902344,0.00000000,-2.97584534,-0.18336961,-0.18348694,-0.02441406
1.89466906,965,3.09839057,2.81335305,-1.73499306,-0.01373291,-1.45958805,-2.70004272,3.04448320,2.80990139,-1.73270713,0.01155265,-1.44290364,-2.03361511,3.05719184,2.74201821,-1.61864479,0.00457764,-1.51337528,-2.03399658,-0.01464844,0.07812500,-0.14648438,0.00000000,0.48339844,0.00000000,-2.97546387,-0.18317383,-0.18348694,-0.02441406
1.90923142,970,3.09686469,2.82403420,-1.74071511,-0.01335144,-1.45958805,-2.70004272,3.04287403,2.82065426,-1.73823107,0.01161699,-1.44283623,-2.03361511,3.05719184,2.74278115,-1.62093361,0.00457764,-1.50574588,-2.03399658,-0.01464844,0.05859375,-0.17089844,-0.02929688,0.60058594,0.00000000,-2.97546387,-0.18296906,-0.18348694,-0.02441406
1.92280412,975,3.09533881,2.83357095,-1.74567421,-0.01335144,-1.45958805,-2.70004272,3.04132086,2.83168130,-1.74402809,0.01166493,-1.44281414,-2.03361511,3.05681037,2.74430703,-1.62360390,0.00457764,-1.50002384,-2.03399658,-0.03417969,0.10253906,-0.14648438,0.00000000,0.41015625,-0.02929688,-2.97584534,-0.18319517,-0.18348694,0.00000000
1.93766260,980,3.09381293,2.84730386,-1.75292214,-0.01373291,-1.45958805,-2.70004272,3.03982510,2.84323898,-1.75013066,0.01162632,-1.44280691,-2.03361511,3.05604743,2.74659585,-1.62627419,0.00495911,-1.49620914,-2.03399658,-0.03417969,0.14160156,-0.13671875,-0.01464844,0.21972656,-0.01464844,-2.97546387,-0.18314109,-0.18348694,-0.02441406
1.95109749,985,3.09266852,2.85874795,-1.75864418,-0.01373291,-1.45958805,-2.70004272,3.03849524,2.85541023,-1.75628697,0.01156484,-1.44280453,-2.03361511,3.05604743,2.74812173,-1.62780007,0.00495911,-1.49392032,-2.03399658,-0.01464844,0.13183594,-0.15136719,-0.01464844,0.23437500,-0.02929688,-2.97584534,-0.18307576,-0.18348694,-0.02441406
1.96369147,990,3.09190558,2.86942910,-1.76398476,-0.01373291,-1.45958805,-2.70004272,3.03751529,2.86530134,-1.76122053,0.01148366,-1.44280376,-2.03361511,3.05566596,2.75002908,-1.63008889,0.00534058,-1.48896121,-2.03399658,-0.01953125,0.13183594,-0.15625000,0.01464844,0.35156250,-0.01464844,-2.97546387,-0.18283926,-0.18348694,-0.04882812
1.97858119,995,3.09076117,2.88125466,-1.76970681,-0.01373291,-1.45958805,-2.70004272,3.03640719,2.87779234,-1.76743469,0.01145706,-1.44280350,-2.03361511,3.05566596,2.75155496,-1.63237770,0.00610352,-1.48514652,-2.03399658,-0.01464844,0.12695312,-0.17578125,0.05859375,0.33691406,-0.01464844,-2.97584534,-0.18291436,-0.18348694,-0.04882812
1.99397516,1000,3.08999823,2.89689492,-1.77695473,-0.01373291,-1.45958805,-2.70004272,3.03543886,2.89209010,-1.77424817,0.01144834,-1.44280342,-2.03361511,3.05528449,2.75422524,-1.63542946,0.00686646,-1.48056888,-2.03399658,-0.01953125,0.16601562,-0.18554688,0.01464844,0.26367188,-0.02929688,-2.97546387,-0.18284888,-0.18348694,-0.02441406
2.00788879,1005,3.08923529,2.90795754,-1.78191384,-0.01373291,-1.45958805,-2.70004272,3.03452073,2.90526457,-1.78033200,0.01144548,-1.44280339,-2.03361511,3.05490302,2.75689553,-1.63771828,0.00724792,-1.47866153,-2.03399658,-0.03906250,0.18554688,-0.18554688,0.02929688,0.19042969,0.00000000,-2.97584534,-0.18321536,-0.18348694,-0.02441406
2.02263618,1010,3.08809088,2.92550515,-1.79030617,-0.01373291,-1.45958805,-2.70004272,3.03353836,2.91967411,-1.78712023,0.01144455,-1.44280338,-2.03361511,3.05452155,2.75918435,-1.64000710,0.00762939,-1.47637271,-2.03399658,-0.04394531,0.20507812,-0.17578125,0.00000000,0.16113281,-0.02929688,-2.97546387,-0.18294751,-0.18348694,-0.02441406
2.03588915,1015,3.08694648,2.93923806,-1.79640969,-0.01373291,-1.45958805,-2.70004272,3.03258816,2.93310579,-1.79330114,0.01144424,-1.44280338,-2.03361511,3.05414008,2.76223611,-1.64344033,0.00762939,-1.47370243,-2.03399658,-0.03417969,0.18554688,-0.18554688,-0.01464844,0.17578125,-0.01464844,-2.97546387,-0.18309509,-0.18348694,0.00000000
2.04965448,1020,3.08618354,2.95297097,-1.80251320,-0.01373291,-1.45958805,-2.70004272,3.03162275,2.94742114,-1.79980844,0.01144414,-1.44286441,-2.03361511,3.05337714,2.76566934,-1.64611061,0.00762939,-1.47141361,-2.03399658,-0.02929688,0.20507812,-0.19531250,0.00000000,0.11718750,-0.01464844,-2.97546387,-0.18292372,-0.18348694,-0.04882812
2.06351209,1025,3.08542060,2.96899270,-1.80976113,-0.01373291,-1.45996952,-2.70004272,3.03075440,2.96257172,-1.80665498,0.01144411,-1.44304078,-2.03361511,3.05337714,2.76872109,-1.64878090,0.00801086,-1.47026920,-2.03399658,-0.02441406,0.22460938,-0.19042969,-0.01464844,0.10253906,-0.01464844,-2.97584534,-0.18311781,-0.18348694,-0.02441406
2.08005595,1030,3.08465766,2.98615884,-1.81815346,-0.01373291,-1.45996952,-2.70004272,3.02995692,2.97930444,-1.81451833,0.01144410,-1.44313764,-2.03361511,3.05261420,2.77291726,-1.65259560,0.00801086,-1.46874332,-2.03399658,-0.03906250,0.24902344,-0.21484375,0.01464844,0.07324219,0.00000000,-2.97546387,-0.18301320,-0.18348694,-0.02441406
2.09490657,1035,3.08465766,3.00065469,-1.82540139,-0.01373291,-1.45958805,-2.70004272,3.02954521,2.99480329,-1.82194838,0.01144409,-1.44309308,-2.03361511,3.05223273,2.77749490,-1.65602883,0.00801086,-1.46683597,-2.03399658,-0.03417969,0.27343750,-0.20507812,-0.01464844,0.19042969,-0.02929688,-2.97546387,-0.18297892,-0.18348694,0.00000000
2.10946035,1040,3.08427619,3.01934670,-1.83455666,-0.01411438,-1.45958805,-2.70004272,3.02918508,3.01159155,-1.83027418,0.01136780,-1.44289831,-2.03361511,3.05146979,2.78130959,-1.65908058,0.00801086,-1.46378421,-2.03399658,-0.05371094,0.29785156,-0.23437500,-0.01464844,0.21972656,-0.01464844,-2.97584534,-0.18302262,-0.18348694,0.00000000
2.12461495,1045,3.08465766,3.03765725,-1.84371193,-0.01411438,-1.45958805,-2.70004272,3.02922198,3.02894136,-1.83888665,0.01116262,-1.44289552,-2.03361511,3.05108832,2.78626870,-1.66289528,0.00801086,-1.46035098,-2.03399658,-0.02441406,0.30761719,-0.21484375,-0.02929688,0.20507812,-0.02929688,-2.97584534,-0.18333479,-0.18348694,0.00000000
2.13878250,1050,3.08465766,3.05291604,-1.85134133,-0.01411438,-1.45958805,-2.70004272,3.02930438,3.04570955,-1.84727471,0.01109539,-1.44283357,-2.03361511,3.05070685,2.79084634,-1.66556557,0.00839233,-1.45882511,-2.03399658,-0.03417969,0.31738281,-0.22460938,0.00000000,0.10253906,-0.02929688,-2.97546387,-0.18308430,-0.18348694,0.00000000
2.15751743,1055,3.08465766,3.07237100,-1.86087807,-0.01411438,-1.45958805,-2.70004272,3.02933139,3.06396673,-1.85630760,0.01107336,-1.44281327,-2.03361511,3.05032538,2.79580544,-1.66899880,0.00801086,-1.45729923,-2.03399658,-0.02441406,0.33203125,-0.22460938,-0.01464844,0.14648438,-0.01464844,-2.97546387,-0.18308034,-0.18348694,0.00000000
2.16925144,1060,3.08465766,3.08877419,-1.86927040,-0.01411438,-1.45958805,-2.70004272,3.02934023,3.08127871,-1.86496355,0.01106614,-1.44280662,-2.03361511,3.04994391,2.80076455,-1.67281349,0.00839233,-1.45539188,-2.03399658,-0.04394531,0.35156250,-0.24902344,0.00000000,0.17578125,-0.01464844,-2.97584534,-0.18329121,-0.18348694,-0.04882812
2.18414521,1065,3.08465766,3.10555886,-1.87728127,-0.01411438,-1.45958805,-2.70004272,3.02934313,3.09794515,-1.87322242,0.01106377,-1.44280444,-2.03361511,3.04956244,2.80648660,-1.67624672,0.00839233,-1.45386600,-2.03399658,-0.02441406,0.36621094,-0.25878906,-0.02929688,0.07324219,0.00000000,-2.97546387,-0.18305049,-0.18348694,-0.04882812
2.19672084,1070,3.08465766,3.12196206,-1.88567360,-0.01411438,-1.45958805,-2.70004272,3.02934408,3.11583841,-1.88203195,0.01106300,-1.44280373,-2.03361511,3.04918097,2.81106423,-1.68006142,0.00877380,-1.45386600,-2.03399658,-0.03906250,0.38085938,-0.26367188,0.00000000,0.02929688,-0.01464844,-2.97584534,-0.18308123,-0.18348694,-0.04882812
2.21062684,1075,3.08465766,3.14141702,-1.89597329,-0.01411438,-1.45958805,-2.70004272,3.02934440,3.13252480,-1.89060848,0.01106275,-1.44280349,-2.03361511,3.04879950,2.81754922,-1.68425759,0.00877380,-1.45348453,-2.03399658,-0.01953125,0.41015625,-0.24902344,0.00000000,0.04394531,0.00000000,-2.97584534,-0.18299364,-0.18348694,-0.02441406
2.22451019,1080,3.08465766,-3.12536509,-1.90551003,-0.01411438,-1.45958805,-2.70004272,3.02934450,3.15036015,-1.90033497,0.01106266,-1.44280341,-2.03361511,3.04841803,2.82288979,-1.68769081,0.00877380,-1.45310306,-2.03399658,-0.01953125,0.42480469,-0.27832031,-0.02929688,0.04394531,-0.01464844,-2.97584534,-0.18302744,-0.18348694,-0.02441406
2.23933840,1085,3.08465766,-3.10667308,-1.91619118,-0.01449585,-1.45958805,-2.70004272,3.02934453,3.16899641,-1.91092401,0.01087648,-1.44280339,-2.03361511,3.04803656,2.82975625,-1.69226845,0.00877380,-1.45272159,-2.03399658,-0.03906250,0.42480469,-0.28808594,-0.01464844,0.02929688,-0.02929688,-2.97546387,-0.18296406,-0.18348694,-0.02441406
2.25382113,1090,3.08465766,-3.08683665,-1.92801674,-0.01487732,-1.45958805,-2.70004272,3.02934454,3.18856386,-1.92272085,0.01060783,-1.44280338,-2.03361511,3.04765509,2.83700417,-1.69684609,0.00877380,-1.45195865,-2.03399658,-0.03417969,0.45898438,-0.26367188,-0.02929688,0.05859375,0.00000000,-2.97584534,-0.18331560,-0.18348694,-0.02441406
2.27017760,1095,3.08465766,-3.06318553,-1.94251259,-0.01487732,-1.45958805,-2.70004272,3.02934455,3.20799110,-1.93452028,0.01040066,-1.44280338,-2.03361511,3.04727362,2.84348916,-1.70142372,0.00877380,-1.45157718,-2.03399658,-0.02441406,0.44921875,-0.30273438,-0.02929688,0.05859375,0.00000000,-2.97584534,-0.18321107,-0.18348694,-0.02441406
2.28482819,1100,3.08465766,-3.04563792,-1.95395668,-0.01487732,-1.45958805,-2.70004272,3.02934455,3.22799110,-1.94702319,0.01033277,-1.44280338,-2.03361511,3.04689215,2.84997415,-1.70523842,0.00915527,-1.45081424,-2.03399658,-0.03417969,0.46875000,-0.30273438,0.00000000,0.05859375,0.01464844,-2.97584534,-0.18319635,-0.18348694,-0.02441406
2.30078244,1105,3.08465766,-3.02427561,-1.96730812,-0.01487732,-1.45958805,-2.70004272,3.02934455,3.24775178,-1.95929482,0.01031052,-1.44280338,-2.03361511,3.04689215,2.85760354,-1.70981606,0.00915527,-1.45005130,-2.03399658,-0.01464844,0.48828125,-0.30273438,-0.01464844,0.02929688,0.00000000,-2.97546387,-0.18323913,-0.18348694,0.00000000
2.31384254,1110,3.08465766,-3.00749095,-1.97798928,-0.01487732,-1.45958805,-2.70004272,3.02934455,3.26676018,-1.97122615,0.01024220,-1.44280338,-2.03361511,3.04651068,2.86523293,-1.71477516,0.00915527,-1.44966983,-2.03399658,-0.02441406,0.50781250,-0.32226562,0.00000000,0.07324219,-0.01464844,-2.97546387,-0.18306858,-0.18386841,-0.02441406
2.32754350,1115,3.08465766,-2.99032481,-1.99019631,-0.01525879,-1.45920658,-2.70004272,3.02934455,3.28534147,-1.98354938,0.01002438,-1.44269583,-2.03361511,3.04612921,2.87286233,-1.71935280,0.00915527,-1.44852542,-2.03399658,-0.03417969,0.54687500,-0.33691406,-0.01464844,0.08789062,-0.01464844,-2.97546387,-0.18307519,-0.18348694,0.00000000
2.34125781,1120,3.08465766,-2.97086985,-2.00354775,-0.01564026,-1.45920658,-2.70004272,3.02934455,3.30379559,-1.99611956,0.00976684,-1.44251167,-2.03361511,3.04574775,2.88049172,-1.72469338,0.00915527,-1.44738101,-2.03399658,-0.02929688,0.54199219,-0.34179688,-0.02929688,0.10253906,-0.02929688,-2.97584534,-0.18328952,-0.18348694,-0.02441406
2.35722733,1125,3.08465766,-2.95370372,-2.01499184,-0.01564026,-1.45882511,-2.70004272,3.02934455,3.32043699,-2.00733792,0.00961214,-1.44226516,-2.03361511,3.04498481,2.89002847,-1.73041542,0.00915527,-1.44661807,-2.03399658,-0.04394531,0.56640625,-0.33203125,-0.01464844,0.05859375,-0.01464844,-2.97584534,-0.18328162,-0.18348694,-0.04882812
2.37108946,1130,3.08465766,-2.93539317,-2.02643593,-0.01602173,-1.45882511,-2.70004272,3.02934455,3.33923895,-2.01953910,0.00937529,-1.44211408,-2.03361511,3.04498481,2.89651345,-1.73461159,0.00915527,-1.44661807,-2.03399658,-0.02929688,0.56152344,-0.37109375,-0.01464844,0.01464844,-0.01464844,-2.97546387,-0.18296922,-0.18348694,-0.04882812
2.38547254,1135,3.08465766,-2.91670115,-2.03902443,-0.01640320,-1.45882511,-2.70004272,3.02934455,3.35829192,-2.03207539,0.00904121,-1.44206457,-2.03361511,3.04460334,2.90643167,-1.74109658,0.00915527,-1.44661807,-2.03399658,-0.01953125,0.59570312,-0.40039062,-0.01464844,0.01464844,-0.02929688,-2.97584534,-0.18309757,-0.18348694,-0.02441406
2.40017676,1140,3.08465766,-2.90067942,-2.05046852,-0.01716614,-1.45882511,-2.70004272,3.02934455,3.37574003,-2.04407220,0.00849888,-1.44204834,-2.03361511,3.04460334,2.91444253,-1.74605568,0.00915527,-1.44623661,-2.03399658,-0.02441406,0.59570312,-0.39550781,-0.01464844,0.02929688,-0.01464844,-2.97584534,-0.18317478,-0.18348694,-0.02441406
2.41515946,1145,3.08465766,-2.88198741,-2.06305703,-0.01907349,-1.45882511,-2.70004272,3.02934455,3.39341409,-2.05601467,0.00728931,-1.44195514,-2.03361511,3.04422187,2.92321633,-1.75139626,0.00915527,-1.44623661,-2.03399658,-0.02441406,0.60546875,-0.39550781,-0.01464844,-0.00000000,-0.01464844,-2.97584534,-0.18320887,-0.18348694,0.00000000
2.43022394,1150,3.08465766,-2.86634715,-2.07335671,-0.02098083,-1.45882511,-2.70004272,3.02934455,3.41035702,-2.06728723,0.00565943,-1.44198124,-2.03361511,3.04384040,2.93351602,-1.75826271,0.00915527,-1.44623661,-2.03399658,-0.02441406,0.62988281,-0.40039062,-0.02929688,0.04394531,0.00000000,-2.97584534,-0.18327375,-0.18386841,-0.02441406
2.44560075,1155,3.08465766,-2.84918101,-2.08480080,-0.02403259,-1.45882511,-2.70004272,3.02934455,3.42688605,-2.07828156,0.00339440,-1.44202104,-2.03361511,3.04307746,2.94381570,-1.76512917,0.00915527,-1.44585514,-2.03399658,-0.04394531,0.62011719,-0.39062500,-0.01464844,0.05859375,-0.01464844,-2.97584534,-0.18317880,-0.18348694,0.00000000
2.45982194,1160,3.08465766,-2.83544810,-2.09395607,-0.02670288,-1.45882511,-2.70004272,3.02934455,3.44219877,-2.08849160,0.00067673,-1.44203408,-2.03361511,3.04307746,2.95297097,-1.77085121,0.00915527,-1.44547367,-2.03399658,-0.02441406,0.65917969,-0.40527344,-0.01464844,0.04394531,0.00000000,-2.97546387,-0.18323338,-0.18348694,-0.02441406
2.47257233,1165,3.08465766,-2.82285960,-2.10158547,-0.02899170,-1.45882511,-2.70004272,3.02934455,3.45748804,-2.09837531,-0.00213982,-1.44203836,-2.03361511,3.04269599,2.96136331,-1.77657326,0.00877380,-1.44509220,-2.03399658,-0.02441406,0.63476562,-0.40527344,-0.04394531,0.04394531,-0.01464844,-2.97546387,-0.18312919,-0.18348694,-0.02441406
2.48759556,1170,3.08465766,-2.80378611,-2.11417397,-0.03356934,-1.45882511,-2.70004272,3.02934455,3.47230101,-2.10806872,-0.00529517,-1.44203976,-2.03361511,3.04231452,2.97128152,-1.78229531,0.00877380,-1.44471073,-2.03399658,-0.02929688,0.67871094,-0.39062500,-0.04394531,0.04394531,-0.01464844,-2.97546387,-0.18321712,-0.18348694,-0.04882812
2.50215364,1175,3.08465766,-2.78776438,-2.12409218,-0.03623962,-1.45882511,-2.70004272,3.02934455,3.48788320,-2.11780487,-0.00844130,-1.44204021,-2.03361511,3.04231452,2.98119973,-1.78916176,0.00839233,-1.44471073,-2.03399658,-0.00976562,0.65917969,-0.41992188,-0.04394531,0.01464844,-0.01464844,-2.97546387,-0.18316781,-0.18348694,-0.04882812
2.51699591,1180,3.08465766,-2.77479441,-2.13210305,-0.03852844,-1.45882511,-2.70004272,3.02934455,3.50339469,-2.12764035,-0.01137139,-1.44204036,-2.03361511,3.04193305,2.99188088,-1.79602822,0.00801086,-1.44432926,-2.03399658,-0.01464844,0.66894531,-0.42480469,-0.05859375,0.02929688,0.00000000,-2.97584534,-0.18310014,-0.18348694,-0.02441406
2.53375602,1185,3.08465766,-2.75991709,-2.14202126,-0.04158020,-1.45882511,-2.70004272,3.02934455,3.51806184,-2.13711691,-0.01416404,-1.44204041,-2.03361511,3.04193305,3.00256204,-1.80327614,0.00762939,-1.44432926,-2.03399658,-0.01464844,0.68359375,-0.42480469,-0.04394531,0.01464844,-0.01464844,-2.97584534,-0.18309750,-0.18348694,-0.02441406
2.54707813,1190,3.08465766,-2.74694712,-2.14965065,-0.04310608,-1.45882511,-2.70004272,3.02934455,3.53256304,-2.14621340,-0.01651371,-1.44204043,-2.03361511,3.04155158,3.01057290,-1.80823525,0.00724792,-1.44432926,-2.03399658,-0.02929688,0.67382812,-0.43945312,-0.04394531,0.01464844,-0.01464844,-2.97584534,-0.18313960,-0.18348694,-0.02441406
2.56247640,1195,3.08465766,-2.73474009,-2.15651711,-0.04386902,-1.45882511,-2.70004272,3.02934455,3.54490757,-2.15336527,-0.01790792,-1.44204044,-2.03361511,3.04117011,3.02201699,-1.81548317,0.00610352,-1.44432926,-2.03399658,-0.02441406,0.70800781,-0.41992188,-0.11718750,0.02929688,0.00000000,-2.97546387,-0.18303596,-0.18348694,-0.02441406
2.58219433,1200,3.08465766,-2.72329600,-2.16223915,-0.04425049,-1.45882511,-2.70004272,3.02934455,3.55779515,-2.16031415,-0.01866030,-1.44204044,-2.03361511,3.04117011,3.03155374,-1.82196816,0.00419617,-1.44356632,-2.03399658,-0.01464844,0.70800781,-0.42968750,-0.13183594,0.05859375,-0.01464844,-2.97584534,-0.18326104,-0.18348694,-0.02441406
2.59493637,1205,3.08465766,-2.70384104,-2.17139443,-0.04425049,-1.45882511,-2.70004272,3.02934455,3.57412448,-2.16846030,-0.01893809,-1.44204044,-2.03361511,3.04078864,3.04452371,-1.83036049,0.00228882,-1.44280338,-2.03399658,-0.01953125,0.69335938,-0.42968750,-0.13183594,0.05859375,-0.01464844,-2.97546387,-0.18299763,-0.18348694,-0.04882812
2.60942960,1210,3.08465766,-2.69392283,-2.17635353,-0.04425049,-1.45882511,-2.70004272,3.02934455,3.58705462,-2.17480260,-0.01902912,-1.44204044,-2.03361511,3.04040717,3.05482339,-1.83493813,0.00000000,-1.44280338,-2.03399658,-0.02441406,0.70800781,-0.43945312,-0.17578125,0.02929688,-0.01464844,-2.97546387,-0.18305194,-0.18348694,-0.02441406
2.62194490,1215,3.08465766,-2.68438609,-2.18016823,-0.04425049,-1.45882511,-2.70004272,3.02934455,3.59822089,-2.17978148,-0.01905895,-1.44204044,-2.03361511,3.04040717,3.06245278,-1.84142311,-0.00190735,-1.44280338,-2.03399658,-0.01953125,0.70312500,-0.44921875,-0.17578125,0.01464844,-0.01464844,-2.97584534,-0.18334440,-0.18348694,-0.02441406
2.63771558,1220,3.08465766,-2.67065318,-2.18589028,-0.04425049,-1.45882511,-2.70004272,3.02934455,3.60946189,-2.18457348,-0.01906872,-1.44204044,-2.03361511,3.04002570,3.07389687,-1.84905251,-0.00343323,-1.44280338,-2.03399658,-0.01464844,0.69335938,-0.42968750,-0.08789062,0.02929688,-0.01464844,-2.97584534,-0.18325566,-0.18348694,0.00000000
2.65174389,1225,3.08465766,-2.66149790,-2.18970497,-0.04425049,-1.45882511,-2.70004272,3.02934455,3.61974836,-2.18886809,-0.01907193,-1.44204044,-2.03361511,3.04002570,3.08572244,-1.85630043,-0.00419617,-1.44280338,-2.03399658,-0.01953125,0.71777344,-0.42968750,-0.07324219,0.01464844,-0.01464844,-2.97546387,-0.18319607,-0.18348694,-0.02441406
2.66654277,1230,3.08465766,-2.64929087,-2.19428261,-0.04425049,-1.45882511,-2.70004272,3.02934455,3.63087294,-2.19339254,-0.01901194,-1.44204044,-2.03361511,3.04002570,3.09564065,-1.86278542,-0.00495911,-1.44280338,-2.03399658,-0.01464844,0.70312500,-0.43457031,-0.08789062,-0.00000000,-0.01464844,-2.97584534,-0.18319143,-0.18348694,-0.02441406
2.68202257,1235,3.08465766,-2.64051707,-2.19809731,-0.04386902,-1.45882511,-2.70004272,3.02934455,3.64141851,-2.19765465,-0.01879685,-1.44204044,-2.03361511,3.03964423,3.10670327,-1.86850746,-0.00648499,-1.44280338,-2.03399658,-0.02441406,0.70800781,-0.43945312,-0.13183594,0.01464844,-0.01464844,-2.97584534,-0.18309225,-0.18348694,0.00000000
2.69557214,1240,3.08465766,-2.63021739,-2.20229348,-0.04386902,-1.45882511,-2.70004272,3.02934455,3.65141400,-2.20164488,-0.01879668,-1.44204044,-2.03361511,3.03926276,3.11395120,-1.87422951,-0.00724792,-1.44242191,-2.03399658,-0.01953125,0.71289062,-0.43457031,-0.10253906,0.02929688,-0.02929688,-2.97546387,-0.18314252,-0.18348694,-0.04882812
2.71198273,1245,3.08465766,-2.61991770,-2.20687111,-0.04386902,-1.45882511,-2.70004272,3.02934455,3.66245141,-2.20640260,-0.01876538,-1.44204044,-2.03361511,3.03926276,3.12768411,-1.88147744,-0.00877380,-1.44242191,-2.03399658,-0.01464844,0.71289062,-0.41015625,-0.10253906,0.02929688,0.00000000,-2.97546387,-0.18314337,-0.18348694,-0.02441406
2.73027563,1250,3.08465766,-2.60771067,-2.21183022,-0.04425049,-1.45882511,-2.70004272,3.02934455,3.67353348,-2.21105499,-0.01879235,-1.44204044,-2.03361511,3.03888129,-3.14024241,-1.89139565,-0.01106262,-1.44204044,-2.03399658,-0.02929688,0.69824219,-0.44433594,-0.13183594,0.02929688,-0.02929688,-2.97546387,-0.18314364,-0.18348694,0.00000000
2.74635530,1255,3.08465766,-2.59588511,-2.21717079,-0.04386902,-1.45882511,-2.70004272,3.02934455,3.68452557,-2.21575600,-0.01872489,-1.44204044,-2.03361511,3.03849982,-3.13185008,-1.89635475,-0.01144409,-1.44165897,-2.03399658,-0.03417969,0.70312500,-0.42480469,-0.02929688,0.02929688,-0.02929688,-2.97584534,-0.18331195,-0.18348694,-0.04882812
2.75829697,1260,3.08465766,-2.58863719,-2.22098549,-0.04386902,-1.45882511,-2.70004272,3.02934455,3.69405849,-2.22026396,-0.01870279,-1.44204044,-2.03361511,3.03849982,-3.12155040,-1.90283974,-0.01182556,-1.44165897,-2.03399658,-0.01464844,0.69335938,-0.41992188,-0.04394531,0.01464844,-0.01464844,-2.97584534,-0.18325382,-0.18386841,-0.04882812
2.77286267,1265,3.08465766,-2.57795603,-2.22556313,-0.04425049,-1.45882511,-2.70004272,3.02934455,3.70319786,-2.22438175,-0.01883288,-1.44204044,-2.03361511,3.03811835,-3.11086924,-1.90932473,-0.01220703,-1.44165897,-2.03399658,-0.01464844,0.69335938,-0.41992188,-0.04394531,0.02929688,0.00000000,-2.97546387,-0.18299527,-0.18348694,-0.02441406
2.78754926,1270,3.08465766,-2.56841929,-2.23052224,-0.04386902,-1.45882511,-2.70004272,3.02934455,3.71301845,-2.22899730,-0.01873817,-1.44204044,-2.03361511,3.03811835,-3.10018809,-1.91390236,-0.01258850,-1.44165897,-2.03399658,-0.01464844,0.72265625,-0.39550781,-0.01464844,0.02929688,-0.01464844,-2.97546387,-0.18297304,-0.18348694,0.00000000
2.80476260,1275,3.08465766,-2.55773814,-2.23586281,-0.04386902,-1.45882511,-2.70004272,3.02934455,3.72321889,-2.23411544,-0.01870714,-1.44204044,-2.03361511,3.03773688,-3.08874400,-1.92191323,-0.01258850,-1.44127750,-2.03399658,-0.01953125,0.70312500,-0.40039062,-0.02929688,0.02929688,-0.02929688,-2.97584534,-0.18314276,-0.18348694,0.00000000
2.81864214,1280,3.08465766,-2.54858287,-2.24120339,-0.04386902,-1.45882511,-2.70004272,3.02934455,3.73332650,-2.23956282,-0.01869697,-1.44204044,-2.03361511,3.03773688,-3.07844432,-1.92763527,-0.01296997,-1.44127750,-2.03399658,-0.01464844,0.69824219,-0.39550781,-0.04394531,0.02929688,0.00000000,-2.97546387,-0.18312392,-0.18348694,-0.02441406
2.83425879,1285,3.08465766,-2.53828318,-2.24692543,-0.04386902,-1.45882511,-2.70004272,3.02934455,3.74342848,-2.24507865,-0.01869364,-1.44204044,-2.03361511,3.03735541,-3.06738169,-1.93297585,-0.01373291,-1.44089603,-2.03399658,-0.00976562,0.71289062,-0.39062500,-0.04394531,0.01464844,0.00000000,-2.97584534,-0.18327033,-0.18348694,-0.02441406
2.84993458,1290,3.08465766,-2.52760203,-2.25341042,-0.04386902,-1.45882511,-2.70004272,3.02934455,3.75344036,-2.25085934,-0.01869255,-1.44204044,-2.03361511,3.03735541,-3.05555613,-1.94136818,-0.01449585,-1.44089603,-2.03399658,-0.01464844,0.69824219,-0.41503906,-0.05859375,0.02929688,-0.01464844,-2.97584534,-0.18315326,-0.18348694,0.00000000
2.86282206,1295,3.08465766,-2.51920970,-2.25836953,-0.04386902,-1.45882511,-2.70004272,3.02934455,3.76276768,-2.25653102,-0.01869219,-1.44204044,-2.03361511,3.03735541,-3.04792674,-1.94594582,-0.01487732,-1.44089603,-2.03399658,-0.00976562,0.70312500,-0.39550781,-0.04394531,0.01464844,0.00000000,-2.97546387,-0.18322501,-0.18348694,0.02441406
2.87871647,1300,3.08465766,-2.51081736,-2.26409157,-0.04386902,-1.45882511,-2.70004272,3.02934455,3.77188729,-2.26222680,-0.01869207,-1.44204044,-2.03361511,3.03697394,-3.03800852,-1.95204933,-0.01525879,-1.44089603,-2.03399658,-0.01464844,0.70800781,-0.40527344,-0.04394531,-0.01464844,-0.01464844,-2.97584534,-0.18321654,-0.18348694,-0.04882812
2.89226961,1305,3.08465766,-2.50089915,-2.27095803,-0.04386902,-1.45882511,-2.70004272,3.02934455,3.78122497,-2.26846893,-0.01869204,-1.44204044,-2.03361511,3.03659247,-3.02770884,-1.95777138,-0.01564026,-1.44089603,-2.03399658,-0.03417969,0.68847656,-0.40039062,-0.02929688,0.02929688,-0.02929688,-2.97584534,-0.18313564,-0.18348694,-0.04882812
2.90647411,1310,3.08465766,-2.49059947,-2.27820595,-0.04386902,-1.45882511,-2.70004272,3.02934455,3.79060933,-2.27499713,-0.01869202,-1.44204044,-2.03361511,3.03659247,-3.01588328,-1.96463784,-0.01640320,-1.44051456,-2.03399658,-0.01464844,0.71777344,-0.41015625,-0.04394531,0.04394531,0.00000000,-2.97584534,-0.18308960,-0.18386841,-0.02441406
2.91936707,1315,3.08465766,-2.48297007,-2.28430947,-0.04386902,-1.45882511,-2.70004272,3.02934455,3.79959113,-2.28150788,-0.01869202,-1.44204044,-2.03361511,3.03621100,-3.00749095,-1.96959694,-0.01678467,-1.44051456,-2.03399658,-0.01464844,0.69335938,-0.42480469,-0.05859375,0.02929688,-0.01464844,-2.97584534,-0.18323467,-0.18348694,-0.04882812
2.93488264,1320,3.08465766,-2.47305186,-2.29270180,-0.04386902,-1.45882511,-2.70004272,3.02934455,3.80949449,-2.28943502,-0.01869202,-1.44204044,-2.03361511,3.03621100,-2.99642832,-1.97608193,-0.01754761,-1.44013309,-2.03399658,-0.00976562,0.69335938,-0.42968750,-0.05859375,0.02929688,-0.01464844,-2.97546387,-0.18298899,-0.18348694,-0.04882812
2.94932055,1325,3.08465766,-2.46389659,-2.30033120,-0.04386902,-1.45882511,-2.70004272,3.02934455,3.81900476,-2.29731091,-0.01869202,-1.44204044,-2.03361511,3.03621100,-2.98651011,-1.98218544,-0.01792908,-1.43975162,-2.03399658,-0.01464844,0.70312500,-0.43945312,-0.05859375,0.05859375,-0.01464844,-2.97584534,-0.18332377,-0.18348694,-0.02441406
2.96547461,1330,3.08465766,-2.45397837,-2.30834206,-0.04386902,-1.45882511,-2.70004272,3.02934455,3.82839721,-2.30515791,-0.01869202,-1.44204044,-2.03361511,3.03582953,-2.97468455,-1.98828896,-0.01831055,-1.43975162,-2.03399658,-0.02441406,0.69824219,-0.42480469,-0.01464844,0.02929688,-0.01464844,-2.97584534,-0.18343347,-0.18348694,-0.02441406
2.97986889,1335,3.08465766,-2.44406016,-2.31711586,-0.04386902,-1.45882511,-2.70004272,3.02934455,3.83798201,-2.31328672,-0.01869202,-1.44204044,-2.03361511,3.03582953,-2.96438487,-1.99515541,-0.01831055,-1.43975162,-2.03399658,-0.00976562,0.68847656,-0.42968750,-0.01464844,-0.00000000,-0.01464844,-2.97584534,-0.18323114,-0.18348694,-0.02441406
2.99400592,1340,3.08465766,-2.43528636,-2.32512673,-0.04386902,-1.45882511,-2.70004272,3.02934455,3.84690437,-2.32114873,-0.01869202,-1.44204044,-2.03361511,3.03582953,-2.95637400,-2.00011452,-0.01831055,-1.43975162,-2.03399658,-0.00488281,0.70312500,-0.41015625,-0.01464844,-0.00000000,-0.01464844,-2.97584534,-0.18324296,-0.18348694,-0.02441406
3.00809026,1345,3.08465766,-2.42536814,-2.33390053,-0.04386902,-1.45882511,-2.70004272,3.02934455,3.85643279,-2.32959153,-0.01869202,-1.44204044,-2.03361511,3.03582953,-2.94645579,-2.00621804,-0.01869202,-1.43975162,-2.03399658,-0.00488281,0.68359375,-0.39062500,-0.01464844,0.01464844,-0.01464844,-2.97584534,-0.18340699,-0.18348694,-0.02441406
3.02260470,1350,3.08465766,-2.41812022,-2.34076699,-0.04386902,-1.45882511,-2.70004272,3.02934455,3.86539527,-2.33776944,-0.01869202,-1.44204044,-2.03361511,3.03544806,-2.93615611,-2.01232155,-0.01831055,-1.43975162,-2.03399658,-0.00976562,0.71289062,-0.40527344,-0.01464844,-0.01464844,-0.01464844,-2.97546387,-0.18302593,-0.18348694,-0.02441406
3.03609872,1355,3.08465766,-2.40896495,-2.34915932,-0.04386902,-1.45882511,-2.70004272,3.02934455,3.87382624,-2.34551046,-0.01869202,-1.44204044,-2.03361511,3.03544806,-2.92585643,-2.01880654,-0.01831055,-1.43975162,-2.03399658,-0.00976562,0.68847656,-0.41503906,-0.02929688,0.01464844,-0.02929688,-2.97546387,-0.18290106,-0.18348694,-0.02441406
3.05130219,1360,3.08465766,-2.40057261,-2.35793312,-0.04386902,-1.45882511,-2.70004272,3.02934455,3.88238162,-2.35387553,-0.01869202,-1.44204044,-2.03361511,3.03544806,-2.91631968,-2.02491005,-0.01831055,-1.43975162,-2.03399658,-0.00976562,0.67871094,-0.41503906,0.00000000,0.02929688,-0.01464844,-2.97546387,-0.18314237,-0.18348694,-0.04882812
3.06604457,1365,3.08465766,-2.39103587,-2.36746987,-0.04386902,-1.45882511,-2.70004272,3.02934455,3.89183703,-2.36326857,-0.01869202,-1.44204044,-2.03361511,3.03544806,-2.90563853,-2.03177651,-0.01831055,-1.43975162,-2.03399658,-0.01464844,0.69335938,-0.41992188,-0.02929688,0.01464844,-0.01464844,-2.97584534,-0.18327637,-0.18348694,0.00000000
3.08027744,1370,3.08465766,-2.38302500,-2.37548073,-0.04386902,-1.45882511,-2.70004272,3.02934455,3.90039936,-2.37181975,-0.01869202,-1.44204044,-2.03361511,3.03544806,-2.89610179,-2.03788002,-0.01831055,-1.44013309,-2.03399658,-0.00976562,0.66894531,-0.42480469,-0.02929688,0.01464844,-0.01464844,-2.97584534,-0.18325778,-0.18348694,-0.02441406
3.09349418,1375,3.08465766,-2.37272532,-2.38501747,-0.04386902,-1.45882511,-2.70004272,3.02934455,3.90990758,-2.38090366,-0.01869202,-1.44204044,-2.03361511,3.03506659,-2.88618357,-2.04398354,-0.01831055,-1.44013309,-2.03399658,-0.02441406,0.68847656,-0.41992188,-0.01464844,-0.00000000,-0.02929688,-2.97584534,-0.18322728,-0.18348694,-0.02441406
3.10840845,1380,3.08465766,-2.36395152,-2.39340981,-0.04386902,-1.45882511,-2.70004272,3.02934455,3.91879167,-2.38949234,-0.01869202,-1.44204044,-2.03361511,3.03468512,-2.87626536,-2.05084999,-0.01869202,-1.44051456,-2.03399658,-0.01953125,0.67871094,-0.43457031,-0.01464844,-0.01464844,-0.01464844,-2.97546387,-0.18304907,-0.18348694,-0.02441406
3.12513328,1385,3.08465766,-2.35250743,-2.40447243,-0.04386902,-1.45882511,-2.70004272,3.02934455,3.92895012,-2.39920523,-0.01869202,-1.44204044,-2.03361511,3.03468512,-2.86558421,-2.05771645,-0.01869202,-1.44013309,-2.03399658,-0.00976562,0.68359375,-0.42968750,-0.02929688,0.02929688,-0.01464844,-2.97546387,-0.18319087,-0.18348694,-0.02441406
3.13965821,1390,3.08465766,-2.34297068,-2.41400917,-0.04386902,-1.45882511,-2.70004272,3.02934455,3.93865641,-2.40872646,-0.01869202,-1.44204044,-2.03361511,3.03468512,-2.85528453,-2.06458290,-0.01869202,-1.44051456,-2.03399658,-0.00976562,0.68847656,-0.44433594,-0.01464844,-0.00000000,-0.01464844,-2.97546387,-0.18297464,-0.18348694,0.00000000
3.15268946,1395,3.08465766,-2.33572276,-2.42125710,-0.04386902,-1.45882511,-2.70004272,3.02934455,3.94722356,-2.41723297,-0.01869202,-1.44204044,-2.03361511,3.03468512,-2.84574778,-2.07106789,-0.01869202,-1.44051456,-2.03399658,-0.01464844,0.68847656,-0.44433594,-0.02929688,0.01464844,-0.02929688,-2.97584534,-0.18315891,-0.18348694,-0.04882812
3.16631842,1400,3.08465766,-2.32694895,-2.43041237,-0.04386902,-1.45882511,-2.70004272,3.02934455,3.95539888,-2.42546472,-0.01869202,-1.44204044,-2.03361511,3.03430365,-2.83582957,-2.07755287,-0.01869202,-1.44013309,-2.03399658,-0.01464844,0.65917969,-0.43457031,-0.01464844,0.01464844,-0.02929688,-2.97584534,-0.18325738,-0.18348694,0.00000000
3.18124723,1405,3.08465766,-2.31741221,-2.43994912,-0.04386902,-1.45882511,-2.70004272,3.02934455,3.96407741,-2.43428087,-0.01869202,-1.44204044,-2.03361511,3.03430365,-2.82552989,-2.08441933,-0.01831055,-1.44051456,-2.03399658,-0.01464844,0.67871094,-0.44921875,0.00000000,-0.00000000,-0.01464844,-2.97584534,-0.18333359,-0.18348694,-0.02441406
3.19474149,1410,3.08465766,-2.30978282,-2.44719704,-0.04386902,-1.45882511,-2.70004272,3.02934455,3.97272343,-2.44280781,-0.01869202,-1.44204044,-2.03361511,3.03430365,-2.81599314,-2.09128579,-0.01869202,-1.44051456,-2.03399658,-0.01953125,0.66406250,-0.44921875,-0.02929688,0.01464844,-0.01464844,-2.97546387,-0.18304582,-0.18348694,0.00000000
3.21021533,1415,3.08465766,-2.30215342,-2.45444496,-0.04386902,-1.45882511,-2.70004272,3.02934455,3.98108293,-2.45097191,-0.01869202,-1.44204044,-2.03361511,3.03392218,-2.80645640,-2.09777077,-0.01869202,-1.44051456,-2.03399658,-0.01464844,0.68847656,-0.46386719,-0.01464844,-0.00000000,-0.01464844,-2.97584534,-0.18322032,-0.18348694,-0.02441406
3.22301269,1420,3.08465766,-2.29452403,-2.46092995,-0.04386902,-1.45882511,-2.70004272,3.02934455,3.98885196,-2.45810672,-0.01869202,-1.44204044,-2.03361511,3.03392218,-2.79806407,-2.10387429,-0.01869202,-1.44051456,-2.03399658,-0.00976562,0.66406250,-0.45898438,-0.01464844,0.01464844,-0.02929688,-2.97546387,-0.18316886,-0.18348694,-0.04882812
3.23995328,1425,3.08465766,-2.28765757,-2.46703347,-0.04386902,-1.45882511,-2.70004272,3.02934455,3.99618458,-2.46459944,-0.01869202,-1.44204044,-2.03361511,3.03392218,-2.78738291,-2.11112221,-0.01869202,-1.44089603,-2.03399658,-0.00488281,0.67871094,-0.46386719,-0.02929688,-0.01464844,-0.01464844,-2.97584534,-0.18316298,-0.18348694,-0.02441406
3.25492406,1430,3.08465766,-2.27926524,-2.47389992,-0.04386902,-1.45882511,-2.70004272,3.02934455,4.00411394,-2.47132927,-0.01869202,-1.44204044,-2.03361511,3.03392218,-2.77708323,-2.11837014,-0.01869202,-1.44089603,-2.03399658,-0.00488281,0.67382812,-0.45898438,-0.02929688,0.01464844,-0.01464844,-2.97584534,-0.18338079,-0.18348694,-0.02441406
3.27123356,1435,3.08465766,-2.27163584,-2.47962197,-0.04386902,-1.45882511,-2.70004272,3.02934455,4.01171223,-2.47740107,-0.01869202,-1.44204044,-2.03361511,3.03354071,-2.76563914,-2.12676247,-0.01869202,-1.44089603,-2.03399658,-0.00976562,0.64941406,-0.46875000,-0.01464844,0.01464844,0.00000000,-2.97584534,-0.18333008,-0.18348694,-0.02441406
3.28450871,1440,3.08465766,-2.26667674,-2.48343666,-0.04386902,-1.45882511,-2.70004272,3.02934455,4.01815773,-2.48238458,-0.01869202,-1.44204044,-2.03361511,3.03354071,-2.75648387,-2.13286599,-0.01869202,-1.44089603,-2.03399658,-0.00488281,0.65917969,-0.47363281,0.00000000,0.01464844,-0.04394531,-2.97584534,-0.18343554,-0.18348694,0.00000000
3.30094123,1445,3.08465766,-2.25942881,-2.48839577,-0.04386902,-1.45882511,-2.70004272,3.02934455,4.02482387,-2.48720325,-0.01869202,-1.44204044,-2.03361511,3.03354071,-2.74503977,-2.14125832,-0.01869202,-1.44089603,-2.03399658,-0.00976562,0.64453125,-0.46386719,0.00000000,0.01464844,-0.02929688,-2.97584534,-0.18339197,-0.18386841,-0.04882812
3.31591702,1450,3.08465766,-2.25332530,-2.49259194,-0.04386902,-1.45882511,-2.70004272,3.02934455,4.03097698,-2.49157849,-0.01869202,-1.44204044,-2.03361511,3.03354071,-2.73474009,-2.14850624,-0.01869202,-1.44089603,-2.03399658,-0.00976562,0.64453125,-0.45898438,-0.01464844,0.01464844,-0.01464844,-2.97546387,-0.18302101,-0.18386841,-0.02441406
3.33500743,1455,3.08465766,-2.24874766,-2.49564370,-0.04386902,-1.45882511,-2.70004272,3.02934455,4.03670026,-2.49550533,-0.01869202,-1.44204044,-2.03361511,3.03354071,-2.72253306,-2.15689858,-0.01869202,-1.44089603,-2.03399658,-0.00976562,0.65917969,-0.42968750,-0.01464844,0.02929688,-0.02929688,-2.97584534,-0.18309598,-0.18348694,-0.02441406
3.35267544,1460,3.08465766,-2.24302561,-2.49945839,-0.04386902,-1.45882511,-2.70004272,3.02934455,4.04245592,-2.49933676,-0.01869202,-1.44204044,-2.03361511,3.03354071,-2.71375926,-2.16300209,-0.01869202,-1.44089603,-2.03399658,-0.00976562,0.63964844,-0.43457031,-0.01464844,0.02929688,0.00000000,-2.97584534,-0.18329633,-0.18348694,-0.02441406
3.36517763,1465,3.08465766,-2.23806651,-2.50212868,-0.04386902,-1.45882511,-2.70004272,3.02934455,4.04725269,-2.50229720,-0.01869202,-1.44204044,-2.03361511,3.03354071,-2.70422251,-2.16948708,-0.01869202,-1.44089603,-2.03399658,-0.00976562,0.62988281,-0.43457031,-0.01464844,0.02929688,-0.02929688,-2.97584534,-0.18330241,-0.18348694,-0.04882812
3.37972665,1470,3.08465766,-2.23387034,-2.50441750,-0.04386902,-1.45882511,-2.70004272,3.02934455,4.05215837,-2.50511713,-0.01869202,-1.44204044,-2.03361511,3.03315924,-2.69468577,-2.17559059,-0.01869202,-1.44089603,-2.03399658,-0.01464844,0.62988281,-0.42480469,-0.01464844,0.02929688,-0.01464844,-2.97546387,-0.18319576,-0.18348694,-0.02441406
3.39416361,1475,3.08465766,-2.22967417,-2.50632485,-0.04386902,-1.45882511,-2.70004272,3.02934455,4.05646788,-2.50723562,-0.01869202,-1.44204044,-2.03361511,3.03315924,-2.68667491,-2.18245705,-0.01869202,-1.44127750,-2.03399658,-0.01953125,0.60546875,-0.42480469,0.00000000,0.01464844,-0.02929688,-2.97546387,-0.18295671,-0.18348694,-0.04882812
3.40806651,1480,3.08465766,-2.22662242,-2.50785073,-0.04386902,-1.45882511,-2.70004272,3.02934455,4.06002358,-2.50899475,-0.01869202,-1.44204044,-2.03361511,3.03315924,-2.67751963,-2.18894204,-0.01869202,-1.44089603,-2.03399658,-0.01464844,0.61035156,-0.41503906,-0.01464844,0.01464844,-0.02929688,-2.97584534,-0.18331319,-0.18348694,-0.02441406
3.42320037,1485,3.08465766,-2.22280772,-2.50937661,-0.04386902,-1.45882511,-2.70004272,3.02934455,4.06381981,-2.51064589,-0.01869202,-1.44204044,-2.03361511,3.03277777,-2.66798289,-2.19542702,-0.01869202,-1.44127750,-2.03399658,-0.00976562,0.59570312,-0.41992188,-0.01464844,-0.00000000,-0.01464844,-2.97546387,-0.18317976,-0.18386841,0.00000000
3.43802166,1490,3.08465766,-2.21937449,-2.51090248,-0.04386902,-1.45882511,-2.70004272,3.02934455,4.06726213,-2.51224406,-0.01869202,-1.44204044,-2.03361511,3.03277777,-2.65920909,-2.20153054,-0.01869202,-1.44127750,-2.03399658,-0.00976562,0.60546875,-0.40527344,0.00000000,0.02929688,-0.02929688,-2.97546387,-0.18293584,-0.18348694,-0.04882812
3.45272636,1495,3.08465766,-2.21632273,-2.51242836,-0.04386902,-1.45920658,-2.70004272,3.02934455,4.07062204,-2.51380144,-0.01869202,-1.44226566,-2.03361511,3.03277777,-2.65081675,-2.20763405,-0.01869202,-1.44127750,-2.03399658,-0.00976562,0.59082031,-0.39062500,-0.01464844,-0.00000000,0.00000000,-2.97584534,-0.18316573,-0.18348694,-0.02441406
3.46951628,1500,3.08465766,-2.21288951,-2.51395424,-0.04386902,-1.45920658,-2.70004272,3.02934455,4.07407079,-2.51540845,-0.01869202,-1.44230040,-2.03361511,3.03277777,-2.64204295,-2.21411904,-0.01869202,-1.44127750,-2.03399658,-0.00488281,0.61035156,-0.39062500,-0.02929688,0.01464844,-0.04394531,-2.97584534,-0.18338169,-0.18348694,-0.04882812
3.48242950,1505,3.08465766,-2.20945628,-2.51586159,-0.04386902,-1.45920658,-2.70004272,3.02934455,4.07718245,-2.51702744,-0.01869202,-1.44238209,-2.03361511,3.03239630,-2.63250621,-2.21984108,-0.01869202,-1.44127750,-2.03399658,-0.00976562,0.58105469,-0.38574219,-0.01464844,0.02929688,0.00000000,-2.97584534,-0.18345245,-0.18348694,-0.02441406
3.49947095,1510,3.08465766,-2.20526011,-2.51776894,-0.04386902,-1.45920658,-2.70004272,3.02934455,4.08102080,-2.51892037,-0.01869202,-1.44236980,-2.03361511,3.03239630,-2.62296946,-2.22670754,-0.01869202,-1.44127750,-2.03399658,-0.00976562,0.57617188,-0.38085938,-0.01464844,-0.00000000,-0.01464844,-2.97584534,-0.18347564,-0.18348694,0.00000000
3.51715231,1515,3.08465766,-2.20182688,-2.52005776,-0.04386902,-1.45920658,-2.70004272,3.02934455,4.08487487,-2.52099939,-0.01869202,-1.44240483,-2.03361511,3.03239630,-2.61495860,-2.23319252,-0.01869202,-1.44127750,-2.03399658,-0.00976562,0.56152344,-0.37597656,-0.01464844,-0.00000000,0.00000000,-2.97584534,-0.18348324,-0.18348694,-0.02441406
3.53270650,1520,3.08465766,-2.19877513,-2.52158364,-0.04386902,-1.45920658,-2.70004272,3.02934455,4.08848103,-2.52293553,-0.01869202,-1.44241631,-2.03361511,3.03239630,-2.60580332,-2.23853310,-0.01869202,-1.44127750,-2.03399658,-0.00976562,0.55664062,-0.39550781,-0.01464844,0.01464844,-0.01464844,-2.97546387,-0.18305091,-0.18386841,-0.02441406
3.54610300,1525,3.08465766,-2.19572337,-2.52387245,-0.04386902,-1.45920658,-2.70004272,3.02934455,4.09163584,-2.52495985,-0.01869202,-1.44242007,-2.03361511,3.03201483,-2.59702952,-2.24463662,-0.01869202,-1.44127750,-2.03399658,-0.01953125,0.55175781,-0.40527344,0.00000000,0.01464844,-0.02929688,-2.97546387,-0.18309382,-0.18386841,-0.04882812
3.55996776,1530,3.08465766,-2.19267161,-2.52577980,-0.04386902,-1.45920658,-2.70004272,3.02934455,4.09454900,-2.52687428,-0.01869202,-1.44242131,-2.03361511,3.03201483,-2.58901866,-2.25035866,-0.01869202,-1.44127750,-2.03399658,-0.01464844,0.53222656,-0.40039062,-0.02929688,-0.00000000,-0.02929688,-2.97546387,-0.18320553,-0.18348694,-0.02441406
3.57557940,1535,3.08465766,-2.19076426,-2.52730568,-0.04386902,-1.45920658,-2.70004272,3.02934455,4.09715605,-2.52878773,-0.01869202,-1.44242171,-2.03361511,3.03201483,-2.58062632,-2.25569924,-0.01869202,-1.44127750,-2.03399658,-0.00488281,0.53710938,-0.36621094,-0.01464844,0.01464844,-0.01464844,-2.97584534,-0.18331660,-0.18348694,-0.02441406
3.58952713,1540,3.08465766,-2.18809397,-2.52959450,-0.04386902,-1.45920658,-2.70004272,3.02934455,4.09974459,-2.53090472,-0.01869202,-1.44242184,-2.03361511,3.03201483,-2.57375987,-2.26027687,-0.01869202,-1.44127750,-2.03399658,-0.00976562,0.52246094,-0.34667969,-0.02929688,0.02929688,-0.01464844,-2.97584534,-0.18329050,-0.18348694,-0.02441406
3.60577726,1545,3.08465766,-2.18504222,-2.53188332,-0.04386902,-1.45920658,-2.70004272,3.02934455,4.10247658,-2.53296927,-0.01869202,-1.44242189,-2.03361511,3.03163337,-2.56498606,-2.26638039,-0.01869202,-1.44127750,-2.03399658,-0.00976562,0.53222656,-0.34179688,-0.01464844,0.01464844,0.00000000,-2.97584534,-0.18322237,-0.18348694,-0.07324219
3.62118840,1550,3.08465766,-2.18313487,-2.53340920,-0.04386902,-1.45920658,-2.70004272,3.02934455,4.10480455,-2.53483963,-0.01869202,-1.44247073,-2.03361511,3.03163337,-2.55659373,-2.27210244,-0.01869202,-1.44127750,-2.03399658,-0.00488281,0.51269531,-0.34667969,-0.01464844,0.01464844,-0.01464844,-2.97584534,-0.18330259,-0.18348694,0.00000000
3.63566661,1555,3.08465766,-2.18122752,-2.53493508,-0.04386902,-1.45920658,-2.70004272,3.02934455,4.10689855,-2.53647839,-0.01869202,-1.44243791,-2.03361511,3.03163337,-2.54858287,-2.27820595,-0.01869202,-1.44127750,-2.03399658,-0.00488281,0.50781250,-0.36132812,-0.02929688,0.01464844,0.00000000,-2.97584534,-0.18334841,-0.18348694,-0.02441406
3.64989042,1560,3.08465766,-2.17932017,-2.53607949,-0.04386902,-1.45920658,-2.70004272,3.02934455,4.10886706,-2.53779406,-0.01869202,-1.44242715,-2.03361511,3.03163337,-2.54209788,-2.28240212,-0.01869202,-1.44089603,-2.03399658,-0.00976562,0.49804688,-0.36132812,-0.01464844,-0.00000000,-0.01464844,-2.97546387,-0.18321083,-0.18386841,-0.02441406
3.66334724,1565,3.08465766,-2.17817576,-2.53684243,-0.04386902,-1.45958805,-2.70004272,3.02934455,4.11041286,-2.53879915,-0.01869202,-1.44260978,-2.03361511,3.03163337,-2.53637583,-2.28621682,-0.01869202,-1.44089603,-2.03399658,-0.00488281,0.48339844,-0.31250000,-0.01464844,0.01464844,-0.01464844,-2.97584534,-0.18322068,-0.18348694,-0.02441406
3.68022919,1570,3.08465766,-2.17626841,-2.53722390,-0.04386902,-1.45958805,-2.70004272,3.02934455,4.11199031,-2.53950411,-0.01869202,-1.44269111,-2.03361511,3.03163337,-2.52683909,-2.29232033,-0.01869202,-1.44127750,-2.03399658,-0.00488281,0.48828125,-0.31250000,-0.02929688,0.01464844,-0.01464844,-2.97584534,-0.18339969,-0.18348694,0.00000000
3.69507861,1575,3.08465766,-2.17474253,-2.53722390,-0.04386902,-1.45958805,-2.70004272,3.02934455,4.11368348,-2.53976637,-0.01869202,-1.44276659,-2.03361511,3.03163337,-2.52073558,-2.29727944,-0.01869202,-1.44127750,-2.03399658,-0.00488281,0.46386719,-0.32714844,-0.01464844,-0.00000000,0.00000000,-2.97546387,-0.18322764,-0.18348694,-0.02441406
3.70885181,1580,3.08465766,-2.17474253,-2.53722390,-0.04386902,-1.45958805,-2.70004272,3.02934455,4.11452003,-2.53985230,-0.01869202,-1.44279132,-2.03361511,3.03163337,-2.51348765,-2.30147560,-0.01869202,-1.44127750,-2.03399658,-0.00488281,0.47363281,-0.32226562,-0.01464844,-0.00000000,-0.01464844,-2.97546387,-0.18324938,-0.18348694,-0.02441406
3.72322702,1585,3.08465766,-2.17436106,-2.53722390,-0.04386902,-1.45958805,-2.70004272,3.02934455,4.11501937,-2.53988046,-0.01869202,-1.44279943,-2.03361511,3.03163337,-2.50738414,-2.30567177,-0.01869202,-1.44127750,-2.03399658,-0.00488281,0.45898438,-0.29785156,-0.01464844,0.02929688,-0.02929688,-2.97584534,-0.18333097,-0.18386841,-0.02441406
3.73929429,1590,3.08465766,-2.17359812,-2.53722390,-0.04386902,-1.45958805,-2.70004272,3.02934455,4.11551576,-2.53988969,-0.01869202,-1.44280208,-2.03361511,3.03163337,-2.49899180,-2.31177529,-0.01869202,-1.44127750,-2.03399658,-0.00976562,0.44921875,-0.28320312,-0.02929688,0.01464844,-0.01464844,-2.97584534,-0.18331376,-0.18348694,-0.02441406
3.75498676,1595,3.08465766,-2.17321665,-2.53684243,-0.04386902,-1.45958805,-2.70004272,3.02934455,4.11602717,-2.53963624,-0.01869202,-1.44280295,-2.03361511,3.03125190,-2.49212535,-2.31635292,-0.01869202,-1.44127750,-2.03399658,-0.00976562,0.44921875,-0.31738281,-0.01464844,0.02929688,-0.02929688,-2.97546387,-0.18317995,-0.18348694,-0.04882812
3.76887321,1600,3.08465766,-2.17283519,-2.53684243,-0.04386902,-1.45958805,-2.70004272,3.02934455,4.11653911,-2.53955319,-0.01869202,-1.44280324,-2.03361511,3.03125190,-2.48640330,-2.32054909,-0.01869202,-1.44127750,-2.03399658,-0.01953125,0.43945312,-0.29785156,-0.01464844,0.01464844,-0.01464844,-2.97546387,-0.18323376,-0.18348694,-0.04882812
3.78556633,1605,3.08465766,-2.17283519,-2.53684243,-0.04386902,-1.45958805,-2.70004272,3.02934455,4.11673812,-2.53952598,-0.01869202,-1.44280333,-2.03361511,3.03125190,-2.47839244,-2.32588967,-0.01869202,-1.44127750,-2.03399658,-0.00488281,0.43945312,-0.27832031,-0.01464844,0.01464844,-0.01464844,-2.97584534,-0.18324382,-0.18386841,-0.04882812
3.80347323,1610,3.08465766,-2.17169078,-2.53684243,-0.04386902,-1.45958805,-2.70004272,3.02934455,4.11732225,-2.53951706,-0.01869202,-1.44280336,-2.03361511,3.03125190,-2.47190745,-2.33046730,-0.01907349,-1.44127750,-2.03399658,-0.00488281,0.41015625,-0.26855469,-0.01464844,0.02929688,-0.01464844,-2.97546387,-0.18307890,-0.18348694,-0.04882812
3.81938386,1615,3.08465766,-2.17016490,-2.53684243,-0.04386902,-1.45958805,-2.70004272,3.02934455,4.11845945,-2.53951414,-0.01869202,-1.44280337,-2.03361511,3.03125190,-2.46465953,-2.33504494,-0.01907349,-1.44089603,-2.03399658,-0.00976562,0.40039062,-0.27832031,-0.02929688,0.02929688,-0.01464844,-2.97584534,-0.18335323,-0.18386841,-0.04882812
3.83389616,1620,3.08465766,-2.16978343,-2.53684243,-0.04386902,-1.45958805,-2.70004272,3.02934455,4.11934882,-2.53951318,-0.01869202,-1.44280338,-2.03361511,3.03125190,-2.46008189,-2.33809670,-0.01907349,-1.44089603,-2.03399658,-0.00976562,0.40039062,-0.25390625,-0.02929688,-0.00000000,-0.01464844,-2.97584534,-0.18324293,-0.18348694,-0.04882812
3.84914780,1625,3.08465766,-2.16940196,-2.53684243,-0.04386902,-1.45958805,-2.70004272,3.02934455,4.11993578,-2.53951287,-0.01869202,-1.44280338,-2.03361511,3.03125190,-2.45397837,-2.34305580,-0.01907349,-1.44127750,-2.03399658,-0.00488281,0.39550781,-0.26855469,-0.01464844,0.01464844,-0.02929688,-2.97546387,-0.18317627,-0.18348694,-0.04882812
3.86344981,1630,3.08465766,-2.16940196,-2.53684243,-0.04386902,-1.45958805,-2.70004272,3.02934455,4.12015936,-2.53951276,-0.01869202,-1.44280338,-2.03361511,3.03125190,-2.44749339,-2.34725197,-0.01907349,-1.44127750,-2.03399658,-0.00488281,0.39550781,-0.27343750,-0.02929688,0.01464844,-0.01464844,-2.97584534,-0.18338514,-0.18348694,-0.02441406
3.87777638,1635,3.08465766,-2.16940196,-2.53684243,-0.04386902,-1.45958805,-2.70004272,3.02934455,4.12023263,-2.53951273,-0.01869202,-1.44280338,-2.03361511,3.03087043,-2.44215281,-2.35068520,-0.01869202,-1.44127750,-2.03399658,-0.00976562,0.38574219,-0.23925781,-0.01464844,0.02929688,-0.02929688,-2.97584534,-0.18345358,-0.18386841,-0.04882812
3.89108872,1640,3.08465766,-2.16940196,-2.53684243,-0.04386902,-1.45958805,-2.70004272,3.02934455,4.12025663,-2.53951272,-0.01869202,-1.44280338,-2.03361511,3.03087043,-2.43757518,-2.35373696,-0.01907349,-1.44127750,-2.03399658,-0.00488281,0.35644531,-0.25390625,-0.01464844,0.01464844,-0.01464844,-2.97584534,-0.18339788,-0.18348694,0.00000000
3.90473318,1645,3.08465766,-2.16940196,-2.53684243,-0.04386902,-1.45958805,-2.70004272,3.02934455,4.12026450,-2.53951272,-0.01869202,-1.44280338,-2.03361511,3.03087043,-2.43261607,-2.35678871,-0.01907349,-1.44127750,-2.03399658,-0.00488281,0.37109375,-0.22949219,-0.01464844,0.02929688,-0.01464844,-2.97584534,-0.18345776,-0.18348694,-0.02441406
3.91973209,1650,3.08465766,-2.16940196,-2.53684243,-0.04386902,-1.45996952,-2.70004272,3.02934455,4.12026708,-2.53951271,-0.01869202,-1.44287967,-2.03361511,3.03087043,-2.42651255,-2.36060341,-0.01907349,-1.44127750,-2.03399658,-0.00488281,0.36132812,-0.23925781,-0.01464844,-0.00000000,-0.01464844,-2.97584534,-0.18337972,-0.18348694,-0.02441406
3.93427038,1655,3.08465766,-2.16940196,-2.53684243,-0.04386902,-1.45996952,-2.70004272,3.02934455,4.12026792,-2.53951271,-0.01869202,-1.44308485,-2.03361511,3.03087043,-2.42155345,-2.36441811,-0.01907349,-1.44127750,-2.03399658,-0.00976562,0.35156250,-0.21972656,-0.02929688,0.01464844,-0.02929688,-2.97584534,-0.18345181,-0.18348694,-0.02441406
3.94765615,1660,3.08465766,-2.16940196,-2.53684243,-0.04386902,-1.45996952,-2.70004272,3.02934455,4.12026820,-2.53951271,-0.01869202,-1.44315208,-2.03361511,3.03087043,-2.41697581,-2.36708840,-0.01869202,-1.44127750,-2.03399658,-0.00488281,0.34667969,-0.23925781,0.00000000,0.01464844,-0.01464844,-2.97546387,-0.18324471,-0.18386841,-0.02441406
3.96374607,1665,3.08465766,-2.16940196,-2.53684243,-0.04386902,-1.46073245,-2.70004272,3.02934455,4.12026829,-2.53951271,-0.01869202,-1.44350687,-2.03361511,3.03087043,-2.41125376,-2.37128456,-0.01907349,-1.44127750,-2.03399658,-0.00488281,0.33691406,-0.22460938,-0.01464844,-0.00000000,0.00000000,-2.97584534,-0.18326694,-0.18348694,0.02441406
3.97952843,1670,3.08465766,-2.16940196,-2.53684243,-0.04386902,-1.46111392,-2.70004272,3.02934455,4.12026832,-2.53951271,-0.01869202,-1.44394064,-2.03361511,3.03087043,-2.40629466,-2.37471779,-0.01907349,-1.44127750,-2.03399658,-0.00488281,0.32714844,-0.22949219,-0.01464844,0.02929688,-0.01464844,-2.97584534,-0.18319512,-0.18386841,-0.02441406
3.99322033,1675,3.08465766,-2.16940196,-2.53684243,-0.04386902,-1.46187686,-2.70004272,3.02934455,4.12026833,-2.53951271,-0.01869202,-1.44453468,-2.03361511,3.03087043,-2.40171702,-2.37700661,-0.01907349,-1.44127750,-2.03399658,-0.00488281,0.33203125,-0.19531250,-0.01464844,0.01464844,-0.02929688,-2.97584534,-0.18317159,-0.18386841,-0.02441406
4.00685668,1680,3.08465766,-2.16940196,-2.53684243,-0.04386902,-1.46225833,-2.70004272,3.02934455,4.12026833,-2.53951271,-0.01869202,-1.44513473,-2.03361511,3.03087043,-2.39675791,-2.38082131,-0.01907349,-1.44127750,-2.03399658,-0.00488281,0.33203125,-0.20996094,-0.01464844,-0.00000000,-0.01464844,-2.97584534,-0.18338361,-0.18386841,-0.02441406
4.02002406,1685,3.08465766,-2.16940196,-2.53684243,-0.04386902,-1.46225833,-2.70004272,3.02934455,4.12026833,-2.53951271,-0.01869202,-1.44536260,-2.03361511,3.03087043,-2.39294322,-2.38349160,-0.01907349,-1.44127750,-2.03399658,-0.00976562,0.30761719,-0.19531250,-0.01464844,0.02929688,-0.02929688,-2.97584534,-0.18337495,-0.18386841,-0.02441406
4.03625154,1690,3.08465766,-2.16940196,-2.53684243,-0.04386902,-1.46225833,-2.70004272,3.02934455,4.12026833,-2.53951271,-0.01869202,-1.44543727,-2.03361511,3.03087043,-2.38760264,-2.38692482,-0.01907349,-1.44127750,-2.03399658,-0.00488281,0.30273438,-0.20019531,-0.01464844,-0.00000000,0.00000000,-2.97584534,-0.18337212,-0.18386841,-0.02441406
4.05018401,1695,3.08465766,-2.16940196,-2.53684243,-0.04386902,-1.46225833,-2.70004272,3.02934455,4.12026833,-2.53951271,-0.01869202,-1.44546174,-2.03361511,3.03087043,-2.38378794,-2.38959511,-0.01907349,-1.44127750,-2.03399658,-0.00488281,0.30761719,-0.20019531,0.00000000,0.02929688,-0.02929688,-2.97546387,-0.18329673,-0.18348694,0.00000000
4.06310391,1700,3.08465766,-2.16940196,-2.53684243,-0.04386902,-1.46225833,-2.70004272,3.02934455,4.12026833,-2.53951271,-0.01869202,-1.44546976,-2.03361511,3.03048896,-2.37959178,-2.39226540,-0.01907349,-1.44165897,-2.03399658,-0.00976562,0.27343750,-0.19531250,0.00000000,-0.01464844,-0.02929688,-2.97546387,-0.18305230,-0.18348694,-0.02441406
4.07604361,1705,3.08465766,-2.16902049,-2.53684243,-0.04386902,-1.46225833,-2.70004272,3.02934455,4.12045449,-2.53951271,-0.01869202,-1.44547239,-2.03361511,3.03048896,-2.37539561,-2.39493569,-0.01907349,-1.44204044,-2.03399658,-0.00976562,0.29296875,-0.20507812,-0.01464844,-0.00000000,-0.01464844,-2.97584534,-0.18324686,-0.18348694,0.00000000
4.09049129,1710,3.08465766,-2.16902049,-2.53684243,-0.04386902,-1.46225833,-2.70004272,3.02934455,4.12058580,-2.53951271,-0.01869202,-1.44547325,-2.03361511,3.03048896,-2.37196238,-2.39760598,-0.01907349,-1.44204044,-2.03399658,-0.01464844,0.27832031,-0.18554688,-0.01464844,-0.01464844,-0.01464844,-2.97584534,-0.18333014,-0.18348694,0.00000000
4.10444903,1715,3.08465766,-2.16902049,-2.53684243,-0.04386902,-1.46225833,-2.70004272,3.02934455,4.12062883,-2.53951271,-0.01869202,-1.44547353,-2.03361511,3.03048896,-2.36776622,-2.40027626,-0.01907349,-1.44242191,-2.03399658,-0.01464844,0.27832031,-0.19531250,-0.01464844,-0.00000000,-0.02929688,-2.97584534,-0.18331349,-0.18386841,-0.04882812
4.12030721,1720,3.08465766,-2.16863902,-2.53684243,-0.04386902,-1.46225833,-2.70004272,3.02934455,4.12086815,-2.53951271,-0.01869202,-1.44547362,-2.03361511,3.03010749,-2.36357005,-2.40294655,-0.01907349,-1.44280338,-2.03399658,-0.02441406,0.27832031,-0.16113281,0.00000000,-0.00000000,-0.02929688,-2.97584534,-0.18321038,-0.18386841,-0.02441406
4.13537097,1725,3.08465766,-2.16863902,-2.53684243,-0.04386902,-1.46263980,-2.70004272,3.02934455,4.12097782,-2.53951271,-0.01869202,-1.44565004,-2.03361511,3.03010749,-2.35899241,-2.40637978,-0.01907349,-1.44280338,-2.03399658,-0.00976562,0.24902344,-0.17578125,0.00000000,0.01464844,-0.01464844,-2.97546387,-0.18324373,-0.18386841,-0.04882812
4.15044522,1730,3.08465766,-2.16863902,-2.53684243,-0.04386902,-1.46263980,-2.70004272,3.02934455,4.12101376,-2.53951271,-0.01869202,-1.44578793,-2.03361511,3.03010749,-2.35555918,-2.40828713,-0.01907349,-1.44280338,-2.03399658,-0.00488281,0.25878906,-0.17578125,-0.02929688,0.01464844,0.00000000,-2.97546387,-0.18303493,-0.18386841,0.00000000
4.16526842,1735,3.08465766,-2.16863902,-2.53684243,-0.04386902,-1.46263980,-2.70004272,3.02934455,4.12102554,-2.53951271,-0.01869202,-1.44583311,-2.03361511,3.03010749,-2.35136302,-2.41095742,-0.01907349,-1.44318485,-2.03399658,0.00000000,0.26367188,-0.17578125,0.00000000,0.01464844,-0.01464844,-2.97546387,-0.18282588,-0.18386841,0.00000000
4.17798305,1740,3.08465766,-2.16863902,-2.53684243,-0.04386902,-1.46263980,-2.70004272,3.02934455,4.12102939,-2.53951271,-0.01869202,-1.44581667,-2.03361511,3.03010749,-2.34831126,-2.41362770,-0.01907349,-1.44280338,-2.03399658,-0.00488281,0.24902344,-0.18066406,-0.01464844,0.02929688,0.00000000,-2.97584534,-0.18309454,-0.18386841,-0.04882812
4.18981719,1745,3.08465766,-2.16863902,-2.53684243,-0.04386902,-1.46263980,-2.70004272,3.02934455,4.12103066,-2.53951271,-0.01869202,-1.44584253,-2.03361511,3.03010749,-2.34487803,-2.41591652,-0.01907349,-1.44318485,-2.03399658,-0.00976562,0.24902344,-0.16113281,-0.01464844,-0.01464844,0.00000000,-2.97546387,-0.18308370,-0.18348694,-0.04882812
4.20416331,1750,3.08465766,-2.16863902,-2.53684243,-0.04386902,-1.46263980,-2.70004272,3.02934455,4.12103107,-2.53951271,-0.01869202,-1.44585101,-2.03361511,3.03010749,-2.34182627,-2.41782387,-0.01907349,-1.44318485,-2.03399658,-0.00488281,0.24902344,-0.16601562,-0.02929688,-0.00000000,-0.04394531,-2.97584534,-0.18317024,-0.18348694,-0.02441406
4.21701193,1755,3.08465766,-2.16863902,-2.53684243,-0.04386902,-1.46263980,-2.70004272,3.02934455,4.12103121,-2.53951271,-0.01869202,-1.44585378,-2.03361511,3.03010749,-2.33877452,-2.41973122,-0.01907349,-1.44318485,-2.03399658,-0.00488281,0.23437500,-0.15136719,-0.01464844,0.01464844,-0.01464844,-2.97546387,-0.18323057,-0.18348694,-0.02441406
4.23273230,1760,3.08465766,-2.16863902,-2.53684243,-0.04386902,-1.46263980,-2.70004272,3.02934455,4.12103125,-2.53951271,-0.01869202,-1.44585469,-2.03361511,3.03010749,-2.33495982,-2.42240151,-0.01907349,-1.44318485,-2.03399658,-0.00488281,0.22949219,-0.14160156,-0.01464844,0.01464844,-0.01464844,-2.97546387,-0.18315269,-0.18348694,-0.02441406
