MingxuanLei/DMarm_date_collection/data/episode_00/trajectory/teach_record_20260627_221402.csv
time_s,loop_count,master_q1,master_q2,master_q3,master_q4,master_q5,master_q6,slave_target_q1,slave_target_q2,slave_target_q3,slave_target_q4,slave_target_q5,slave_target_q6,slave_actual_q1,slave_actual_q2,slave_actual_q3,slave_actual_q4,slave_actual_q5,slave_actual_q6,slave_actual_v1,slave_actual_v2,slave_actual_v3,slave_actual_v4,slave_actual_v5,slave_actual_v6,master_tool,slave_tool_target,slave_tool_actual,slave_tool_actual_vel
0.02201104,5,3.13539313,2.73171853,-1.59346779,-0.02059937,-1.58966922,-2.70004272,3.08809088,2.73532852,-1.59374367,0.00305176,-1.57625308,-2.03361511,3.08809088,2.72904824,-1.59079750,0.00305176,-1.58356571,-2.03361511,-0.00488281,-0.00488281,0.00488281,-0.01464844,0.01464844,-0.01464844,-2.97546387,-0.18497900,-0.18577576,-0.04882812
0.03498435,10,3.13539313,2.73171853,-1.59346779,-0.02059937,-1.58966922,-2.70004272,3.08809088,2.73726144,-1.59458407,0.00300293,-1.57373188,-2.03361511,3.08809088,2.72904824,-1.59079750,0.00305176,-1.58356571,-2.03399658,-0.00488281,-0.00488281,0.00488281,-0.01464844,0.01464844,-0.01464844,-2.97584534,-0.18507364,-0.18577576,0.00000000
0.04928017,15,3.13539313,2.73171853,-1.59346779,-0.02098083,-1.58966922,-2.70004272,3.08809088,2.73789481,-1.59485945,0.00295946,-1.57290574,-2.03361511,3.08809088,2.72904824,-1.59079750,0.00305176,-1.58356571,-2.03361511,-0.00488281,-0.00488281,-0.00000000,-0.01464844,0.01464844,-0.01464844,-2.97546387,-0.18501456,-0.18577576,-0.02441406
0.06251669,20,3.13539313,2.73171853,-1.59346779,-0.02098083,-1.58966922,-2.70004272,3.08809088,2.73810236,-1.59494969,0.00294522,-1.57263503,-2.03361511,3.08809088,2.72942971,-1.59079750,0.00305176,-1.58356571,-2.03361511,0.00000000,0.00000000,0.00488281,-0.02929688,0.01464844,0.00000000,-2.97584534,-0.18512923,-0.18577576,0.00000000
0.07505369,25,3.13539313,2.73171853,-1.59346779,-0.02059937,-1.58966922,-2.70004272,3.08809088,2.73817037,-1.59497926,0.00301685,-1.57254632,-2.03361511,3.08809088,2.72942971,-1.59079750,0.00305176,-1.58356571,-2.03361511,-0.00488281,0.00488281,0.00488281,-0.02929688,0.04394531,-0.01464844,-2.97584534,-0.18530743,-0.18577576,-0.02441406
0.09142256,30,3.13539313,2.73171853,-1.59346779,-0.02059937,-1.58966922,-2.70004272,3.08809088,2.73819265,-1.59498895,0.00300907,-1.57251725,-2.03361511,3.08809088,2.72942971,-1.59079750,0.00305176,-1.58318424,-2.03361511,-0.00488281,0.00000000,0.00488281,-0.01464844,0.01464844,-0.02929688,-2.97546387,-0.18505308,-0.18577576,-0.02441406
0.10526013,35,3.13539313,2.73171853,-1.59346779,-0.02059937,-1.59005069,-2.70004272,3.08809088,2.73819996,-1.59499212,0.00303777,-1.57258402,-2.03361511,3.08809088,2.72942971,-1.59079750,0.00305176,-1.58318424,-2.03361511,-0.00488281,0.00488281,0.00488281,-0.02929688,0.02929688,-0.01464844,-2.97546387,-0.18512989,-0.18539429,0.00000000
0.11876869,40,3.13539313,2.73171853,-1.59346779,-0.02059937,-1.59005069,-2.70004272,3.08809088,2.73820235,-1.59499316,0.00304717,-1.57260590,-2.03361511,3.08809088,2.72942971,-1.59079750,0.00305176,-1.58318424,-2.03361511,-0.00488281,0.00000000,-0.00000000,0.00000000,0.01464844,0.00000000,-2.97546387,-0.18497049,-0.18577576,-0.02441406
0.13177276,45,3.13539313,2.73171853,-1.59346779,-0.02059937,-1.59005069,-2.70004272,3.08809088,2.73820313,-1.59499350,0.00305026,-1.57272293,-2.03361511,3.08809088,2.72942971,-1.59079750,0.00305176,-1.58318424,-2.03361511,-0.00488281,0.00000000,0.00488281,-0.01464844,0.02929688,-0.01464844,-2.97584534,-0.18499272,-0.18577576,-0.02441406
0.14550662,50,3.13539313,2.73171853,-1.59346779,-0.02059937,-1.59005069,-2.70004272,3.08809088,2.73820339,-1.59499362,0.00305127,-1.57278277,-2.03361511,3.08809088,2.72942971,-1.59079750,0.00305176,-1.58318424,-2.03399658,-0.00488281,0.00000000,0.00488281,0.00000000,0.01464844,-0.01464844,-2.97584534,-0.18510255,-0.18577576,-0.02441406
0.15831518,55,3.13539313,2.73171853,-1.59346779,-0.02059937,-1.59005069,-2.70004272,3.08809088,2.73820347,-1.59499365,0.00305160,-1.57285120,-2.03361511,3.08809088,2.72981118,-1.59079750,0.00305176,-1.58280277,-2.03361511,0.00000000,-0.00488281,0.00488281,-0.01464844,0.02929688,0.00000000,-2.97584534,-0.18529869,-0.18577576,-0.04882812
0.17293477,60,3.13539313,2.73171853,-1.59346779,-0.02059937,-1.59005069,-2.70004272,3.08809088,2.73820350,-1.59499366,0.00301264,-1.57287362,-2.03361511,3.08809088,2.72981118,-1.59079750,0.00305176,-1.58280277,-2.03361511,-0.00488281,0.00000000,0.00488281,0.00000000,0.02929688,-0.01464844,-2.97546387,-0.18506975,-0.18577576,-0.02441406
0.18651032,65,3.13539313,2.73171853,-1.59346779,-0.02059937,-1.59043216,-2.70004272,3.08809088,2.73820351,-1.59499367,0.00303894,-1.57295727,-2.03361511,3.08809088,2.72981118,-1.59079750,0.00305176,-1.58242130,-2.03361511,-0.00488281,0.00000000,-0.00000000,-0.02929688,0.02929688,0.00000000,-2.97584534,-0.18502525,-0.18577576,-0.02441406
0.19979978,70,3.13539313,2.73171853,-1.59346779,-0.02059937,-1.59043216,-2.70004272,3.08809088,2.73820351,-1.59499367,0.00304756,-1.57316485,-2.03361511,3.08809088,2.72981118,-1.59079750,0.00305176,-1.58203983,-2.03361511,-0.00488281,0.00000000,-0.00000000,-0.01464844,0.04394531,-0.01464844,-2.97546387,-0.18494499,-0.18577576,-0.02441406
0.21425271,75,3.13539313,2.73171853,-1.59346779,-0.02098083,-1.59081363,-2.70004272,3.08809088,2.73820352,-1.59499367,0.00297409,-1.57337020,-2.03361511,3.08809088,2.72981118,-1.59117897,0.00305176,-1.58165836,-2.03361511,-0.00488281,-0.00488281,0.00488281,0.00000000,0.05859375,-0.01464844,-2.97546387,-0.18495385,-0.18539429,0.00000000
0.22612333,80,3.13539313,2.73171853,-1.59346779,-0.02059937,-1.59119510,-2.70004272,3.08809088,2.73820352,-1.59499367,0.00302631,-1.57369396,-2.03361511,3.08809088,2.72981118,-1.59117897,0.00305176,-1.58127689,-2.03361511,-0.00488281,0.00000000,-0.00000000,-0.01464844,0.05859375,0.00000000,-2.97584534,-0.18510934,-0.18577576,-0.02441406
0.24088812,85,3.13539313,2.73171853,-1.59384926,-0.02059937,-1.59348392,-2.70004272,3.08809088,2.73820352,-1.59517983,0.00304342,-1.57493799,-2.03361511,3.08809088,2.72981118,-1.59117897,0.00305176,-1.58051395,-2.03399658,-0.00488281,-0.00488281,0.00488281,-0.02929688,0.08789062,0.00000000,-2.97546387,-0.18502626,-0.18577576,0.00000000
0.25303841,90,3.13539313,2.73171853,-1.59461220,-0.02059937,-1.59500980,-2.70004272,3.08809088,2.73820352,-1.59561265,0.00304903,-1.57649065,-2.03361511,3.08809088,2.72981118,-1.59117897,0.00305176,-1.57975101,-2.03399658,0.00000000,-0.00488281,0.00488281,-0.01464844,0.07324219,0.00000000,-2.97546387,-0.18483888,-0.18577576,-0.02441406
0.26720238,95,3.13539313,2.73171853,-1.59499367,-0.02059937,-1.59539127,-2.70004272,3.08809088,2.73820352,-1.59610324,0.00305086,-1.57762553,-2.03361511,3.08809088,2.73019265,-1.59117897,0.00305176,-1.57898807,-2.03399658,-0.00488281,0.00000000,-0.00000000,-0.02929688,0.05859375,-0.02929688,-2.97546387,-0.18491908,-0.18577576,-0.02441406
0.28201270,100,3.13539313,2.73171853,-1.59613808,-0.02059937,-1.59539127,-2.70004272,3.08809088,2.73820352,-1.59690205,0.00305146,-1.57802865,-2.03361511,3.08809088,2.73019265,-1.59117897,0.00305176,-1.57898807,-2.03399658,-0.00488281,0.00000000,-0.00000000,-0.01464844,0.04394531,-0.02929688,-2.97546387,-0.18500786,-0.18577576,-0.02441406
0.29597712,105,3.13539313,2.73171853,-1.59880837,-0.02059937,-1.59539127,-2.70004272,3.08809088,2.73820352,-1.59857970,0.00305166,-1.57816075,-2.03361511,3.08809088,2.73019265,-1.59117897,0.00305176,-1.57860660,-2.03399658,-0.00976562,0.00488281,-0.00000000,-0.01464844,0.01464844,-0.01464844,-2.97584534,-0.18512704,-0.18577576,-0.02441406
0.30791640,110,3.13539313,2.73171853,-1.60033425,-0.02059937,-1.59539127,-2.70004272,3.08809088,2.73820352,-1.60032328,0.00305173,-1.57820403,-2.03361511,3.08809088,2.73019265,-1.59117897,0.00305176,-1.57898807,-2.03361511,-0.00488281,0.00000000,0.00488281,-0.01464844,-0.00000000,-0.01464844,-2.97584534,-0.18494636,-0.18577576,-0.02441406
0.32068133,115,3.13539313,2.73171853,-1.60300454,-0.02059937,-1.59539127,-2.70004272,3.08809088,2.73820352,-1.60268063,0.00305175,-1.57821822,-2.03361511,3.08809088,2.73019265,-1.59117897,0.00305176,-1.57860660,-2.03361511,-0.00488281,0.00000000,-0.00000000,-0.01464844,0.02929688,-0.01464844,-2.97546387,-0.18509492,-0.18539429,0.00000000
0.33438063,120,3.13577460,2.73171853,-1.60720070,-0.02059937,-1.59539127,-2.70004272,3.08822821,2.73820352,-1.60582064,0.00305175,-1.57822287,-2.03361511,3.08809088,2.73019265,-1.59156044,0.00305176,-1.57860660,-2.03399658,-0.00488281,0.00000000,-0.00000000,-0.01464844,0.01464844,-0.01464844,-2.97584534,-0.18511162,-0.18539429,-0.02441406
0.34849882,125,3.13539313,2.73171853,-1.61177834,-0.02059937,-1.59539127,-2.70004272,3.08831606,2.73820352,-1.61012104,0.00305176,-1.57822439,-2.03361511,3.08809088,2.73057412,-1.59156044,0.00305176,-1.57860660,-2.03361511,-0.00488281,0.00000000,-0.00488281,-0.02929688,0.02929688,-0.02929688,-2.97584534,-0.18510147,-0.18539429,0.00000000
0.36108637,130,3.13539313,2.73171853,-1.61673745,-0.02021790,-1.59539127,-2.70004272,3.08816467,2.73820352,-1.61455913,0.00316711,-1.57822489,-2.03361511,3.08809088,2.73057412,-1.59156044,0.00305176,-1.57860660,-2.03399658,-0.00488281,-0.00488281,-0.00976562,0.00000000,0.01464844,-0.01464844,-2.97584534,-0.18517627,-0.18577576,-0.04882812
0.37738490,135,3.13539313,2.73171853,-1.62322243,-0.02059937,-1.59539127,-2.70004272,3.08811506,2.73820352,-1.62031284,0.00308956,-1.57822505,-2.03361511,3.08809088,2.73057412,-1.59194191,0.00305176,-1.57860660,-2.03399658,-0.00488281,0.00000000,-0.00976562,-0.01464844,0.01464844,-0.01464844,-2.97546387,-0.18490756,-0.18577576,-0.02441406
0.39058948,140,3.13539313,2.73171853,-1.63008889,-0.02059937,-1.59539127,-2.70004272,3.08809881,2.73820352,-1.62666819,0.00306414,-1.57822510,-2.03361511,3.08809088,2.73057412,-1.59232338,0.00305176,-1.57860660,-2.03399658,-0.00488281,0.00000000,-0.01953125,-0.01464844,0.02929688,-0.01464844,-2.97546387,-0.18486248,-0.18577576,0.00000000
0.40407419,145,3.13539313,2.73171853,-1.63733681,-0.02059937,-1.59539127,-2.70004272,3.08809348,2.73820352,-1.63321445,0.00305582,-1.57822512,-2.03361511,3.08809088,2.73057412,-1.59232338,0.00305176,-1.57860660,-2.03399658,0.00000000,0.00000000,-0.00488281,-0.01464844,0.01464844,-0.02929688,-2.97546387,-0.18496978,-0.18539429,-0.02441406
0.41713810,150,3.13539313,2.73171853,-1.64420327,-0.02059937,-1.59539127,-2.70004272,3.08809174,2.73820352,-1.64008683,0.00305309,-1.57822513,-2.03361511,3.08809088,2.73057412,-1.59270485,0.00343323,-1.57860660,-2.03399658,-0.00976562,0.00000000,-0.01464844,0.00000000,0.01464844,-0.02929688,-2.97584534,-0.18511456,-0.18577576,0.00000000
0.43444419,155,3.13539313,2.73171853,-1.65412148,-0.02059937,-1.59539127,-2.70004272,3.08809116,2.73820352,-1.64819155,0.00305219,-1.57822513,-2.03361511,3.08809088,2.73095559,-1.59346779,0.00343323,-1.57860660,-2.03399658,-0.00976562,0.00488281,-0.03417969,-0.01464844,0.01464844,-0.01464844,-2.97546387,-0.18493031,-0.18577576,-0.02441406
0.44964314,160,3.13539313,2.73171853,-1.66327675,-0.02059937,-1.59539127,-2.70004272,3.08809098,2.73820352,-1.65721400,0.00305190,-1.57822513,-2.03361511,3.08770941,2.73095559,-1.59384926,0.00343323,-1.57860660,-2.03399658,-0.00976562,0.00000000,-0.03906250,0.01464844,-0.00000000,-0.01464844,-2.97546387,-0.18502716,-0.18539429,-0.02441406
0.46344924,165,3.13539313,2.73171853,-1.67128762,-0.02059937,-1.59539127,-2.70004272,3.08809091,2.73820352,-1.66581904,0.00305180,-1.57822513,-2.03361511,3.08770941,2.73095559,-1.59461220,0.00305176,-1.57822513,-2.03399658,-0.00488281,-0.00488281,-0.02929688,-0.02929688,0.02929688,-0.01464844,-2.97546387,-0.18504328,-0.18577576,0.00000000
0.47578239,170,3.13539313,2.73171853,-1.67929848,-0.02059937,-1.59539127,-2.70004272,3.08809089,2.73820352,-1.67412226,0.00305177,-1.57822513,-2.03361511,3.08809088,2.73095559,-1.59537514,0.00343323,-1.57822513,-2.03399658,-0.00488281,-0.00488281,-0.06347656,0.00000000,0.04394531,-0.01464844,-2.97546387,-0.18506418,-0.18577576,-0.04882812
0.48745370,175,3.13539313,2.73171853,-1.68769081,-0.02059937,-1.59539127,-2.70004272,3.08809089,2.73820352,-1.68241655,0.00305176,-1.57822513,-2.03361511,3.08809088,2.73095559,-1.59651955,0.00381470,-1.57784366,-2.03399658,-0.00488281,0.00000000,-0.07812500,0.01464844,0.02929688,-0.02929688,-2.97584534,-0.18510155,-0.18539429,-0.02441406
0.50001860,180,3.13539313,2.73171853,-1.69646462,-0.02059937,-1.59539127,-2.70004272,3.08809089,2.73820352,-1.69121437,0.00305176,-1.57822513,-2.03361511,3.08809088,2.73095559,-1.59804543,0.00381470,-1.57784366,-2.03399658,-0.00488281,0.00000000,-0.11718750,-0.02929688,0.01464844,-0.01464844,-2.97584534,-0.18513821,-0.18539429,0.00000000
0.51425052,185,3.13539313,2.73171853,-1.70676430,-0.02059937,-1.59539127,-2.70004272,3.08809089,2.73820352,-1.70046724,0.00305176,-1.57822513,-2.03361511,3.08809088,2.73095559,-1.59995278,0.00343323,-1.57784366,-2.03399658,-0.00488281,-0.00488281,-0.13671875,-0.02929688,-0.00000000,-0.02929688,-2.97546387,-0.18507966,-0.18577576,-0.02441406
0.52672076,190,3.13539313,2.73171853,-1.71553810,-0.02059937,-1.59539127,-2.70004272,3.08809088,2.73820352,-1.70922224,0.00305176,-1.57822513,-2.03361511,3.08809088,2.73095559,-1.60147866,0.00343323,-1.57784366,-2.03399658,-0.00488281,0.00000000,-0.14160156,-0.02929688,-0.00000000,-0.01464844,-2.97584534,-0.18516912,-0.18577576,-0.02441406
0.54044414,195,3.13539313,2.73171853,-1.72469338,-0.02059937,-1.59539127,-2.70004272,3.08809088,2.73820352,-1.71879714,0.00305176,-1.57822513,-2.03361511,3.08809088,2.73095559,-1.60338600,0.00343323,-1.57822513,-2.03399658,-0.00488281,-0.00488281,-0.14648438,-0.01464844,-0.00000000,-0.02929688,-2.97584534,-0.18519843,-0.18577576,-0.02441406
0.55565619,200,3.13539313,2.73171853,-1.73651894,-0.02059937,-1.59539127,-2.70004272,3.08809088,2.73820352,-1.72925483,0.00305176,-1.57822513,-2.03361511,3.08809088,2.73095559,-1.60605629,0.00343323,-1.57822513,-2.03399658,-0.00488281,-0.00488281,-0.16113281,-0.01464844,0.01464844,-0.01464844,-2.97546387,-0.18505545,-0.18577576,-0.02441406
0.57141995,205,3.13539313,2.73171853,-1.74720009,-0.02059937,-1.59539127,-2.70004272,3.08809088,2.73820352,-1.74048776,0.00305176,-1.57822513,-2.03361511,3.08809088,2.73133706,-1.60872658,0.00343323,-1.57822513,-2.03399658,-0.00488281,-0.00488281,-0.16113281,-0.01464844,0.01464844,-0.01464844,-2.97546387,-0.18494610,-0.18577576,-0.04882812
0.58525181,210,3.13539313,2.73171853,-1.75978859,-0.02059937,-1.59539127,-2.70004272,3.08809088,2.73820352,-1.75166429,0.00305176,-1.57822513,-2.03361511,3.08809088,2.73133706,-1.61101540,0.00343323,-1.57784366,-2.03399658,0.00000000,0.00000000,-0.15136719,0.00000000,0.01464844,-0.01464844,-2.97546387,-0.18509484,-0.18577576,-0.04882812
0.59952712,215,3.13539313,2.73171853,-1.77123268,-0.02059937,-1.59539127,-2.70004272,3.08809088,2.73820352,-1.76292549,0.00305176,-1.57822513,-2.03361511,3.08809088,2.73133706,-1.61368569,0.00343323,-1.57784366,-2.03399658,-0.00488281,0.00000000,-0.18066406,-0.02929688,-0.00000000,-0.01464844,-2.97546387,-0.18504592,-0.18577576,-0.02441406
0.61658144,220,3.13539313,2.73171853,-1.78191384,-0.02059937,-1.59539127,-2.70004272,3.08809088,2.73820352,-1.77398959,0.00305176,-1.57822513,-2.03361511,3.08809088,2.73133706,-1.61673745,0.00343323,-1.57784366,-2.03399658,-0.00976562,0.00488281,-0.19042969,-0.02929688,-0.00000000,-0.02929688,-2.97546387,-0.18512755,-0.18577576,-0.02441406
0.63106322,225,3.13539313,2.73171853,-1.79068764,-0.02059937,-1.59539127,-2.70004272,3.08809088,2.73820352,-1.78482296,0.00305176,-1.57822513,-2.03361511,3.08770941,2.73133706,-1.61940773,0.00343323,-1.57822513,-2.03399658,-0.00488281,-0.00488281,-0.21972656,0.00000000,0.01464844,-0.01464844,-2.97584534,-0.18524438,-0.18539429,-0.04882812
0.64374042,230,3.13539313,2.73171853,-1.79984291,-0.02059937,-1.59539127,-2.70004272,3.08809088,2.73820352,-1.79401248,0.00305176,-1.57822513,-2.03361511,3.08809088,2.73133706,-1.62284096,0.00343323,-1.57784366,-2.03399658,-0.00488281,-0.00488281,-0.22460938,-0.02929688,0.02929688,-0.02929688,-2.97584534,-0.18498481,-0.18577576,-0.02441406
0.65815091,235,3.13539313,2.73171853,-1.80823525,-0.02059937,-1.59539127,-2.70004272,3.08809088,2.73820352,-1.80289358,0.00305176,-1.57822513,-2.03361511,3.08809088,2.73171853,-1.62589272,0.00343323,-1.57822513,-2.03399658,-0.00976562,0.00000000,-0.23437500,0.00000000,-0.01464844,-0.01464844,-2.97546387,-0.18504502,-0.18577576,-0.02441406
0.67927217,240,3.13539313,2.73171853,-1.81929787,-0.02059937,-1.59539127,-2.70004272,3.08809088,2.73820352,-1.81314712,0.00305176,-1.57822513,-2.03361511,3.08809088,2.73171853,-1.63085183,0.00343323,-1.57784366,-2.03399658,-0.00976562,-0.00488281,-0.21484375,-0.01464844,0.02929688,-0.01464844,-2.97584534,-0.18506011,-0.18577576,-0.02441406
0.69352865,245,3.13539313,2.73171853,-1.82540139,-0.02059937,-1.59539127,-2.70004272,3.08809088,2.73820352,-1.82123601,0.00305176,-1.57822513,-2.03361511,3.08809088,2.73171853,-1.63390358,0.00343323,-1.57822513,-2.03399658,-0.00976562,-0.00488281,-0.23437500,-0.02929688,-0.00000000,-0.01464844,-2.97546387,-0.18503454,-0.18577576,-0.04882812
0.70743823,250,3.13539313,2.73171853,-1.83112343,-0.02059937,-1.59539127,-2.70004272,3.08809088,2.73820352,-1.82790452,0.00305176,-1.57822513,-2.03361511,3.08809088,2.73171853,-1.63733681,0.00343323,-1.57784366,-2.03399658,-0.00488281,0.00000000,-0.24414062,0.00000000,0.02929688,-0.01464844,-2.97546387,-0.18506132,-0.18577576,-0.04882812
0.72026658,255,3.13539313,2.73171853,-1.83493813,-0.02059937,-1.59539127,-2.70004272,3.08809088,2.73820352,-1.83302398,0.00305176,-1.57822513,-2.03361511,3.08770941,2.73171853,-1.64115151,0.00343323,-1.57784366,-2.03399658,-0.00976562,-0.00488281,-0.25390625,0.00000000,0.01464844,0.00000000,-2.97546387,-0.18503494,-0.18577576,-0.02441406
0.73311877,260,3.13539313,2.73171853,-1.83951577,-0.02059937,-1.59539127,-2.70004272,3.08809088,2.73820352,-1.83728990,0.00305176,-1.57822513,-2.03361511,3.08809088,2.73171853,-1.64420327,0.00343323,-1.57784366,-2.03399658,0.00000000,0.00000000,-0.24414062,-0.02929688,0.01464844,0.00000000,-2.97584534,-0.18509196,-0.18577576,-0.02441406
0.74698424,265,3.13539313,2.73171853,-1.84256752,-0.02059937,-1.59539127,-2.70004272,3.08809088,2.73820352,-1.84111110,0.00305176,-1.57822513,-2.03361511,3.08809088,2.73171853,-1.64801796,0.00343323,-1.57822513,-2.03399658,-0.00488281,0.00000000,-0.26855469,0.00000000,0.01464844,0.00000000,-2.97584534,-0.18529522,-0.18577576,-0.04882812
0.76288176,270,3.13539313,2.73171853,-1.84561928,-0.02059937,-1.59539127,-2.70004272,3.08809088,2.73820352,-1.84456538,0.00295166,-1.57822513,-2.03361511,3.08809088,2.73171853,-1.65259560,0.00343323,-1.57822513,-2.03399658,-0.00976562,0.00000000,-0.26367188,-0.02929688,-0.00000000,-0.01464844,-2.97546387,-0.18491139,-0.18539429,0.00000000
0.77565002,275,3.13539313,2.73171853,-1.84828957,-0.02059937,-1.59539127,-2.70004272,3.08809088,2.73820352,-1.84741395,0.00301896,-1.57822513,-2.03361511,3.08809088,2.73210000,-1.65602883,0.00343323,-1.57822513,-2.03399658,-0.00488281,0.00000000,-0.24414062,-0.01464844,0.02929688,0.00000000,-2.97584534,-0.18501632,-0.18577576,-0.02441406
0.79050064,280,3.13539313,2.73171853,-1.85057839,-0.02098083,-1.59539127,-2.70004272,3.08809088,2.73820352,-1.85007858,0.00289440,-1.57822513,-2.03361511,3.08770941,2.73210000,-1.65946205,0.00305176,-1.57822513,-2.03399658,-0.00976562,0.00000000,-0.25878906,-0.01464844,-0.00000000,-0.01464844,-2.97584534,-0.18512981,-0.18577576,-0.04882812
0.80217481,285,3.13539313,2.73171853,-1.85172280,-0.02059937,-1.59539127,-2.70004272,3.08809088,2.73820352,-1.85195941,0.00300020,-1.57822513,-2.03361511,3.08770941,2.73210000,-1.66251381,0.00343323,-1.57822513,-2.03399658,-0.00976562,0.00000000,-0.24902344,-0.01464844,0.04394531,-0.01464844,-2.97584534,-0.18512305,-0.18539429,-0.02441406
0.81835508,290,3.13539313,2.73171853,-1.85286721,-0.02059937,-1.59539127,-2.70004272,3.08809088,2.73820352,-1.85340616,0.00303486,-1.57822513,-2.03361511,3.08770941,2.73210000,-1.66594704,0.00343323,-1.57822513,-2.03399658,-0.00488281,-0.00488281,-0.25390625,-0.01464844,0.01464844,0.00000000,-2.97584534,-0.18494506,-0.18577576,-0.02441406
0.83170390,295,3.13539313,2.73171853,-1.85286721,-0.02059937,-1.59539127,-2.70004272,3.08809088,2.73820352,-1.85406969,0.00304622,-1.57822513,-2.03361511,3.08770941,2.73210000,-1.66938027,0.00305176,-1.57822513,-2.03399658,-0.00488281,-0.00488281,-0.24414062,-0.02929688,-0.00000000,-0.01464844,-2.97584534,-0.18524708,-0.18539429,0.00000000
0.84615588,300,3.13539313,2.73171853,-1.85286721,-0.02059937,-1.59539127,-2.70004272,3.08809088,2.73820352,-1.85428712,0.00304994,-1.57822513,-2.03361511,3.08770941,2.73210000,-1.67243203,0.00343323,-1.57822513,-2.03399658,-0.00976562,0.00000000,-0.24414062,-0.01464844,-0.00000000,0.00000000,-2.97584534,-0.18526793,-0.18577576,-0.04882812
0.86153030,305,3.13539313,2.73171853,-1.85286721,-0.02059937,-1.59500980,-2.70004272,3.08809088,2.73820352,-1.85435836,0.00305116,-1.57814884,-2.03361511,3.08770941,2.73210000,-1.67739113,0.00305176,-1.57822513,-2.03399658,-0.00488281,0.00000000,-0.23925781,-0.01464844,0.01464844,-0.02929688,-2.97584534,-0.18511460,-0.18577576,-0.02441406
0.87876272,310,3.13539313,2.73171853,-1.85286721,-0.02059937,-1.59462833,-2.70004272,3.08809088,2.73820352,-1.85438171,0.00305156,-1.57780633,-2.03361511,3.08809088,2.73210000,-1.68158730,0.00343323,-1.57822513,-2.03399658,-0.00488281,-0.00488281,-0.23925781,-0.01464844,0.02929688,-0.01464844,-2.97584534,-0.18520498,-0.18577576,-0.02441406
0.89460492,315,3.13539313,2.73171853,-1.85286721,-0.02059937,-1.59424686,-2.70004272,3.08809088,2.73820352,-1.85438936,0.00305169,-1.57738880,-2.03361511,3.08770941,2.73210000,-1.68540200,0.00305176,-1.57822513,-2.03399658,0.00000000,-0.00488281,-0.22460938,-0.01464844,-0.00000000,-0.01464844,-2.97584534,-0.18519163,-0.18577576,-0.04882812
0.91198349,320,3.13539313,2.73171853,-1.85286721,-0.02059937,-1.59424686,-2.70004272,3.08809088,2.73820352,-1.85439186,0.00305174,-1.57731302,-2.03361511,3.08770941,2.73210000,-1.68883522,0.00305176,-1.57822513,-2.03399658,-0.00488281,-0.00488281,-0.21484375,-0.02929688,0.02929688,-0.02929688,-2.97584534,-0.18524976,-0.18577576,-0.02441406
0.92495036,325,3.13539313,2.73171853,-1.85286721,-0.02059937,-1.59462833,-2.70004272,3.08809088,2.73820352,-1.85439268,0.00305175,-1.57741331,-2.03361511,3.08770941,2.73248147,-1.69188698,0.00305176,-1.57822513,-2.03399658,-0.00488281,0.00000000,-0.22460938,-0.01464844,0.01464844,-0.01464844,-2.97584534,-0.18534693,-0.18577576,-0.04882812
0.93675876,330,3.13539313,2.73171853,-1.85286721,-0.02059937,-1.59462833,-2.70004272,3.08809088,2.73820352,-1.85439295,0.00305176,-1.57744617,-2.03361511,3.08809088,2.73248147,-1.69417580,0.00305176,-1.57822513,-2.03399658,-0.00488281,0.00000000,-0.22460938,-0.02929688,0.02929688,-0.01464844,-2.97546387,-0.18510411,-0.18577576,-0.02441406
0.95087790,335,3.13539313,2.73171853,-1.85286721,-0.02059937,-1.59462833,-2.70004272,3.08809088,2.73820352,-1.85439304,0.00305176,-1.57745694,-2.03361511,3.08809088,2.73248147,-1.69722756,0.00305176,-1.57822513,-2.03399658,-0.00488281,0.00000000,-0.20996094,0.00000000,-0.00000000,0.00000000,-2.97584534,-0.18503651,-0.18577576,-0.04882812
0.96434116,340,3.13539313,2.73171853,-1.85286721,-0.02098083,-1.59424686,-2.70004272,3.08809088,2.73820352,-1.85439307,0.00286560,-1.57732314,-2.03361511,3.08770941,2.73248147,-1.69989785,0.00305176,-1.57822513,-2.03399658,-0.00488281,0.00000000,-0.20996094,-0.01464844,0.01464844,-0.01464844,-2.97584534,-0.18513642,-0.18577576,-0.02441406
0.97655678,345,3.13539313,2.73171853,-1.85286721,-0.02212524,-1.59424686,-2.70004272,3.08809088,2.73820352,-1.85439308,0.00224662,-1.57716016,-2.03361511,3.08809088,2.73248147,-1.70294960,0.00305176,-1.57822513,-2.03399658,0.00000000,0.00000000,-0.19042969,-0.01464844,0.01464844,-0.01464844,-2.97584534,-0.18523167,-0.18577576,0.00000000
0.99103522,350,3.13539313,2.73171853,-1.85286721,-0.02555847,-1.59386539,-2.70004272,3.08809088,2.73820352,-1.85439308,0.00034347,-1.57688153,-2.03361511,3.08770941,2.73248147,-1.70600136,0.00305176,-1.57822513,-2.03399658,-0.00488281,-0.00488281,-0.19042969,-0.01464844,0.01464844,0.00000000,-2.97584534,-0.18518084,-0.18577576,-0.04882812
1.00614405,355,3.13539313,2.73171853,-1.85286721,-0.03128052,-1.59386539,-2.70004272,3.08809088,2.73820352,-1.85439308,-0.00345825,-1.57675898,-2.03361511,3.08770941,2.73248147,-1.70905312,0.00305176,-1.57822513,-2.03399658,-0.00488281,0.00000000,-0.18554688,-0.01464844,0.01464844,-0.02929688,-2.97584534,-0.18508606,-0.18577576,-0.02441406
1.02123117,360,3.13501166,2.73171853,-1.85286721,-0.04005432,-1.59348392,-2.70004272,3.08786566,2.73820352,-1.85439308,-0.01040554,-1.57649360,-2.03361511,3.08770941,2.73286294,-1.71172341,0.00305176,-1.57822513,-2.03399658,-0.00488281,0.00000000,-0.18554688,0.00000000,0.01464844,-0.01464844,-2.97546387,-0.18514070,-0.18577576,-0.04882812
1.03559065,365,3.13501166,2.73171853,-1.85324868,-0.05340576,-1.59310245,-2.70004272,3.08776061,2.73820352,-1.85453041,-0.01958669,-1.57623807,-2.03361511,3.08770941,2.73286294,-1.71401223,0.00267029,-1.57784366,-2.03399658,-0.00488281,-0.00488281,-0.19042969,-0.04394531,0.02929688,-0.02929688,-2.97584534,-0.18504850,-0.18539429,-0.02441406
1.05050445,370,3.13501166,2.73171853,-1.85363015,-0.07324219,-1.59233951,-2.70004272,3.08772619,2.73820352,-1.85483188,-0.03424995,-1.57573368,-2.03361511,3.08770941,2.73286294,-1.71744545,0.00076294,-1.57822513,-2.03399658,-0.00488281,-0.00488281,-0.18066406,-0.13183594,0.01464844,-0.01464844,-2.97584534,-0.18528098,-0.18539429,-0.04882812
1.06353211,375,3.13501166,2.73171853,-1.85401162,-0.08888245,-1.59081363,-2.70004272,3.08771491,2.73820352,-1.85518714,-0.05144995,-1.57470072,-2.03361511,3.08809088,2.73286294,-1.72011574,-0.00152588,-1.57822513,-2.03399658,-0.00488281,-0.00488281,-0.20507812,-0.21972656,0.01464844,0.00000000,-2.97546387,-0.18504441,-0.18577576,-0.02441406
1.07817650,380,3.13501166,2.73171853,-1.85477455,-0.11024475,-1.58852481,-2.70004272,3.08771122,2.73820352,-1.85578524,-0.06996404,-1.57318378,-2.03361511,3.08770941,2.73286294,-1.72278603,-0.00495911,-1.57784366,-2.03399658,-0.00488281,-0.00488281,-0.16601562,-0.20507812,0.01464844,-0.01464844,-2.97584534,-0.18518198,-0.18539429,0.00000000
1.09168696,385,3.13501166,2.73171853,-1.85591896,-0.13275146,-1.58547306,-2.70004272,3.08771001,2.73820352,-1.85665054,-0.08963133,-1.57080682,-2.03361511,3.08770941,2.73286294,-1.72507485,-0.00877380,-1.57784366,-2.03399658,-0.00488281,0.00000000,-0.17089844,-0.33691406,0.01464844,-0.01464844,-2.97546387,-0.18509401,-0.18577576,-0.04882812
1.10585356,390,3.13463019,2.73171853,-1.85706337,-0.15411377,-1.58203983,-2.70004272,3.08757228,2.73820352,-1.85763317,-0.10963133,-1.56746923,-2.03361511,3.08809088,2.73286294,-1.72736367,-0.01449585,-1.57746219,-2.03399658,-0.00488281,-0.00488281,-0.18554688,-0.48339844,0.05859375,0.00000000,-2.97546387,-0.18500268,-0.18577576,-0.04882812
1.11921835,395,3.13424872,2.73171853,-1.85782631,-0.17471313,-1.57631778,-2.70004272,3.08727068,2.73820352,-1.85863851,-0.12963133,-1.56337764,-2.03361511,3.08770941,2.73286294,-1.72927101,-0.02059937,-1.57746219,-2.03399658,-0.00488281,-0.00976562,-0.16113281,-0.48339844,0.04394531,-0.01464844,-2.97584534,-0.18512534,-0.18539429,-0.04882812
1.13363171,400,3.13386725,2.73171853,-1.85858925,-0.19035339,-1.56983280,-2.70004272,3.08686655,2.73820352,-1.85952971,-0.14963133,-1.55747673,-2.03361511,3.08770941,2.73286294,-1.73194130,-0.02975464,-1.57669925,-2.03399658,-0.00976562,0.00000000,-0.15136719,-0.57128906,0.07324219,-0.01464844,-2.97584534,-0.18530616,-0.18577576,-0.02441406
1.14728665,405,3.13310431,2.73171853,-1.85935219,-0.20141602,-1.56182193,-2.70004272,3.08627002,2.73820352,-1.86022481,-0.16635391,-1.55055666,-2.03361511,3.08770941,2.73286294,-1.73461159,-0.03814697,-1.57555484,-2.03399658,-0.00976562,-0.00488281,-0.17578125,-0.68847656,0.11718750,-0.02929688,-2.97584534,-0.18536541,-0.18577576,-0.02441406
1.16454864,410,3.13234137,2.73171853,-1.86011513,-0.21018982,-1.55266666,-2.70004272,3.08554403,2.73820352,-1.86107539,-0.17864964,-1.54184965,-2.03361511,3.08770941,2.73286294,-1.73766335,-0.04959106,-1.57364749,-2.03399658,-0.00488281,0.00000000,-0.16113281,-0.73242188,0.10253906,-0.01464844,-2.97546387,-0.18495001,-0.18577576,-0.04882812
1.17736340,415,3.13119696,2.73171853,-1.86087807,-0.21514893,-1.54312992,-2.70004272,3.08468565,2.73820352,-1.86184947,-0.18651721,-1.53292951,-2.03361511,3.08770941,2.73286294,-1.73957070,-0.05874634,-1.57250308,-2.03399658,-0.00488281,-0.00488281,-0.16113281,-0.71777344,0.16113281,0.00000000,-2.97584534,-0.18510808,-0.18577576,-0.02441406
1.19185114,420,3.13005255,2.73210000,-1.86202248,-0.21743774,-1.53511905,-2.70004272,3.08352511,2.73834084,-1.86285104,-0.19100419,-1.52443418,-2.03361511,3.08770941,2.73286294,-1.74224099,-0.06980896,-1.56754398,-2.03399658,-0.00976562,0.00000000,-0.17089844,-0.73242188,0.29296875,-0.01464844,-2.97584534,-0.18530050,-0.18577576,-0.02441406
1.20648694,425,3.12738227,2.73210000,-1.86316689,-0.21858215,-1.52558231,-2.70004272,3.08175871,2.73850499,-1.86387784,-0.19361303,-1.51554727,-2.03361511,3.08770941,2.73286294,-1.74452980,-0.07934570,-1.56411075,-2.03399658,-0.01464844,0.00000000,-0.16113281,-0.70312500,0.27832031,-0.01464844,-2.97584534,-0.18514383,-0.18577576,-0.02441406
1.21721339,430,3.12585639,2.73248147,-1.86431130,-0.21820068,-1.51871585,-2.70004272,3.08000509,2.73878399,-1.86494465,-0.19442286,-1.50768185,-2.03361511,3.08732795,2.73324441,-1.74643715,-0.08621216,-1.56067752,-2.03399658,-0.02441406,0.00488281,-0.15625000,-0.61523438,0.32226562,0.00000000,-2.97584534,-0.18523409,-0.18577576,-0.02441406
1.23215604,435,3.12356757,2.73286294,-1.86507424,-0.21820068,-1.51032352,-2.70004272,3.07792290,2.73908306,-1.86590726,-0.19450804,-1.49970191,-2.03361511,3.08732795,2.73324441,-1.74834450,-0.09613037,-1.55571842,-2.03399658,-0.00976562,0.00488281,-0.14648438,-0.61523438,0.30761719,-0.01464844,-2.97546387,-0.18502905,-0.18539429,0.00000000
1.24619341,440,3.12089728,2.73286294,-1.86660012,-0.21858215,-1.50231265,-2.70004272,3.07571339,2.73926113,-1.86702933,-0.19467328,-1.49213576,-2.03361511,3.08694648,2.73324441,-1.75063332,-0.10375977,-1.55228519,-2.03399658,-0.00976562,0.00976562,-0.13671875,-0.57128906,0.26367188,0.00000000,-2.97546387,-0.18498139,-0.18539429,-0.02441406
1.26150274,445,3.11937140,2.73324441,-1.86736306,-0.21858215,-1.49620914,-2.70004272,3.07362511,2.73945681,-1.86812919,-0.19484657,-1.48469066,-2.03361511,3.08694648,2.73362588,-1.75292214,-0.11215210,-1.54847049,-2.03399658,-0.01464844,0.00976562,-0.15625000,-0.49804688,0.30761719,-0.01464844,-2.97546387,-0.18500875,-0.18577576,-0.02441406
1.27555490,450,3.11708258,2.73324441,-1.86927040,-0.21896362,-1.48819828,-2.70004272,3.07133121,2.73964008,-1.86970163,-0.19508951,-1.47670210,-2.03361511,3.08656501,2.73362588,-1.75521096,-0.11901855,-1.54427432,-2.03399658,-0.02929688,0.00976562,-0.15625000,-0.45410156,0.32226562,-0.01464844,-2.97546387,-0.18503724,-0.18539429,0.00000000
1.28824687,455,3.11479377,2.73362588,-1.87079628,-0.21972656,-1.48285770,-2.70004272,3.06933076,2.73983746,-1.87109384,-0.19554095,-1.47047088,-2.03361511,3.08618354,2.73400735,-1.75788124,-0.12550354,-1.53855228,-2.03399658,-0.02929688,0.00000000,-0.15625000,-0.45410156,0.42480469,-0.01464844,-2.97584534,-0.18519916,-0.18577576,-0.02441406
1.30159521,460,3.11288642,2.73400735,-1.87232216,-0.22048950,-1.47866153,-2.70004272,3.06724398,2.74015860,-1.87269359,-0.19626285,-1.46524410,-2.03361511,3.08618354,2.73400735,-1.75978859,-0.13008118,-1.53283023,-2.03399658,-0.01464844,-0.00488281,-0.16113281,-0.41015625,0.48339844,0.01464844,-2.97546387,-0.18495804,-0.18577576,-0.02441406
1.31400323,465,3.11097907,2.73438882,-1.87461098,-0.22277832,-1.47560977,-2.70004272,3.06536573,2.74056913,-1.87439626,-0.19763734,-1.46143471,-2.03361511,3.08618354,2.73400735,-1.76169594,-0.13465881,-1.52787113,-2.03399658,-0.02441406,0.00000000,-0.14160156,-0.38085938,0.41015625,-0.01464844,-2.97584534,-0.18506677,-0.18577576,0.00000000
1.32951903,470,3.10830878,2.73477029,-1.87651833,-0.22773743,-1.47217655,-2.70004272,3.06299404,2.74103044,-1.87644797,-0.20081393,-1.45782500,-2.03361511,3.08580207,2.73438882,-1.76360329,-0.13923645,-1.52405643,-2.03399658,-0.03417969,0.01953125,-0.11230469,-0.32226562,0.27832031,-0.01464844,-2.97584534,-0.18510239,-0.18577576,-0.04882812
1.34344554,475,3.10640143,2.73515176,-1.87842568,-0.23345947,-1.47026920,-2.70004272,3.06071529,2.74136776,-1.87846366,-0.20553000,-1.45506050,-2.03361511,3.08503913,2.73438882,-1.76551064,-0.14343262,-1.51986026,-2.03399658,-0.03906250,0.00488281,-0.13671875,-0.35156250,0.29296875,-0.01464844,-2.97584534,-0.18509844,-0.18577576,-0.02441406
1.35740137,480,3.10373114,2.73553323,-1.88071450,-0.24337769,-1.46912479,-2.70004272,3.05857712,2.74177382,-1.88043934,-0.21227483,-1.45325680,-2.03361511,3.08465766,2.73477029,-1.76779946,-0.14762878,-1.51413822,-2.03399658,-0.04882812,0.00000000,-0.14160156,-0.29296875,0.43945312,-0.01464844,-2.97584534,-0.18517528,-0.18577576,-0.02441406
1.36930394,485,3.10220526,2.73591470,-1.88185891,-0.25100708,-1.46874332,-2.70004272,3.05650783,2.74212429,-1.88213788,-0.22047228,-1.45212756,-2.03361511,3.08427619,2.73477029,-1.76932534,-0.15068054,-1.50956058,-2.03399658,-0.03906250,-0.00488281,-0.15625000,-0.29296875,0.48339844,0.00000000,-2.97584534,-0.18524440,-0.18577576,-0.02441406
1.38441944,490,3.09953498,2.73629617,-1.88376625,-0.26435852,-1.46912479,-2.70004272,3.05424590,2.74249560,-1.88385767,-0.23062949,-1.45189486,-2.03361511,3.08389472,2.73477029,-1.77199562,-0.15563965,-1.50345706,-2.03399658,-0.03906250,-0.00488281,-0.17089844,-0.33691406,0.33691406,-0.01464844,-2.97546387,-0.18505196,-0.18577576,-0.04882812
1.39588308,495,3.09762763,2.73629617,-1.88567360,-0.27503967,-1.46912479,-2.70004272,3.05201094,2.74268758,-1.88573481,-0.24244071,-1.45193775,-2.03361511,3.08313178,2.73477029,-1.77390297,-0.16098022,-1.50078678,-2.03399658,-0.04394531,0.00976562,-0.14160156,-0.38085938,0.24902344,-0.01464844,-2.97546387,-0.18503187,-0.18577576,-0.02441406
1.40848660,500,3.09533881,2.73629617,-1.88758095,-0.28839111,-1.46912479,-2.70004272,3.05009084,2.74275049,-1.88728118,-0.25316392,-1.45195180,-2.03361511,3.08275031,2.73477029,-1.77542885,-0.16479492,-1.49887943,-2.03399658,-0.05371094,0.00488281,-0.12695312,-0.35156250,0.19042969,0.00000000,-2.97546387,-0.18476259,-0.18539429,0.00000000
1.42448163,505,3.09228705,2.73629617,-1.88986977,-0.30784607,-1.46912479,-2.70004272,3.04730932,2.74277111,-1.88946637,-0.26925229,-1.45195641,-2.03361511,3.08160590,2.73477029,-1.77771767,-0.17204285,-1.49506473,-2.03399658,-0.05371094,-0.00488281,-0.14160156,-0.46875000,0.23437500,-0.02929688,-2.97546387,-0.18503470,-0.18577576,-0.02441406
1.43748975,510,3.08961676,2.73629617,-1.89139565,-0.32310486,-1.46912479,-2.70004272,3.04455131,2.74277786,-1.89148856,-0.28618916,-1.45195792,-2.03361511,3.08160590,2.73477029,-1.77962502,-0.17929077,-1.49163150,-2.03399658,-0.02441406,-0.00488281,-0.14648438,-0.54199219,0.29296875,-0.02929688,-2.97584534,-0.18527646,-0.18577576,-0.02441406
1.44925714,515,3.08732795,2.73629617,-1.89254006,-0.33493042,-1.46912479,-2.70004272,3.04194078,2.74278007,-1.89300068,-0.30056118,-1.45195841,-2.03361511,3.08084296,2.73477029,-1.78153237,-0.18501282,-1.48896121,-2.03399658,-0.04394531,-0.00488281,-0.15136719,-0.52734375,0.24902344,-0.01464844,-2.97584534,-0.18509298,-0.18577576,-0.04882812
1.46349788,520,3.08465766,2.73629617,-1.89406594,-0.34942627,-1.46912479,-2.70004272,3.03943900,2.74278080,-1.89446101,-0.31431577,-1.45195857,-2.03361511,3.08008002,2.73477029,-1.78382119,-0.19187927,-1.48590946,-2.03399658,-0.06835938,0.00488281,-0.15625000,-0.60058594,0.23437500,0.00000000,-2.97546387,-0.18506484,-0.18539429,-0.02441406
1.47865844,525,3.08084296,2.73629617,-1.89597329,-0.36544800,-1.46912479,-2.70004272,3.03608723,2.74278104,-1.89614181,-0.33007556,-1.45195863,-2.03361511,3.07931708,2.73515176,-1.78611000,-0.20370483,-1.48285770,-2.03399658,-0.04394531,0.00488281,-0.15625000,-0.77636719,0.21972656,-0.01464844,-2.97584534,-0.18508614,-0.18577576,-0.02441406
1.49232650,530,3.07779120,2.73629617,-1.89711769,-0.37727356,-1.46912479,-2.70004272,3.03289225,2.74278111,-1.89752448,-0.34380992,-1.45195864,-2.03361511,3.07893561,2.73553323,-1.78801735,-0.21362305,-1.47980594,-2.03399658,-0.05859375,0.00976562,-0.12695312,-0.67382812,0.20507812,-0.02929688,-2.97584534,-0.18517124,-0.18577576,-0.04882812
1.50649381,535,3.07359504,2.73629617,-1.89826210,-0.38757324,-1.46912479,-2.70004272,3.02933958,2.74278114,-1.89876454,-0.35511349,-1.45195865,-2.03361511,3.07817267,2.73553323,-1.78992470,-0.22163391,-1.47789859,-2.03399658,-0.05859375,0.01464844,-0.12207031,-0.71777344,0.14648438,-0.01464844,-2.97584534,-0.18522354,-0.18577576,-0.02441406
1.51916766,540,3.07092475,2.73629617,-1.89902504,-0.39329529,-1.46912479,-2.70004272,3.02614724,2.74278115,-1.89981517,-0.36365863,-1.45195865,-2.03361511,3.07702826,2.73591470,-1.79183205,-0.23269653,-1.47637271,-2.03399658,-0.07812500,0.01953125,-0.14160156,-0.77636719,0.14648438,-0.02929688,-2.97584534,-0.18533834,-0.18577576,-0.02441406
1.53392124,545,3.06749152,2.73629617,-1.90055092,-0.39939880,-1.46912479,-2.70004272,3.02279002,2.74278115,-1.90109743,-0.37082931,-1.45195865,-2.03361511,3.07588385,2.73629617,-1.79373940,-0.24185181,-1.47484683,-2.03399658,-0.08300781,0.01953125,-0.12695312,-0.68847656,0.14648438,-0.02929688,-2.97584534,-0.18527830,-0.18539429,-0.02441406
1.54668021,550,3.06405829,2.73629617,-1.90169533,-0.40397644,-1.46912479,-2.70004272,3.01932359,2.74278115,-1.90233584,-0.37659208,-1.45195865,-2.03361511,3.07512091,2.73629617,-1.79564675,-0.25100708,-1.47332096,-2.03399658,-0.07812500,0.00000000,-0.13183594,-0.71777344,0.13183594,-0.02929688,-2.97584534,-0.18535628,-0.18577576,-0.02441406
1.55876088,555,3.06024359,2.73629617,-1.90283974,-0.40740967,-1.46912479,-2.70004272,3.01591256,2.74278115,-1.90345001,-0.38053963,-1.45195865,-2.03361511,3.07397650,2.73667764,-1.79755410,-0.26206970,-1.47179508,-2.03399658,-0.07324219,0.00488281,-0.15136719,-0.82031250,0.11718750,-0.02929688,-2.97584534,-0.18528418,-0.18577576,-0.02441406
1.57104349,560,3.05795478,2.73629617,-1.90398415,-0.40969849,-1.46912479,-2.70004272,3.01277848,2.74278115,-1.90461430,-0.38369132,-1.45195865,-2.03361511,3.07283210,2.73667764,-1.79946144,-0.27160645,-1.47103214,-2.03399658,-0.09277344,-0.00488281,-0.13183594,-0.77636719,0.07324219,-0.01464844,-2.97584534,-0.18513848,-0.18577576,-0.02441406
1.58621407,565,3.05414008,2.73629617,-1.90551003,-0.41236877,-1.46912479,-2.70004272,3.00944511,2.74278115,-1.90587277,-0.38651154,-1.45195865,-2.03361511,3.07206916,2.73629617,-1.80136879,-0.28038025,-1.47026920,-2.03399658,-0.06835938,-0.00488281,-0.12695312,-0.62988281,0.07324219,-0.02929688,-2.97584534,-0.18524796,-0.18577576,-0.02441406
1.59967542,570,3.05108832,2.73629617,-1.90665444,-0.41618347,-1.46912479,-2.70004272,3.00642265,2.74278115,-1.90710338,-0.38958777,-1.45195865,-2.03361511,3.07054328,2.73667764,-1.80327614,-0.28877258,-1.46950626,-2.03399658,-0.10742188,-0.00488281,-0.13183594,-0.60058594,0.08789062,-0.02929688,-2.97584534,-0.18522427,-0.18577576,-0.02441406
1.61570787,575,3.04727362,2.73629617,-1.90818032,-0.42266846,-1.46912479,-2.70004272,3.00283826,2.74278115,-1.90857157,-0.39434298,-1.45198990,-2.03361511,3.06939887,2.73667764,-1.80556496,-0.29678345,-1.46836185,-2.03399658,-0.10253906,0.00000000,-0.14648438,-0.49804688,0.08789062,-0.02929688,-2.97584534,-0.18513838,-0.18577576,-0.02441406
1.62834072,580,3.04460334,2.73629617,-1.90894326,-0.43029785,-1.46950626,-2.70004272,2.99976688,2.74278115,-1.90965789,-0.40084892,-1.45222536,-2.03361511,3.06825446,2.73667764,-1.80747231,-0.30212402,-1.46683597,-2.03399658,-0.09277344,0.00488281,-0.12695312,-0.41015625,0.10253906,-0.02929688,-2.97546387,-0.18506019,-0.18577576,-0.04882812
1.64310241,585,3.04155158,2.73629617,-1.90970620,-0.44021606,-1.46950626,-2.70004272,2.99646748,2.74278115,-1.91064593,-0.40971297,-1.45230252,-2.03361511,3.06711005,2.73667764,-1.80937966,-0.30899048,-1.46492862,-2.03399658,-0.09765625,-0.00488281,-0.12695312,-0.49804688,0.17578125,0.00000000,-2.97584534,-0.18512465,-0.18539429,0.00000000
1.65868616,590,3.03888129,2.73629617,-1.91085060,-0.45471191,-1.46950626,-2.70004272,2.99370091,2.74278115,-1.91165903,-0.42121446,-1.45232780,-2.03361511,3.06558417,2.73667764,-1.81128701,-0.31738281,-1.46263980,-2.03399658,-0.08789062,-0.00488281,-0.14160156,-0.58593750,0.17578125,0.00000000,-2.97584534,-0.18512136,-0.18577576,-0.02441406
1.67432857,595,3.03582953,2.73629617,-1.91237648,-0.47454834,-1.46950626,-2.70004272,2.99081291,2.74278115,-1.91288553,-0.43669567,-1.45233608,-2.03361511,3.06405829,2.73667764,-1.81319435,-0.32577515,-1.46111392,-2.03399658,-0.11230469,0.00000000,-0.13183594,-0.55664062,0.08789062,0.00000000,-2.97546387,-0.18507414,-0.18577576,-0.02441406
1.68753672,600,3.03392218,2.73629617,-1.91313942,-0.48980713,-1.46950626,-2.70004272,2.98854370,2.74278115,-1.91390193,-0.45203418,-1.45233880,-2.03361511,3.06291388,2.73667764,-1.81472023,-0.33302307,-1.46111392,-2.03399658,-0.09765625,0.00000000,-0.12207031,-0.62988281,0.02929688,-0.01464844,-2.97584534,-0.18522688,-0.18539429,-0.04882812
1.70072389,605,3.03239630,2.73629617,-1.91428383,-0.50392151,-1.46988773,-2.70004272,2.98661555,2.74278115,-1.91492480,-0.46743982,-1.45252584,-2.03361511,3.06138800,2.73705911,-1.81662758,-0.34179688,-1.46073245,-2.03399658,-0.10253906,0.00488281,-0.13183594,-0.64453125,0.04394531,-0.01464844,-2.97584534,-0.18533943,-0.18577576,0.00000000
1.71507263,610,3.03048896,2.73629617,-1.91504677,-0.52375793,-1.46988773,-2.70004272,2.98471115,2.74278115,-1.91591354,-0.48546108,-1.45265745,-2.03361511,3.05986212,2.73705911,-1.81891640,-0.35133362,-1.46035098,-2.03399658,-0.11718750,0.00000000,-0.14160156,-0.65917969,0.05859375,-0.01464844,-2.97546387,-0.18522372,-0.18577576,0.00000000
1.73095584,615,3.02896308,2.73629617,-1.91580971,-0.54473877,-1.47026920,-2.70004272,2.98281075,2.74278115,-1.91665819,-0.50523386,-1.45288673,-2.03361511,3.05833625,2.73705911,-1.82120522,-0.36277771,-1.45996952,-2.03399658,-0.10742188,0.00000000,-0.13671875,-0.71777344,0.01464844,-0.01464844,-2.97584534,-0.18513820,-0.18577576,-0.04882812
1.74634314,620,3.02705573,2.73629617,-1.91619118,-0.56991577,-1.47026920,-2.70004272,2.98108585,2.74278115,-1.91733884,-0.52523386,-1.45303217,-2.03361511,3.05681037,2.73705911,-1.82311257,-0.37460327,-1.45996952,-2.03399658,-0.09277344,0.00000000,-0.13183594,-0.77636719,0.02929688,-0.01464844,-2.97584534,-0.18513459,-0.18539429,0.00000000
1.76043606,625,3.02629279,2.73629617,-1.91619118,-0.58555603,-1.47026920,-2.70004272,2.97982753,2.74278115,-1.91759312,-0.54523386,-1.45307983,-2.03361511,3.05528449,2.73744058,-1.82501992,-0.38490295,-1.45958805,-2.03399658,-0.09765625,0.00488281,-0.13183594,-0.79101562,0.02929688,-0.01464844,-2.97584534,-0.18524669,-0.18577576,-0.02441406
1.77603960,630,3.02552985,2.73629617,-1.91619118,-0.60691833,-1.47026920,-2.70004272,2.97875187,2.74278115,-1.91767645,-0.56523386,-1.45309545,-2.03361511,3.05414008,2.73744058,-1.82654579,-0.39596558,-1.45882511,-2.03399658,-0.10253906,0.00976562,-0.12695312,-0.79101562,0.04394531,-0.01464844,-2.97584534,-0.18534592,-0.18577576,-0.02441406
1.79121852,635,3.02476691,2.73629617,-1.91619118,-0.62828064,-1.47065067,-2.70004272,2.97800559,2.74278115,-1.91770375,-0.58523386,-1.45335704,-2.03361511,3.05261420,2.73782205,-1.82883461,-0.40969849,-1.45729923,-2.03399658,-0.10253906,0.00488281,-0.11230469,-0.80566406,0.10253906,-0.01464844,-2.97584534,-0.18537844,-0.18577576,0.00000000
1.80414462,640,3.02476691,2.73629617,-1.91619118,-0.64201355,-1.47141361,-2.70004272,2.97764192,2.74278115,-1.91771270,-0.60465704,-1.45376624,-2.03361511,3.05108832,2.73782205,-1.82997902,-0.41999817,-1.45615482,-2.03399658,-0.12207031,0.01464844,-0.11718750,-0.86425781,0.08789062,-0.02929688,-2.97584534,-0.18538909,-0.18577576,-0.04882812
1.82051873,645,3.02438544,2.73629617,-1.91619118,-0.65879822,-1.47255802,-2.70004272,2.97739762,2.74278115,-1.91771563,-0.62211314,-1.45466974,-2.03361511,3.04918097,2.73820352,-1.83226784,-0.43487549,-1.45462894,-2.03399658,-0.12695312,0.00976562,-0.11718750,-0.83496094,0.10253906,-0.01464844,-2.97584534,-0.18539259,-0.18577576,-0.02441406
1.83505630,650,3.02438544,2.73629617,-1.91619118,-0.66871643,-1.47332096,-2.70004272,2.97718623,2.74278115,-1.91771659,-0.63590665,-1.45559787,-2.03361511,3.04765509,2.73858499,-1.83341225,-0.44708252,-1.45424747,-2.03399658,-0.09277344,0.00488281,-0.10742188,-0.83496094,0.01464844,-0.01464844,-2.97584534,-0.18539373,-0.18577576,-0.04882812
1.84742045,655,3.02438544,2.73629617,-1.91619118,-0.67672729,-1.47332096,-2.70004272,2.97711696,2.74278115,-1.91771691,-0.64592467,-1.45597232,-2.03361511,3.04651068,2.73858499,-1.83493813,-0.45661926,-1.45462894,-2.03399658,-0.10253906,-0.00488281,-0.10253906,-0.82031250,-0.01464844,-0.01464844,-2.97584534,-0.18521832,-0.18577576,-0.02441406
1.86175561,660,3.02438544,2.73629617,-1.91619118,-0.68321228,-1.47332096,-2.70004272,2.97715529,2.74278115,-1.91771701,-0.65367674,-1.45609502,-2.03361511,3.04536628,2.73858499,-1.83646401,-0.46730042,-1.45424747,-2.03399658,-0.08789062,-0.00488281,-0.09765625,-0.84960938,0.01464844,-0.01464844,-2.97584534,-0.18527413,-0.18577576,-0.02441406
1.87537837,665,3.02438544,2.73629617,-1.91619118,-0.68778992,-1.47332096,-2.70004272,2.97710682,2.74278115,-1.91771704,-0.65997768,-1.45613522,-2.03361511,3.04384040,2.73858499,-1.83837136,-0.47950745,-1.45462894,-2.03399658,-0.09765625,0.00000000,-0.10253906,-0.77636719,-0.00000000,-0.01464844,-2.97546387,-0.18513983,-0.18577576,-0.02441406
1.88897014,670,3.02438544,2.73629617,-1.91619118,-0.69007874,-1.47332096,-2.70004272,2.97709094,2.74278115,-1.91771705,-0.66411097,-1.45614840,-2.03361511,3.04269599,2.73858499,-1.83951577,-0.48942566,-1.45501041,-2.03399658,-0.11230469,-0.00488281,-0.12207031,-0.82031250,-0.01464844,-0.01464844,-2.97546387,-0.18503625,-0.18577576,-0.04882812
1.90463972,675,3.02438544,2.73629617,-1.91619118,-0.69122314,-1.47332096,-2.70004272,2.97708573,2.74278115,-1.91771706,-0.66636759,-1.45615271,-2.03361511,3.04117011,2.73858499,-1.84142311,-0.50277710,-1.45501041,-2.03399658,-0.07812500,-0.00488281,-0.12207031,-0.80566406,0.01464844,-0.01464844,-2.97584534,-0.18517931,-0.18577576,-0.02441406
1.91953111,680,3.02438544,2.73629617,-1.91619118,-0.69122314,-1.47332096,-2.70004272,2.97708403,2.74278115,-1.91771706,-0.66717735,-1.45615413,-2.03361511,3.04002570,2.73858499,-1.84294899,-0.51307678,-1.45501041,-2.03399658,-0.09765625,-0.00488281,-0.10742188,-0.82031250,0.01464844,-0.02929688,-2.97584534,-0.18532384,-0.18539429,0.00000000
1.93388581,685,3.02400397,2.73629617,-1.91619118,-0.69122314,-1.47332096,-2.70004272,2.97682700,2.74278115,-1.91771706,-0.66744270,-1.45615459,-2.03361511,3.03888129,2.73858499,-1.84447487,-0.52490234,-1.45501041,-2.03399658,-0.08300781,0.00000000,-0.09765625,-0.83496094,0.01464844,0.00000000,-2.97584534,-0.18517101,-0.18539429,-0.02441406
1.94672012,690,3.02400397,2.73629617,-1.91619118,-0.69122314,-1.47293949,-2.70004272,2.97674277,2.74278115,-1.91771706,-0.66752964,-1.45607845,-2.03361511,3.03773688,2.73858499,-1.84561928,-0.53558350,-1.45462894,-2.03399658,-0.09765625,-0.00488281,-0.06835938,-0.77636719,0.02929688,-0.01464844,-2.97584534,-0.18510140,-0.18577576,-0.04882812
1.96127319,695,3.02400397,2.73629617,-1.91657265,-0.69122314,-1.47332096,-2.70004272,2.97671518,2.74278115,-1.91785439,-0.66755814,-1.45612979,-2.03361511,3.03659247,2.73858499,-1.84676369,-0.54702759,-1.45501041,-2.03399658,-0.08300781,-0.00488281,-0.08789062,-0.77636719,0.01464844,-0.02929688,-2.97584534,-0.18517624,-0.18539429,-0.02441406
1.97560740,700,3.02400397,2.73629617,-1.91695412,-0.69122314,-1.47332096,-2.70004272,2.97670613,2.74278115,-1.91809482,-0.66756747,-1.45611537,-2.03361511,3.03544806,2.73858499,-1.84790810,-0.55656433,-1.45462894,-2.03399658,-0.08300781,-0.00488281,-0.08789062,-0.64453125,0.01464844,-0.02929688,-2.97584534,-0.18522518,-0.18539429,-0.02441406
1.99121928,705,3.02400397,2.73629617,-1.91809853,-0.69122314,-1.47332096,-2.70004272,2.97670317,2.74278115,-1.91884146,-0.66757053,-1.45608086,-2.03361511,3.03392218,2.73858499,-1.84943398,-0.56610107,-1.45501041,-2.03399658,-0.08789062,0.00000000,-0.08300781,-0.58593750,-0.00000000,0.00000000,-2.97584534,-0.18527637,-0.18539429,-0.02441406
2.00621867,710,3.02400397,2.73629617,-1.91924294,-0.69122314,-1.47293949,-2.70004272,2.97670220,2.74278115,-1.91985552,-0.66757153,-1.45587411,-2.03361511,3.03315924,2.73858499,-1.85095986,-0.57411194,-1.45501041,-2.03399658,-0.05859375,0.00000000,-0.07324219,-0.49804688,-0.00000000,0.00000000,-2.97584534,-0.18525799,-0.18577576,-0.02441406
2.01939082,715,3.02400397,2.73667764,-1.92000588,-0.69046021,-1.47293949,-2.70004272,2.97670188,2.74291848,-1.92079303,-0.66712923,-1.45580637,-2.03361511,3.03163337,2.73896646,-1.85210427,-0.58135986,-1.45501041,-2.03399658,-0.09277344,0.00000000,-0.09765625,-0.49804688,-0.02929688,-0.02929688,-2.97584534,-0.18520900,-0.18577576,-0.02441406
2.03296733,720,3.02400397,2.73667764,-1.92076882,-0.68969727,-1.47293949,-2.70004272,2.97670178,2.74308262,-1.92162246,-0.66652019,-1.45578417,-2.03361511,3.03087043,2.73896646,-1.85363015,-0.58708191,-1.45539188,-2.03399658,-0.08300781,0.00976562,-0.08789062,-0.48339844,-0.01464844,-0.01464844,-2.97584534,-0.18521150,-0.18577576,-0.02441406
2.04691982,725,3.02400397,2.73667764,-1.92115029,-0.68931580,-1.47293949,-2.70004272,2.97670174,2.74313641,-1.92221175,-0.66597626,-1.45577689,-2.03361511,3.02972602,2.73896646,-1.85477455,-0.59280396,-1.45539188,-2.03399658,-0.08789062,0.00000000,-0.08300781,-0.48339844,0.01464844,-0.01464844,-2.97546387,-0.18508415,-0.18577576,-0.04882812
2.06199741,730,3.02400397,2.73667764,-1.92191323,-0.68855286,-1.47293949,-2.70004272,2.97670173,2.74315403,-1.92273761,-0.66543401,-1.45577451,-2.03361511,3.02858161,2.73896646,-1.85591896,-0.59928894,-1.45539188,-2.03399658,-0.06835938,0.00488281,-0.08789062,-0.39550781,0.01464844,-0.01464844,-2.97584534,-0.18517059,-0.18577576,-0.04882812
2.07741904,735,3.02400397,2.73705911,-1.92267617,-0.68817139,-1.47293949,-2.70004272,2.97670173,2.74323610,-1.92347169,-0.66493882,-1.45577373,-2.03361511,3.02781867,2.73934792,-1.85706337,-0.60424805,-1.45501041,-2.03399658,-0.08300781,0.00976562,-0.08789062,-0.36621094,0.04394531,-0.02929688,-2.97584534,-0.18524286,-0.18577576,-0.02441406
2.09081841,740,3.02362250,2.73820352,-1.92343911,-0.68740845,-1.47293949,-2.70004272,2.97662543,2.74382098,-1.92422517,-0.66432465,-1.45577347,-2.03361511,3.02667426,2.73934792,-1.85820778,-0.60844421,-1.45501041,-2.03399658,-0.07324219,0.00976562,-0.07812500,-0.30761719,0.02929688,-0.01464844,-2.97584534,-0.18534467,-0.18577576,-0.04882812
2.10460639,745,3.02362250,2.73972939,-1.92420204,-0.68626404,-1.47293949,-2.70004272,2.97642025,2.74498040,-1.92504605,-0.66350438,-1.45577339,-2.03361511,3.02591132,2.73934792,-1.85973366,-0.61187744,-1.45539188,-2.03399658,-0.07812500,0.00488281,-0.08300781,-0.27832031,0.01464844,-0.01464844,-2.97584534,-0.18515830,-0.18539429,-0.02441406
2.11558509,750,3.02362250,2.74087380,-1.92534645,-0.68397522,-1.47293949,-2.70004272,2.97635302,2.74624887,-1.92597458,-0.66194727,-1.45577336,-2.03361511,3.02514838,2.73972939,-1.86087807,-0.61569214,-1.45539188,-2.03399658,-0.09277344,0.00488281,-0.08300781,-0.30761719,0.01464844,-0.01464844,-2.97546387,-0.18516437,-0.18577576,-0.02441406
2.12929344,755,3.02362250,2.74316262,-1.92687233,-0.68054199,-1.47255802,-2.70004272,2.97633099,2.74805295,-1.92724222,-0.65929824,-1.45563602,-2.03361511,3.02438544,2.73972939,-1.86202248,-0.61912537,-1.45501041,-2.03399658,-0.06835938,-0.00488281,-0.07324219,-0.24902344,0.02929688,-0.02929688,-2.97584534,-0.18531895,-0.18539429,-0.04882812
2.14334846,760,3.02362250,2.74735879,-1.92839821,-0.67367554,-1.47255802,-2.70004272,2.97632377,2.75092524,-1.92864442,-0.65473562,-1.45547188,-2.03361511,3.02324103,2.73972939,-1.86354836,-0.62294006,-1.45539188,-2.03399658,-0.08300781,0.00000000,-0.09765625,-0.24902344,-0.00000000,-0.01464844,-2.97546387,-0.18515451,-0.18539429,-0.04882812
2.15619040,765,3.02324103,2.75079202,-1.92992409,-0.66680908,-1.47255802,-2.70004272,2.97609619,2.75442368,-1.93022986,-0.64840778,-1.45541809,-2.03361511,3.02209662,2.73972939,-1.86431130,-0.62522888,-1.45539188,-2.03399658,-0.07324219,0.00488281,-0.06347656,-0.20507812,0.01464844,-0.02929688,-2.97584534,-0.18525322,-0.18577576,-0.02441406
2.16897273,770,3.02285956,2.75575112,-1.93259438,-0.65612793,-1.47255802,-2.70004272,2.97573389,2.75860484,-1.93229418,-0.63975322,-1.45540047,-2.03361511,3.02171515,2.74011086,-1.86545571,-0.62675476,-1.45539188,-2.03399658,-0.04882812,0.00488281,-0.08300781,-0.13183594,0.02929688,0.00000000,-2.97546387,-0.18507340,-0.18577576,-0.02441406
2.18496251,775,3.02209662,2.76185464,-1.93602761,-0.64277649,-1.47217655,-2.70004272,2.97522138,2.76375325,-1.93511625,-0.62884027,-1.45520854,-2.03361511,3.02057074,2.74011086,-1.86698159,-0.62866211,-1.45539188,-2.03399658,-0.07812500,0.01464844,-0.10253906,-0.13183594,-0.00000000,-0.01464844,-2.97584534,-0.18508894,-0.18539429,-0.02441406
2.20046759,780,3.02133368,2.77139138,-1.94098671,-0.62522888,-1.47065067,-2.70004272,2.97460153,2.77092380,-1.93881699,-0.61471084,-1.45444105,-2.03361511,3.01980780,2.74049233,-1.86850746,-0.62942505,-1.45539188,-2.03399658,-0.04394531,0.01464844,-0.07812500,-0.04394531,0.04394531,0.00000000,-2.97584534,-0.18523173,-0.18577576,-0.02441406
2.21249700,785,3.02095221,2.77749490,-1.94480141,-0.61416626,-1.46988773,-2.70004272,2.97408092,2.77827539,-1.94293321,-0.60104124,-1.45353551,-2.03361511,3.01904486,2.74087380,-1.86965187,-0.62904358,-1.45539188,-2.03399658,-0.07812500,0.02929688,-0.08300781,0.00000000,0.02929688,-0.01464844,-2.97546387,-0.18512593,-0.18539429,-0.04882812
2.22926307,790,3.02095221,2.78932046,-1.95166787,-0.59700012,-1.46721744,-2.70004272,2.97379118,2.78710075,-1.94813528,-0.58642026,-1.45180531,-2.03361511,3.01790045,2.74201821,-1.87117775,-0.62828064,-1.45539188,-2.03399658,-0.05859375,0.03906250,-0.10253906,0.05859375,0.01464844,-0.01464844,-2.97584534,-0.18508663,-0.18577576,-0.04882812
2.24308848,795,3.02095221,2.79694985,-1.95586403,-0.58746338,-1.46492862,-2.70004272,2.97369624,2.79704537,-1.95383196,-0.57239037,-1.44933919,-2.03361511,3.01713752,2.74239968,-1.87270363,-0.62561035,-1.45539188,-2.03399658,-0.05859375,0.04394531,-0.09765625,0.20507812,0.01464844,-0.01464844,-2.97584534,-0.18523097,-0.18577576,-0.04882812
2.25805664,800,3.02095221,2.80953835,-1.96311196,-0.57563782,-1.46263980,-2.70004272,2.97366513,2.80734224,-1.95966533,-0.56065548,-1.44714120,-2.03361511,3.01599311,2.74354409,-1.87384804,-0.62141418,-1.45501041,-2.03399658,-0.06347656,0.06835938,-0.08789062,0.30761719,0.02929688,-0.01464844,-2.97584534,-0.18520015,-0.18577576,-0.02441406
2.27131605,805,3.02095221,2.82021951,-1.96883400,-0.56877136,-1.46187686,-2.70004272,2.97365494,2.81810547,-1.96570803,-0.55160096,-1.44560871,-2.03361511,3.01561164,2.74468850,-1.87537392,-0.61798096,-1.45501041,-2.03399658,-0.03906250,0.06347656,-0.11230469,0.26367188,0.02929688,0.00000000,-2.97584534,-0.18533067,-0.18539429,-0.02441406
2.28470397,810,3.02095221,2.83166360,-1.97531899,-0.56266785,-1.46111392,-2.70004272,2.97365159,2.82951640,-1.97194799,-0.54420771,-1.44464243,-2.03361511,3.01446723,2.74621438,-1.87728127,-0.61225891,-1.45424747,-2.03399658,-0.07324219,0.11230469,-0.10742188,0.38085938,0.05859375,0.01464844,-2.97584534,-0.18517325,-0.18577576,0.00000000
2.29909396,815,3.02095221,2.84310769,-1.98104103,-0.55694580,-1.46111392,-2.70004272,2.97365050,2.84122209,-1.97819619,-0.53776177,-1.44417541,-2.03361511,3.01370429,2.74735879,-1.87880715,-0.60691833,-1.45424747,-2.03399658,-0.06835938,0.12207031,-0.12207031,0.41015625,0.02929688,0.00000000,-2.97584534,-0.18519979,-0.18577576,-0.02441406
2.31314707,820,3.02095221,2.85607766,-1.98752602,-0.55198669,-1.46111392,-2.70004272,2.97365014,2.85309028,-1.98424616,-0.53240335,-1.44402237,-2.03361511,3.01332282,2.74926614,-1.88071450,-0.60157776,-1.45386600,-2.03399658,-0.04882812,0.12207031,-0.13183594,0.36621094,0.02929688,-0.04394531,-2.97546387,-0.18517797,-0.18577576,-0.04882812
2.32704949,825,3.02095221,2.87019204,-1.99439247,-0.54779053,-1.46111392,-2.70004272,2.97365002,2.86563562,-1.99053355,-0.52783855,-1.44397223,-2.03361511,3.01255988,2.75117349,-1.88262184,-0.59738159,-1.45386600,-2.03399658,-0.06347656,0.12695312,-0.14648438,0.33691406,0.04394531,-0.01464844,-2.97546387,-0.18503019,-0.18577576,-0.04882812
2.34295845,830,3.02095221,2.88392495,-2.00087746,-0.54435730,-1.46111392,-2.70004272,2.97364999,2.87841640,-1.99676580,-0.52402085,-1.44400462,-2.03361511,3.01141547,2.75384377,-1.88491066,-0.59127808,-1.45272159,-2.03399658,-0.04882812,0.16601562,-0.13671875,0.35156250,0.05859375,-0.02929688,-2.97584534,-0.18527498,-0.18577576,-0.02441406
2.35480738,835,3.02095221,2.89269875,-2.00469216,-0.54206848,-1.46149539,-2.70004272,2.97364997,2.89110721,-2.00256018,-0.52062460,-1.44410374,-2.03361511,3.01103400,2.75575112,-1.88681801,-0.58631897,-1.45272159,-2.03399658,-0.04394531,0.15625000,-0.13671875,0.35156250,0.02929688,-0.02929688,-2.97584534,-0.18517941,-0.18577576,-0.02441406
2.37197137,840,3.02095221,2.90910195,-2.01194008,-0.53787231,-1.46149539,-2.70004272,2.97364997,2.90480322,-2.00868044,-0.51702893,-1.44425536,-2.03361511,3.01027106,2.75842141,-1.88910683,-0.58135986,-1.45234012,-2.03399658,-0.06835938,0.17089844,-0.15136719,0.29296875,0.02929688,-0.01464844,-2.97584534,-0.18532388,-0.18577576,-0.04882812
2.38512158,845,3.02095221,2.92321633,-2.01842507,-0.53367615,-1.46149539,-2.70004272,2.97364997,2.91861204,-2.01486281,-0.51322192,-1.44430504,-2.03361511,3.00950812,2.76109170,-1.89139565,-0.57678223,-1.45157718,-2.03437805,-0.06347656,0.18066406,-0.15136719,0.32226562,0.07324219,-0.02929688,-2.97584534,-0.18529309,-0.18577576,-0.02441406
2.39653945,850,3.02095221,2.93313455,-2.02300270,-0.53062439,-1.46149539,-2.70004272,2.97364997,2.93059468,-2.02029148,-0.50972102,-1.44432132,-2.03361511,3.00912665,2.76338052,-1.89330300,-0.57258606,-1.45081424,-2.03399658,-0.02441406,0.20507812,-0.15136719,0.33691406,0.05859375,-0.02929688,-2.97584534,-0.18529863,-0.18577576,-0.02441406
2.40937209,855,3.02095221,2.94534158,-2.02834328,-0.52719116,-1.46149539,-2.70004272,2.97364997,2.94148649,-2.02523514,-0.50645800,-1.44432666,-2.03361511,3.00836371,2.76566934,-1.89521035,-0.56915283,-1.45081424,-2.03399658,-0.05859375,0.19531250,-0.15625000,0.26367188,0.04394531,0.00000000,-2.97584534,-0.18530044,-0.18577576,-0.02441406
2.42555141,860,3.02095221,2.96060037,-2.03559120,-0.52299500,-1.46149539,-2.70004272,2.97364997,2.95522397,-2.03157566,-0.50262278,-1.44432840,-2.03361511,3.00721930,2.77024697,-1.89826210,-0.56304932,-1.45043277,-2.03399658,-0.05859375,0.24902344,-0.17089844,0.27832031,0.02929688,0.00000000,-2.97546387,-0.18521095,-0.18539429,0.00000000
2.44058228,865,3.02095221,2.97357034,-2.04169472,-0.51994324,-1.46149539,-2.70004272,2.97364997,2.96974964,-2.03833984,-0.49881772,-1.44432898,-2.03361511,3.00721930,2.77329873,-1.90093239,-0.55847168,-1.45005130,-2.03399658,-0.02929688,0.24902344,-0.16601562,0.32226562,0.02929688,0.00000000,-2.97584534,-0.18533421,-0.18539429,-0.02441406
2.46010613,870,3.02095221,2.99226235,-2.05084999,-0.51651001,-1.46149539,-2.70004272,2.97364997,2.98603004,-2.04624334,-0.49539253,-1.44432916,-2.03361511,3.00607489,2.77863931,-1.90474709,-0.55236816,-1.44928836,-2.03399658,-0.05859375,0.25390625,-0.17578125,0.29296875,0.05859375,0.00000000,-2.97584534,-0.18525253,-0.18539429,-0.02441406
2.47181201,875,3.02095221,3.00446938,-2.05695351,-0.51498413,-1.46149539,-2.70004272,2.97364997,3.00012701,-2.05313590,-0.49297622,-1.44432923,-2.03361511,3.00531195,2.78207253,-1.90665444,-0.54817200,-1.44852542,-2.03399658,-0.05859375,0.26855469,-0.18066406,0.35156250,0.05859375,-0.01464844,-2.97584534,-0.18528534,-0.18577576,0.00000000
2.48571587,880,3.02095221,3.01743936,-2.06305703,-0.51460266,-1.46149539,-2.70004272,2.97364997,3.01278268,-2.05930509,-0.49168530,-1.44432925,-2.03361511,3.00493048,2.78626870,-1.90970620,-0.54321289,-1.44738101,-2.03399658,-0.04394531,0.29296875,-0.18554688,0.32226562,0.08789062,-0.02929688,-2.97584534,-0.18535859,-0.18539429,-0.02441406
2.50007677,885,3.02095221,3.02735757,-2.06839760,-0.51422119,-1.46149539,-2.70004272,2.97364997,3.02433570,-2.06509493,-0.49105465,-1.44432925,-2.03361511,3.00454901,2.79046487,-1.91237648,-0.53939819,-1.44699954,-2.03399658,-0.04394531,0.28320312,-0.18066406,0.23437500,0.02929688,-0.01464844,-2.97584534,-0.18526052,-0.18577576,-0.02441406
2.51502323,890,3.02095221,3.04261636,-2.07564553,-0.51422119,-1.46149539,-2.70004272,2.97364997,3.03791143,-2.07178254,-0.49072886,-1.44432926,-2.03361511,3.00340461,2.79542397,-1.91542824,-0.53596497,-1.44699954,-2.03399658,-0.05371094,0.30273438,-0.19531250,0.19042969,0.02929688,-0.01464844,-2.97546387,-0.18502208,-0.18577576,0.00000000
2.52802968,895,3.02095221,3.04910134,-2.07907875,-0.51422119,-1.46149539,-2.70004272,2.97364997,3.04875360,-2.07718451,-0.49062210,-1.44432926,-2.03361511,3.00340461,2.79847573,-1.91733559,-0.53405762,-1.44661807,-2.03399658,-0.04394531,0.32226562,-0.20507812,0.19042969,0.02929688,-0.01464844,-2.97546387,-0.18493517,-0.18577576,-0.02441406
2.54730511,900,3.02095221,3.06130837,-2.08518227,-0.51383972,-1.46149539,-2.70004272,2.97364997,3.06002023,-2.08271537,-0.49040096,-1.44432926,-2.03361511,3.00264167,2.80381631,-1.92076882,-0.53062439,-1.44661807,-2.03399658,-0.04394531,0.34179688,-0.21484375,0.19042969,-0.00000000,-0.01464844,-2.97584534,-0.18512177,-0.18577576,-0.02441406
2.56040478,905,3.02095221,3.07542275,-2.09128579,-0.51383972,-1.46149539,-2.70004272,2.97364997,3.07284013,-2.08867079,-0.49025819,-1.44432926,-2.03361511,3.00187873,2.81030129,-1.92496498,-0.52680969,-1.44661807,-2.03399658,-0.05371094,0.34179688,-0.20507812,0.21972656,0.04394531,-0.01464844,-2.97584534,-0.18530499,-0.18577576,-0.02441406
2.57171273,910,3.02095221,3.08228921,-2.09433754,-0.51383972,-1.46149539,-2.70004272,2.97364997,3.08278730,-2.09317451,-0.49021140,-1.44432926,-2.03361511,3.00149726,2.81373452,-1.92725380,-0.52413940,-1.44661807,-2.03399658,-0.04394531,0.35644531,-0.20996094,0.24902344,0.01464844,-0.01464844,-2.97546387,-0.18491459,-0.18577576,-0.02441406
2.58663249,915,3.02095221,3.09411477,-2.09891518,-0.51383972,-1.46149539,-2.70004272,2.97364997,3.09254813,-2.09723818,-0.49019607,-1.44432926,-2.03361511,3.00073432,2.81945657,-1.93068703,-0.52146912,-1.44661807,-2.03399658,-0.03906250,0.37597656,-0.21484375,0.14648438,0.01464844,-0.01464844,-2.97584534,-0.18523710,-0.18577576,-0.02441406
2.60164762,920,3.02095221,3.10327004,-2.10234841,-0.51383972,-1.46149539,-2.70004272,2.97364997,3.10213620,-2.10090582,-0.49019105,-1.44432926,-2.03361511,3.00035285,2.82479714,-1.93373879,-0.51841736,-1.44661807,-2.03399658,-0.02441406,0.34667969,-0.21484375,0.20507812,-0.00000000,-0.01464844,-2.97546387,-0.18519019,-0.18577576,0.00000000
2.61702824,925,3.02095221,3.11433267,-2.10616310,-0.51383972,-1.46149539,-2.70004272,2.97364997,3.11191438,-2.10445456,-0.49018940,-1.44432926,-2.03361511,2.99958991,2.83128213,-1.93755349,-0.51574707,-1.44585514,-2.03399658,-0.04394531,0.36132812,-0.20996094,0.13183594,0.05859375,-0.01464844,-2.97584534,-0.18532741,-0.18577576,-0.02441406
2.62879562,930,3.02095221,3.12119912,-2.10807045,-0.51345825,-1.46149539,-2.70004272,2.97364997,3.12120320,-2.10747935,-0.49005153,-1.44432926,-2.03361511,2.99920844,2.83547830,-1.94022377,-0.51498413,-1.44585514,-2.03399658,-0.04882812,0.38085938,-0.22460938,0.07324219,0.01464844,0.00000000,-2.97584534,-0.18537237,-0.18577576,-0.02441406
2.64456153,935,3.02095221,3.13073586,-2.11112221,-0.51383972,-1.46149539,-2.70004272,2.97364997,3.12983156,-2.11029375,-0.49011243,-1.44432926,-2.03361511,2.99882697,2.84158181,-1.94365700,-0.51383972,-1.44585514,-2.03399658,-0.02441406,0.37109375,-0.20507812,0.08789062,0.01464844,0.00000000,-2.97546387,-0.18523452,-0.18577576,-0.02441406
2.65714574,940,3.02095221,3.13760232,-2.11302956,-0.51383972,-1.46149539,-2.70004272,2.97364997,3.13792233,-2.11281913,-0.49016364,-1.44432926,-2.03361511,2.99844550,2.84615945,-1.94632729,-0.51231384,-1.44585514,-2.03399658,-0.03906250,0.36621094,-0.21484375,0.13183594,-0.00000000,0.00000000,-2.97546387,-0.18506728,-0.18577576,-0.04882812
2.67287397,945,3.02095221,-3.13719065,-2.11569985,-0.51383972,-1.46149539,-2.70004272,2.97364997,3.14632962,-2.11544193,-0.49013159,-1.44432926,-2.03361511,2.99806403,2.85188149,-1.94976052,-0.50964355,-1.44585514,-2.03399658,-0.03417969,0.38574219,-0.21484375,0.10253906,0.01464844,-0.01464844,-2.97546387,-0.18507204,-0.18577576,-0.02441406
2.68814754,950,3.02095221,-3.12956126,-2.11837014,-0.51345825,-1.46149539,-2.70004272,2.97364997,3.15395366,-2.11797751,-0.49009362,-1.44432926,-2.03361511,2.99691962,2.85760354,-1.95281227,-0.50773621,-1.44585514,-2.03399658,-0.06835938,0.36621094,-0.21972656,0.13183594,-0.00000000,-0.01464844,-2.97584534,-0.18519104,-0.18577576,-0.02441406
2.70220947,955,3.02095221,-3.12116893,-2.12142189,-0.51307678,-1.46149539,-2.70004272,2.97364997,3.16167529,-2.12062869,-0.48982471,-1.44432926,-2.03361511,2.99653815,2.86332559,-1.95624550,-0.50659180,-1.44547367,-2.03399658,-0.03417969,0.39550781,-0.22460938,0.05859375,0.02929688,-0.02929688,-2.97546387,-0.18493682,-0.18577576,-0.02441406
2.71475959,960,3.02095221,-3.11544688,-2.12332924,-0.51307678,-1.46149539,-2.70004272,2.97364997,3.16911067,-2.12310839,-0.48955642,-1.44432926,-2.03361511,2.99615668,2.86866616,-1.95929726,-0.50582886,-1.44547367,-2.03399658,-0.02929688,0.41015625,-0.21972656,0.02929688,0.01464844,-0.02929688,-2.97584534,-0.18518188,-0.18577576,-0.02441406
2.72643089,965,3.02095221,-3.10896189,-2.12561806,-0.51269531,-1.46149539,-2.70004272,2.97364997,3.17543735,-2.12533280,-0.48924329,-1.44432926,-2.03361511,2.99615668,2.87324380,-1.96158608,-0.50544739,-1.44547367,-2.03399658,-0.02441406,0.38574219,-0.21484375,0.02929688,-0.00000000,-0.04394531,-2.97584534,-0.18522703,-0.18577576,-0.02441406
2.73912215,970,3.02095221,-3.10362132,-2.12714394,-0.51231384,-1.46149539,-2.70004272,2.97364997,3.18138133,-2.12726775,-0.48897210,-1.44432926,-2.03361511,2.99577521,2.87820291,-1.96425637,-0.50468445,-1.44547367,-2.03399658,-0.03417969,0.40527344,-0.20507812,0.04394531,0.02929688,-0.01464844,-2.97584534,-0.18527698,-0.18577576,-0.04882812
2.75161839,975,3.02095221,-3.09828074,-2.12943276,-0.51231384,-1.46149539,-2.70004272,2.97364997,3.18690449,-2.12928729,-0.48876410,-1.44432926,-2.03361511,2.99501227,2.88316201,-1.96730812,-0.50315857,-1.44509220,-2.03399658,-0.05859375,0.39550781,-0.21484375,0.11718750,0.02929688,0.00000000,-2.97584534,-0.18521522,-0.18539429,-0.02441406
2.76553488,980,3.02095221,-3.09217723,-2.13172158,-0.51231384,-1.46149539,-2.70004272,2.97364997,3.19284274,-2.13147860,-0.48869594,-1.44432926,-2.03361511,2.99501227,2.88888406,-1.96997841,-0.50125122,-1.44509220,-2.03399658,-0.03417969,0.41015625,-0.20507812,0.13183594,0.02929688,-0.01464844,-2.97584534,-0.18533561,-0.18577576,-0.02441406
2.77802324,985,3.02095221,-3.08721812,-2.13324745,-0.51231384,-1.46149539,-2.70004272,2.97364997,3.19875062,-2.13351207,-0.48867361,-1.44432926,-2.03361511,2.99424933,2.89422463,-1.97303017,-0.49972534,-1.44509220,-2.03399658,-0.03906250,0.40527344,-0.21972656,0.10253906,0.02929688,0.00000000,-2.97546387,-0.18510040,-0.18577576,-0.02441406
2.79160690,990,3.02095221,-3.08111460,-2.13591774,-0.51231384,-1.46149539,-2.70004272,2.97364997,3.20399364,-2.13558648,-0.48866629,-1.44432926,-2.03361511,2.99424933,2.89956521,-1.97531899,-0.49896240,-1.44432926,-2.03399658,-0.01464844,0.41992188,-0.22460938,0.02929688,0.05859375,-0.01464844,-2.97584534,-0.18529799,-0.18539429,0.00000000
2.80586886,995,3.02095221,-3.07615550,-2.13782509,-0.51231384,-1.46149539,-2.70004272,2.97364997,3.20913123,-2.13771654,-0.48866389,-1.44432926,-2.03361511,2.99386786,2.90566873,-1.97875222,-0.49896240,-1.44432926,-2.03399658,-0.02441406,0.41503906,-0.20996094,0.00000000,0.02929688,-0.01464844,-2.97584534,-0.18536273,-0.18577576,-0.02441406
2.81813645,1000,3.02095221,-3.07195933,-2.13935097,-0.51193237,-1.46149539,-2.70004272,2.97364997,3.21426430,-2.13955954,-0.48847695,-1.44432926,-2.03361511,2.99348639,2.91062783,-1.98142250,-0.49858093,-1.44432926,-2.03399658,-0.03417969,0.40039062,-0.20996094,0.00000000,-0.00000000,0.00000000,-2.97584534,-0.18522379,-0.18577576,-0.02441406
2.83398867,1005,3.02095221,-3.06661875,-2.14125832,-0.51193237,-1.46149539,-2.70004272,2.97364997,3.21917116,-2.14127784,-0.48834538,-1.44432926,-2.03361511,2.99310492,2.91749429,-1.98485573,-0.49819946,-1.44432926,-2.03399658,-0.03417969,0.40039062,-0.20507812,0.02929688,0.01464844,0.00000000,-2.97584534,-0.18533842,-0.18539429,-0.02441406
2.84943986,1010,3.02095221,-3.06204112,-2.14278420,-0.51193237,-1.46149539,-2.70004272,2.97364997,3.22385668,-2.14298591,-0.48830226,-1.44432926,-2.03361511,2.99234198,2.92321633,-1.98790749,-0.49705505,-1.44432926,-2.03399658,-0.04882812,0.37109375,-0.20507812,0.05859375,0.01464844,0.00000000,-2.97584534,-0.18537598,-0.18577576,0.00000000
2.86510921,1015,3.02095221,-3.05746348,-2.14354714,-0.51155090,-1.46149539,-2.70004272,2.97364997,3.22833294,-2.14423872,-0.48821184,-1.44432926,-2.03361511,2.99196051,2.92893838,-1.99095925,-0.49591064,-1.44394779,-2.03399658,-0.02929688,0.38574219,-0.19042969,0.07324219,0.02929688,-0.01464844,-2.97584534,-0.18538829,-0.18539429,-0.02441406
2.87771344,1020,3.02095221,-3.05364878,-2.14469155,-0.51155090,-1.46149539,-2.70004272,2.97364997,3.23265935,-2.14541865,-0.48806307,-1.44432926,-2.03361511,2.99157904,2.93466042,-1.99362954,-0.49514771,-1.44432926,-2.03399658,-0.03417969,0.40039062,-0.19042969,0.04394531,-0.01464844,-0.01464844,-2.97584534,-0.18539232,-0.18577576,-0.04882812
2.89208508,1025,3.02095221,-3.04983409,-2.14545449,-0.51155090,-1.46149539,-2.70004272,2.97364997,3.23644152,-2.14631823,-0.48807243,-1.44432926,-2.03361511,2.99157904,2.94076394,-1.99668129,-0.49476624,-1.44432926,-2.03399658,-0.02441406,0.38574219,-0.20507812,0.00000000,0.01464844,0.00000000,-2.97546387,-0.18524106,-0.18539429,0.00000000
2.90532279,1030,3.02095221,-3.04754527,-2.14583596,-0.51155090,-1.46149539,-2.70004272,2.97364997,3.23998922,-2.14698862,-0.48798760,-1.44432926,-2.03361511,2.99119757,2.94534158,-1.99935158,-0.49400330,-1.44432926,-2.03399658,-0.03906250,0.39062500,-0.20019531,0.02929688,0.01464844,0.00000000,-2.97584534,-0.18534408,-0.18577576,-0.04882812
2.91919136,1035,3.02095221,-3.04296763,-2.14659890,-0.51155090,-1.46149539,-2.70004272,2.97364997,3.24373083,-2.14768217,-0.48792856,-1.44432926,-2.03361511,2.99043463,2.95144509,-2.00240334,-0.49362183,-1.44394779,-2.03399658,-0.02929688,0.40039062,-0.19042969,0.02929688,0.02929688,-0.02929688,-2.97584534,-0.18529971,-0.18577576,-0.02441406
2.93497109,1040,3.02095221,-3.03991587,-2.14736183,-0.51155090,-1.46149539,-2.70004272,2.97364997,3.24719809,-2.14834229,-0.48790921,-1.44437808,-2.03361511,2.99005316,2.95716714,-2.00507363,-0.49285889,-1.44394779,-2.03399658,-0.02929688,0.37597656,-0.17578125,0.02929688,0.01464844,-0.01464844,-2.97584534,-0.18526564,-0.18539429,-0.02441406
2.94798374,1045,3.02095221,-3.03686412,-2.14850624,-0.51155090,-1.46187686,-2.70004272,2.97364997,3.25063649,-2.14932801,-0.48790287,-1.44448259,-2.03361511,2.98967170,2.96136331,-2.00698098,-0.49285889,-1.44394779,-2.03399658,-0.03906250,0.37109375,-0.17578125,0.00000000,0.01464844,-0.02929688,-2.97584534,-0.18535213,-0.18577576,-0.02441406
2.96229076,1050,3.02095221,-3.03343089,-2.14926918,-0.51155090,-1.46149539,-2.70004272,2.97364997,3.25394006,-2.15021278,-0.48790079,-1.44437950,-2.03361511,2.98967170,2.96746682,-2.01003273,-0.49285889,-1.44394779,-2.03399658,-0.01464844,0.40039062,-0.16601562,-0.01464844,0.01464844,-0.02929688,-2.97584534,-0.18538047,-0.18539429,-0.02441406
2.97867298,1055,3.02095221,-3.02923472,-2.15041359,-0.51155090,-1.46149539,-2.70004272,2.97364997,3.25747411,-2.15122328,-0.48790011,-1.44434572,-2.03361511,2.98929023,2.97433328,-2.01308449,-0.49285889,-1.44432926,-2.03399658,-0.01953125,0.37109375,-0.18554688,0.00000000,0.01464844,0.00000000,-2.97584534,-0.18538976,-0.18577576,-0.02441406
2.99557304,1060,3.02095221,-3.02542002,-2.15155800,-0.51155090,-1.46149539,-2.70004272,2.97364997,3.26127693,-2.15219246,-0.48789989,-1.44439569,-2.03361511,2.98929023,2.98043679,-2.01651772,-0.49247742,-1.44394779,-2.03399658,-0.02929688,0.38085938,-0.17578125,0.00000000,0.04394531,-0.01464844,-2.97584534,-0.18529515,-0.18577576,-0.02441406
3.01016831,1065,3.02095221,-3.02236827,-2.15270241,-0.51155090,-1.46149539,-2.70004272,2.97364997,3.26466659,-2.15341080,-0.48789982,-1.44438227,-2.03361511,2.98890876,2.98615884,-2.01918801,-0.49209595,-1.44394779,-2.03399658,-0.02441406,0.38574219,-0.17578125,0.01464844,-0.01464844,-0.01464844,-2.97584534,-0.18523973,-0.18539429,-0.04882812
3.02446723,1070,3.02095221,-3.01893504,-2.15422829,-0.51155090,-1.46149539,-2.70004272,2.97364997,3.26799374,-2.15470455,-0.48789979,-1.44434663,-2.03361511,2.98852729,2.99111794,-2.02147683,-0.49171448,-1.44394779,-2.03399658,-0.02441406,0.37109375,-0.17578125,0.00000000,0.02929688,-0.01464844,-2.97584534,-0.18534364,-0.18577576,0.00000000
3.03932047,1075,3.02095221,-3.01550181,-2.15537270,-0.51155090,-1.46149539,-2.70004272,2.97364997,3.27129456,-2.15594136,-0.48789978,-1.44433495,-2.03361511,2.98814582,2.99722146,-2.02414711,-0.49133301,-1.44356632,-2.03399658,-0.02929688,0.37109375,-0.16601562,0.01464844,0.02929688,0.00000000,-2.97584534,-0.18529957,-0.18539429,-0.02441406
3.05381179,1080,3.02095221,-3.01206858,-2.15651711,-0.51155090,-1.46149539,-2.70004272,2.97364997,3.27453303,-2.15710384,-0.48789978,-1.44433112,-2.03361511,2.98776435,3.00256204,-2.02681740,-0.49095154,-1.44394779,-2.03399658,-0.02441406,0.36132812,-0.17089844,0.00000000,0.01464844,-0.01464844,-2.97584534,-0.18536325,-0.18577576,-0.02441406
3.06605673,1085,3.02095221,-3.00863536,-2.15804299,-0.51155090,-1.46149539,-2.70004272,2.97364997,3.27813388,-2.15844032,-0.48789978,-1.44432987,-2.03361511,2.98776435,3.00713967,-2.02910622,-0.49095154,-1.44356632,-2.03399658,-0.01953125,0.35156250,-0.16601562,0.00000000,0.01464844,-0.01464844,-2.97584534,-0.18538412,-0.18577576,-0.04882812
3.08228159,1090,3.02095221,-3.00558360,-2.15956887,-0.51155090,-1.46149539,-2.70004272,2.97364997,3.28141489,-2.15983383,-0.48789978,-1.44432946,-2.03361511,2.98738288,3.01209878,-2.03139504,-0.49057007,-1.44356632,-2.03399658,-0.01953125,0.35644531,-0.16113281,0.00000000,0.01464844,-0.01464844,-2.97584534,-0.18529330,-0.18577576,0.00000000
3.09471869,1095,3.02095221,-3.00215037,-2.16109474,-0.51155090,-1.46149539,-2.70004272,2.97364997,3.28482704,-2.16137688,-0.48789978,-1.44432932,-2.03361511,2.98700141,3.01705789,-2.03368386,-0.49057007,-1.44394779,-2.03399658,-0.02929688,0.38085938,-0.17089844,-0.01464844,-0.00000000,-0.01464844,-2.97584534,-0.18520104,-0.18539429,-0.04882812
3.10985470,1100,3.02095221,-2.99833567,-2.16262062,-0.51155090,-1.46149539,-2.70004272,2.97364997,3.28830817,-2.16295721,-0.48789978,-1.44432928,-2.03361511,2.98661994,3.02316140,-2.03673561,-0.49018860,-1.44356632,-2.03399658,-0.02441406,0.36132812,-0.16113281,0.01464844,0.02929688,-0.01464844,-2.97584534,-0.18533096,-0.18539429,0.00000000
3.12621689,1105,3.02095221,-2.99413951,-2.16414650,-0.51155090,-1.46149539,-2.70004272,2.97364997,3.29252883,-2.16456197,-0.48789978,-1.44432926,-2.03361511,2.98661994,3.02850198,-2.03940590,-0.48980713,-1.44356632,-2.03399658,-0.02441406,0.34667969,-0.15625000,0.01464844,0.01464844,-0.01464844,-2.97584534,-0.18525147,-0.18577576,0.00000000
3.13763928,1110,3.02095221,-2.99108775,-2.16605385,-0.51155090,-1.46149539,-2.70004272,2.97364997,3.29604759,-2.16618999,-0.48789978,-1.44432926,-2.03361511,2.98623847,3.03346108,-2.04131325,-0.48980713,-1.44394779,-2.03399658,-0.03906250,0.36132812,-0.16113281,-0.04394531,-0.00000000,-0.01464844,-2.97584534,-0.18522542,-0.18577576,-0.02441406
3.15357590,1115,3.02095221,-2.98689158,-2.16872414,-0.51155090,-1.46149539,-2.70004272,2.97364997,3.29957355,-2.16825068,-0.48789978,-1.44432926,-2.03361511,2.98585700,3.03842019,-2.04360207,-0.48980713,-1.44394779,-2.03399658,-0.01953125,0.34667969,-0.15625000,0.00000000,0.01464844,-0.01464844,-2.97584534,-0.18533895,-0.18577576,-0.02441406
3.16931129,1120,3.02095221,-2.98307688,-2.17101296,-0.51155090,-1.46149539,-2.70004272,2.97364997,3.30346990,-2.17066250,-0.48789978,-1.44432926,-2.03361511,2.98585700,3.04376077,-2.04627236,-0.48980713,-1.44394779,-2.03399658,-0.01953125,0.35156250,-0.16113281,-0.04394531,0.01464844,0.00000000,-2.97546387,-0.18516107,-0.18577576,0.00000000
3.18483734,1125,3.02095221,-2.97811778,-2.17368325,-0.51155090,-1.46149539,-2.70004272,2.97364997,3.30769697,-2.17307573,-0.48789978,-1.44432926,-2.03361511,2.98547553,3.04948281,-2.04894265,-0.48980713,-1.44356632,-2.03399658,-0.01953125,0.37109375,-0.16113281,0.00000000,0.02929688,-0.01464844,-2.97584534,-0.18517724,-0.18577576,-0.02441406
3.19775414,1130,3.02095221,-2.97506602,-2.17635353,-0.51155090,-1.46149539,-2.70004272,2.97364997,3.31178034,-2.17584636,-0.48789978,-1.44432926,-2.03361511,2.98509406,3.05406045,-2.05123146,-0.48942566,-1.44394779,-2.03399658,-0.01953125,0.33691406,-0.16601562,-0.01464844,0.01464844,-0.01464844,-2.97584534,-0.18532317,-0.18577576,-0.04882812
3.21002388,1135,3.02095221,-2.97125132,-2.17902382,-0.51155090,-1.46149539,-2.70004272,2.97364997,3.31563132,-2.17855880,-0.48789978,-1.44432926,-2.03361511,2.98509406,3.05787515,-2.05313881,-0.48980713,-1.44356632,-2.03399658,-0.01464844,0.33691406,-0.17089844,-0.04394531,0.02929688,-0.01464844,-2.97584534,-0.18537098,-0.18577576,-0.04882812
3.22305274,1140,3.02095221,-2.96781810,-2.18131264,-0.51155090,-1.46149539,-2.70004272,2.97364997,3.31940358,-2.18109630,-0.48789978,-1.44432926,-2.03361511,2.98471259,3.06245278,-2.05542763,-0.48942566,-1.44356632,-2.03399658,-0.01953125,0.34667969,-0.14648438,0.00000000,0.04394531,-0.01464844,-2.97546387,-0.18504949,-0.18577576,-0.02441406
3.23782420,1145,3.02095221,-2.96324046,-2.18474587,-0.51155090,-1.46149539,-2.70004272,2.97364997,3.32340872,-2.18404656,-0.48789978,-1.44432926,-2.03361511,2.98471259,3.06779336,-2.05771645,-0.48942566,-1.44356632,-2.03399658,-0.01464844,0.34179688,-0.16113281,0.00000000,-0.00000000,-0.01464844,-2.97546387,-0.18503106,-0.18577576,-0.02441406
3.25212312,1150,3.02095221,-2.95828135,-2.18856057,-0.51155090,-1.46149539,-2.70004272,2.97364997,3.32773931,-2.18720544,-0.48789978,-1.44432926,-2.03361511,2.98433112,3.07275247,-2.06000527,-0.48942566,-1.44394779,-2.03399658,-0.03417969,0.32226562,-0.17089844,-0.01464844,-0.00000000,0.00000000,-2.97546387,-0.18504455,-0.18577576,-0.02441406
3.26611042,1155,3.02095221,-2.95370372,-2.19199379,-0.51155090,-1.46149539,-2.70004272,2.97364997,3.33206754,-2.19054682,-0.48789978,-1.44432926,-2.03361511,2.98394965,3.07733010,-2.06267556,-0.48904419,-1.44356632,-2.03399658,-0.02441406,0.32714844,-0.17089844,0.01464844,0.02929688,-0.01464844,-2.97584534,-0.18510390,-0.18539429,-0.02441406
3.27943397,1160,3.02095221,-2.94950755,-2.19466408,-0.51155090,-1.46149539,-2.70004272,2.97364997,3.33643052,-2.19359179,-0.48789978,-1.44432926,-2.03361511,2.98394965,3.08190774,-2.06458290,-0.48942566,-1.44356632,-2.03399658,-0.01464844,0.36132812,-0.17089844,-0.02929688,-0.00000000,-0.01464844,-2.97584534,-0.18523663,-0.18577576,-0.04882812
3.29287314,1165,3.02095221,-2.94531138,-2.19771584,-0.51155090,-1.46149539,-2.70004272,2.97364997,3.34072627,-2.19670773,-0.48789978,-1.44432926,-2.03361511,2.98356818,3.08648538,-2.06725319,-0.48942566,-1.44356632,-2.03399658,-0.02441406,0.32714844,-0.17578125,-0.01464844,0.02929688,0.01464844,-2.97546387,-0.18502988,-0.18577576,-0.02441406
3.30566692,1170,3.02095221,-2.94187815,-2.20000466,-0.51155090,-1.46149539,-2.70004272,2.97364997,3.34472386,-2.19947901,-0.48789978,-1.44432926,-2.03361511,2.98356818,3.09106301,-2.06954201,-0.48942566,-1.44356632,-2.03399658,-0.02441406,0.34179688,-0.17089844,-0.01464844,0.02929688,-0.01464844,-2.97546387,-0.18512229,-0.18577576,-0.02441406
3.32129288,1175,3.02095221,-2.93730052,-2.20381935,-0.51155090,-1.46149539,-2.70004272,2.97364997,3.34867882,-2.20244887,-0.48789978,-1.44432926,-2.03361511,2.98318671,3.09640359,-2.07221230,-0.48942566,-1.44356632,-2.03399658,-0.01464844,0.35156250,-0.16601562,-0.01464844,0.01464844,-0.02929688,-2.97584534,-0.18512059,-0.18577576,0.00000000
3.33670855,1180,3.02095221,-2.93424876,-2.20572670,-0.51155090,-1.46149539,-2.70004272,2.97364997,3.35244938,-2.20515848,-0.48789978,-1.44432926,-2.03361511,2.98318671,3.10174417,-2.07450112,-0.48904419,-1.44356632,-2.03399658,-0.00976562,0.34667969,-0.15625000,0.00000000,0.01464844,-0.01464844,-2.97546387,-0.18507389,-0.18577576,-0.02441406
3.34992266,1185,3.02095221,-2.93119700,-2.20763405,-0.51155090,-1.46149539,-2.70004272,2.97364997,3.35590905,-2.20744786,-0.48789978,-1.44432926,-2.03361511,2.98318671,3.10555886,-2.07678994,-0.48866272,-1.44356632,-2.03399658,-0.00976562,0.32226562,-0.16113281,0.01464844,0.02929688,-0.02929688,-2.97546387,-0.18483886,-0.18577576,-0.04882812
3.36495209,1190,3.02095221,-2.92852671,-2.20915993,-0.51155090,-1.46149539,-2.70004272,2.97364997,3.35883800,-2.20925517,-0.48789978,-1.44432926,-2.03361511,2.98318671,3.11089944,-2.07946022,-0.48904419,-1.44356632,-2.03399658,-0.00976562,0.32714844,-0.17089844,-0.01464844,-0.00000000,0.00000000,-2.97584534,-0.18509021,-0.18577576,-0.04882812
3.37751341,1195,3.02095221,-2.92738230,-2.20954140,-0.51155090,-1.46149539,-2.70004272,2.97364997,3.36082693,-2.21040317,-0.48789978,-1.44432926,-2.03361511,2.98280524,3.11547708,-2.08174904,-0.48904419,-1.44356632,-2.03399658,-0.00976562,0.34667969,-0.15136719,-0.01464844,0.02929688,0.00000000,-2.97584534,-0.18523215,-0.18577576,-0.04882812
3.39460206,1200,3.02095221,-2.92700083,-2.20992287,-0.51155090,-1.46149539,-2.70004272,2.97364997,3.36199539,-2.21110613,-0.48789978,-1.44432926,-2.03361511,2.98280524,3.11967324,-2.08365639,-0.48866272,-1.44356632,-2.03399658,-0.01953125,0.32714844,-0.17578125,0.00000000,0.01464844,0.00000000,-2.97584534,-0.18526303,-0.18577576,0.00000000
3.40566945,1205,3.02095221,-2.92661936,-2.20992287,-0.51155090,-1.46149539,-2.70004272,2.97364997,3.36270505,-2.21133648,-0.48789978,-1.44432926,-2.03361511,2.98242377,3.12310647,-2.08556374,-0.48904419,-1.44356632,-2.03399658,-0.03417969,0.32714844,-0.17578125,-0.02929688,0.01464844,-0.02929688,-2.97584534,-0.18522921,-0.18577576,-0.02441406
3.42093945,1210,3.02095221,-2.92661936,-2.20954140,-0.51155090,-1.46149539,-2.70004272,2.97364997,3.36293759,-2.21133567,-0.48789978,-1.44432926,-2.03361511,2.98204230,3.12997292,-2.08937844,-0.48866272,-1.44356632,-2.03399658,-0.00976562,0.33203125,-0.15625000,0.00000000,-0.00000000,0.00000000,-2.97584534,-0.18524254,-0.18577576,-0.02441406
3.43406892,1215,3.02095221,-2.92700083,-2.20954140,-0.51155090,-1.46149539,-2.70004272,2.97364997,3.36293750,-2.21118647,-0.48789978,-1.44439029,-2.03361511,2.98204230,3.13378762,-2.09128579,-0.48866272,-1.44356632,-2.03399658,-0.00976562,0.32226562,-0.15136719,-0.01464844,-0.00000000,-0.01464844,-2.97584534,-0.18534456,-0.18577576,-0.02441406
3.44961596,1220,3.02095221,-2.92700083,-2.20954140,-0.51155090,-1.46187686,-2.70004272,2.97364997,3.36275729,-2.21110634,-0.48789978,-1.44460573,-2.03361511,2.98204230,3.13836526,-2.09395607,-0.48866272,-1.44356632,-2.03399658,-0.01953125,0.28808594,-0.16113281,-0.02929688,0.02929688,-0.01464844,-2.97584534,-0.18528034,-0.18577576,-0.02441406
3.46246004,1225,3.02095221,-2.92700083,-2.20954140,-0.51155090,-1.46187686,-2.70004272,2.97364997,3.36269824,-2.21108008,-0.48789978,-1.44467632,-2.03361511,2.98166083,-3.14062388,-2.09586342,-0.48866272,-1.44356632,-2.03399658,-0.02441406,0.28808594,-0.15136719,-0.01464844,-0.00000000,-0.01464844,-2.97584534,-0.18513722,-0.18577576,-0.04882812
3.47580504,1230,3.02095221,-2.92700083,-2.20954140,-0.51155090,-1.46187686,-2.70004272,2.97364997,3.36267889,-2.21107147,-0.48789978,-1.44465062,-2.03361511,2.98127936,-3.13719065,-2.09777077,-0.48866272,-1.44356632,-2.03399658,-0.01464844,0.29785156,-0.15625000,-0.02929688,0.01464844,0.00000000,-2.97584534,-0.18531005,-0.18577576,-0.02441406
3.48904061,1235,3.02095221,-2.92700083,-2.20954140,-0.51155090,-1.46187686,-2.70004272,2.97364997,3.36267255,-2.21106865,-0.48789978,-1.44463000,-2.03361511,2.98127936,-3.13261302,-2.10005959,-0.48866272,-1.44356632,-2.03399658,-0.01464844,0.27343750,-0.14648438,0.00000000,0.01464844,0.01464844,-2.97584534,-0.18516649,-0.18577576,-0.02441406
3.50108194,1240,3.02095221,-2.92700083,-2.20954140,-0.51155090,-1.46149539,-2.70004272,2.97364997,3.36267047,-2.21106773,-0.48789978,-1.44460798,-2.03361511,2.98127936,-3.12956126,-2.10158547,-0.48866272,-1.44356632,-2.03399658,-0.00976562,0.28808594,-0.14160156,-0.01464844,-0.01464844,-0.01464844,-2.97584534,-0.18531964,-0.18577576,-0.02441406
3.51900196,1245,3.02095221,-2.92700083,-2.20954140,-0.51155090,-1.46187686,-2.70004272,2.97364997,3.36266979,-2.21106743,-0.48789978,-1.44459698,-2.03361511,2.98127936,-3.12498362,-2.10425576,-0.48866272,-1.44356632,-2.03399658,-0.01464844,0.26855469,-0.13671875,-0.01464844,0.01464844,-0.01464844,-2.97584534,-0.18536983,-0.18577576,0.00000000
3.53310275,1250,3.02095221,-2.92700083,-2.20954140,-0.51155090,-1.46187686,-2.70004272,2.97364997,3.36266957,-2.21106733,-0.48789978,-1.44467345,-2.03361511,2.98089789,-3.12078746,-2.10616310,-0.48866272,-1.44356632,-2.03399658,-0.00976562,0.26855469,-0.13671875,-0.02929688,0.01464844,0.00000000,-2.97584534,-0.18526420,-0.18539429,-0.02441406
3.54787374,1255,3.02095221,-2.92738230,-2.20954140,-0.51155090,-1.46187686,-2.70004272,2.97364997,3.36248334,-2.21106730,-0.48789978,-1.44469851,-2.03361511,2.98089789,-3.11659129,-2.10845192,-0.48866272,-1.44356632,-2.03399658,-0.01464844,0.25878906,-0.12207031,-0.01464844,-0.01464844,-0.02929688,-2.97546387,-0.18497935,-0.18577576,-0.02441406
3.56177497,1260,3.02095221,-2.92776377,-2.20954140,-0.51155090,-1.46187686,-2.70004272,2.97364997,3.36221467,-2.21106728,-0.48789978,-1.44470672,-2.03361511,2.98051642,-3.11315806,-2.11035927,-0.48866272,-1.44356632,-2.03399658,-0.02441406,0.24414062,-0.13183594,0.00000000,0.01464844,-0.02929688,-2.97546387,-0.18504323,-0.18577576,-0.04882812
3.57444215,1265,3.02095221,-2.92776377,-2.20954140,-0.51155090,-1.46187686,-2.70004272,2.97364997,3.36200749,-2.21106728,-0.48789978,-1.44470941,-2.03361511,2.98051642,-3.11010630,-2.11188515,-0.48866272,-1.44356632,-2.03399658,-0.01953125,0.25390625,-0.13671875,-0.01464844,0.01464844,-0.02929688,-2.97584534,-0.18527925,-0.18577576,-0.04882812
3.59071755,1270,3.02095221,-2.92814524,-2.20915993,-0.51155090,-1.46187686,-2.70004272,2.97364997,3.36175345,-2.21092995,-0.48789978,-1.44471030,-2.03361511,2.98051642,-3.10629161,-2.11379250,-0.48828125,-1.44356632,-2.03399658,-0.01464844,0.25390625,-0.12695312,0.00000000,0.01464844,-0.01464844,-2.97584534,-0.18525894,-0.18577576,-0.02441406
3.60547376,1275,3.02095221,-2.92852671,-2.20877846,-0.51155090,-1.46187686,-2.70004272,2.97364997,3.36141373,-2.21062848,-0.48789978,-1.44471059,-2.03361511,2.98013495,-3.10209544,-2.11569985,-0.48828125,-1.44356632,-2.03399658,-0.00976562,0.24902344,-0.12695312,-0.01464844,0.01464844,-0.01464844,-2.97584534,-0.18522787,-0.18577576,-0.02441406
3.62133861,1280,3.02095221,-2.92890818,-2.20801552,-0.51155090,-1.46187686,-2.70004272,2.97364997,3.36104595,-2.21010904,-0.48789978,-1.44471068,-2.03361511,2.98013495,-3.09828074,-2.11837014,-0.48866272,-1.44356632,-2.03399658,-0.01464844,0.23437500,-0.13671875,-0.01464844,0.02929688,-0.01464844,-2.97584534,-0.18524210,-0.18577576,-0.04882812
3.63680434,1285,3.02095221,-2.92967112,-2.20725258,-0.51155090,-1.46187686,-2.70004272,2.97364997,3.36041249,-2.20940392,-0.48789978,-1.44471071,-2.03361511,2.97975348,-3.09484751,-2.12027748,-0.48828125,-1.44356632,-2.03399658,-0.02441406,0.22460938,-0.12207031,0.00000000,0.01464844,0.00000000,-2.97584534,-0.18524676,-0.18577576,-0.02441406
3.65048385,1290,3.02095221,-2.93043406,-2.20572670,-0.51155090,-1.46225833,-2.70004272,2.97364997,3.35965292,-2.20828810,-0.48797009,-1.44489688,-2.03361511,2.97937201,-3.09141429,-2.12180336,-0.48828125,-1.44356632,-2.03399658,-0.01953125,0.21972656,-0.11230469,0.00000000,-0.00000000,-0.02929688,-2.97584534,-0.18534595,-0.18577576,-0.02441406
3.66370893,1295,3.02095221,-2.93195994,-2.20420082,-0.51193237,-1.46225833,-2.70004272,2.97364997,3.35866769,-2.20693565,-0.48806015,-1.44502819,-2.03361511,2.97937201,-3.08836253,-2.12332924,-0.48828125,-1.44356632,-2.03399658,-0.01953125,0.22460938,-0.10742188,-0.04394531,0.01464844,-0.01464844,-2.97584534,-0.18517825,-0.18577576,0.00000000
3.67565322,1300,3.02095221,-2.93310435,-2.20267495,-0.51155090,-1.46225833,-2.70004272,2.97364997,3.35758521,-2.20542754,-0.48799139,-1.44507122,-2.03361511,2.97937201,-3.08569224,-2.12447365,-0.48828125,-1.44356632,-2.03399658,-0.00976562,0.20996094,-0.09277344,-0.01464844,0.04394531,-0.01464844,-2.97546387,-0.18504884,-0.18577576,-0.02441406
3.69159222,1305,3.02095221,-2.93501170,-2.20000466,-0.51155090,-1.46225833,-2.70004272,2.97364997,3.35601847,-2.20335878,-0.48796105,-1.44508532,-2.03361511,2.97937201,-3.08225901,-2.12599953,-0.48828125,-1.44356632,-2.03399658,-0.00976562,0.20996094,-0.09277344,-0.01464844,0.02929688,0.00000000,-2.97584534,-0.18528109,-0.18577576,-0.04882812
3.70420218,1310,3.02095221,-2.93730052,-2.19733437,-0.51155090,-1.46225833,-2.70004272,2.97364997,3.35396626,-2.20076645,-0.48795892,-1.44508994,-2.03361511,2.97937201,-3.07958873,-2.12752541,-0.48828125,-1.44356632,-2.03399658,-0.00976562,0.19531250,-0.10742188,0.00000000,0.01464844,-0.02929688,-2.97584534,-0.18519704,-0.18577576,-0.02441406
3.71940327,1315,3.02095221,-2.93997081,-2.19351967,-0.51155090,-1.46225833,-2.70004272,2.97364997,3.35154733,-2.19762037,-0.48795822,-1.44509146,-2.03361511,2.97899054,-3.07691844,-2.12866982,-0.48828125,-1.44356632,-2.03399658,-0.00488281,0.19531250,-0.09765625,-0.02929688,-0.00000000,0.00000000,-2.97584534,-0.18516950,-0.18539429,-0.02441406
3.73486423,1320,3.02095221,-2.94302256,-2.18970497,-0.51193237,-1.46263980,-2.70004272,2.97364997,3.34899249,-2.19421422,-0.48806554,-1.44527811,-2.03361511,2.97899054,-3.07386668,-2.13019570,-0.48828125,-1.44356632,-2.03399658,-0.01464844,0.18066406,-0.08300781,-0.01464844,0.01464844,-0.01464844,-2.97584534,-0.18513606,-0.18577576,-0.02441406
3.74719024,1325,3.02095221,-2.94607432,-2.18589028,-0.51155090,-1.46263980,-2.70004272,2.97364997,3.34603764,-2.19049726,-0.48809521,-1.44540959,-2.03361511,2.97899054,-3.07157786,-2.13134011,-0.48828125,-1.44356632,-2.03399658,-0.01953125,0.19531250,-0.07812500,-0.02929688,-0.00000000,0.00000000,-2.97546387,-0.18493736,-0.18577576,-0.02441406
3.76194787,1330,3.02095221,-2.94988902,-2.18131264,-0.51193237,-1.46263980,-2.70004272,2.97364997,3.34264728,-2.18635351,-0.48822029,-1.44545267,-2.03361511,2.97860907,-3.06890757,-2.13248452,-0.48828125,-1.44356632,-2.03399658,-0.01464844,0.17578125,-0.08789062,-0.02929688,-0.00000000,-0.01464844,-2.97584534,-0.18505999,-0.18539429,0.02441406
3.77416825,1335,3.02095221,-2.95294078,-2.17749794,-0.51193237,-1.46263980,-2.70004272,2.97364997,3.33929023,-2.18216634,-0.48815141,-1.44546679,-2.03361511,2.97860907,-3.06661875,-2.13362892,-0.48828125,-1.44356632,-2.03399658,-0.00488281,0.17089844,-0.06347656,-0.01464844,0.02929688,-0.01464844,-2.97584534,-0.18528474,-0.18577576,-0.04882812
3.78493047,1340,3.02095221,-2.95675547,-2.17292031,-0.51193237,-1.46263980,-2.70004272,2.97364997,3.33598585,-2.17805942,-0.48818988,-1.44547141,-2.03361511,2.97860907,-3.06471141,-2.13439186,-0.48828125,-1.44394779,-2.03399658,-0.00976562,0.16113281,-0.06347656,-0.01464844,-0.00000000,0.00000000,-2.97584534,-0.18535839,-0.18577576,-0.02441406
3.79838037,1345,3.02095221,-2.96018870,-2.16834267,-0.51193237,-1.46263980,-2.70004272,2.97364997,3.33241955,-2.17365849,-0.48825131,-1.44547293,-2.03361511,2.97860907,-3.06280406,-2.13515480,-0.48828125,-1.44356632,-2.03399658,-0.00976562,0.13671875,-0.04394531,-0.02929688,0.02929688,0.00000000,-2.97584534,-0.18526045,-0.18577576,0.00000000
3.81356001,1350,3.02095221,-2.96591075,-2.16147621,-0.51193237,-1.46263980,-2.70004272,2.97364997,3.32764169,-2.16772006,-0.48817134,-1.44547342,-2.03361511,2.97860907,-3.06051524,-2.13591774,-0.48828125,-1.44356632,-2.03399658,-0.00976562,0.13183594,-0.04394531,0.00000000,0.01464844,-0.02929688,-2.97584534,-0.18528793,-0.18539429,-0.02441406
3.82835555,1355,3.02095221,-2.97048838,-2.15613564,-0.51193237,-1.46263980,-2.70004272,2.97364997,3.32318399,-2.16248680,-0.48818420,-1.44547359,-2.03361511,2.97860907,-3.05860789,-2.13629921,-0.48828125,-1.44356632,-2.03399658,-0.00488281,0.12207031,-0.04394531,0.00000000,0.01464844,-0.01464844,-2.97546387,-0.18520685,-0.18577576,-0.02441406
3.84155059,1360,3.02095221,-2.97582896,-2.15003212,-0.51155090,-1.46263980,-2.70004272,2.97364997,3.31781533,-2.15616112,-0.48806329,-1.44547364,-2.03361511,2.97822760,-3.05670054,-2.13706215,-0.48828125,-1.44394779,-2.03399658,-0.00488281,0.12695312,-0.02441406,0.00000000,-0.00000000,-0.01464844,-2.97584534,-0.18533287,-0.18577576,-0.02441406
3.85588264,1365,3.02095221,-2.98231394,-2.14278420,-0.51155090,-1.46263980,-2.70004272,2.97364997,3.31202720,-2.14944636,-0.48802367,-1.44547366,-2.03361511,2.97822760,-3.05441172,-2.13744362,-0.48828125,-1.44432926,-2.03399658,-0.00976562,0.13183594,-0.03906250,-0.02929688,-0.00000000,-0.01464844,-2.97584534,-0.18529604,-0.18577576,-0.02441406
3.87152672,1370,3.02095221,-2.98956187,-2.13439186,-0.51155090,-1.46263980,-2.70004272,2.97364997,3.30542803,-2.14195431,-0.48804047,-1.44547366,-2.03361511,2.97822760,-3.05288584,-2.13782509,-0.48828125,-1.44432926,-2.03399658,-0.01464844,0.12207031,-0.01953125,-0.02929688,0.01464844,0.00000000,-2.97584534,-0.18524002,-0.18577576,-0.04882812
3.88289809,1375,3.02095221,-2.99528392,-2.12790688,-0.51155090,-1.46263980,-2.70004272,2.97364997,3.29941710,-2.13497967,-0.48798495,-1.44547366,-2.03361511,2.97822760,-3.05174144,-2.13820656,-0.48828125,-1.44394779,-2.03399658,-0.01953125,0.10253906,-0.01464844,0.00000000,0.01464844,0.00000000,-2.97584534,-0.18528124,-0.18577576,-0.04882812
3.89634633,1380,3.02095221,-3.00176890,-2.12142189,-0.51155090,-1.46263980,-2.70004272,2.97364997,3.29294732,-2.12809253,-0.48792769,-1.44547367,-2.03361511,2.97784613,-3.05059703,-2.13820656,-0.48828125,-1.44394779,-2.03399658,-0.02929688,0.05371094,-0.00000000,-0.02929688,0.01464844,-0.02929688,-2.97584534,-0.18529474,-0.18539429,-0.04882812
3.91089606,1385,3.02133368,-3.00901683,-2.11379250,-0.51155090,-1.46263980,-2.70004272,2.97383612,3.28630545,-2.12119806,-0.48790892,-1.44547367,-2.03361511,2.97746466,-3.04907115,-2.13820656,-0.48828125,-1.44394779,-2.03399658,-0.00976562,0.09277344,0.00488281,0.00000000,-0.00000000,-0.01464844,-2.97546387,-0.18514658,-0.18539429,0.00000000
3.92238426,1390,3.02133368,-3.01473887,-2.10807045,-0.51116943,-1.46263980,-2.70004272,2.97396744,3.27973854,-2.11443900,-0.48776545,-1.44547367,-2.03361511,2.97746466,-3.04868968,-2.13820656,-0.48828125,-1.44394779,-2.03399658,-0.00976562,0.02929688,0.00976562,-0.02929688,0.01464844,-0.02929688,-2.97584534,-0.18531312,-0.18577576,-0.02441406
3.93751383,1395,3.02133368,-3.02465708,-2.09891518,-0.51116943,-1.46263980,-2.70004272,2.97401046,3.27201370,-2.10705281,-0.48759929,-1.44547367,-2.03361511,2.97746466,-3.04754527,-2.13820656,-0.48828125,-1.44394779,-2.03399658,-0.00488281,0.05371094,0.00976562,-0.01464844,-0.00000000,-0.02929688,-2.97546387,-0.18513698,-0.18539429,0.00000000
3.95111823,1400,3.02133368,-3.03266795,-2.09204872,-0.51116943,-1.46263980,-2.70004272,2.97402456,3.26402771,-2.09972796,-0.48754485,-1.44547367,-2.03361511,2.97746466,-3.04716380,-2.13782509,-0.48828125,-1.44432926,-2.03399658,-0.00976562,0.03417969,0.01953125,-0.01464844,-0.00000000,-0.01464844,-2.97584534,-0.18514982,-0.18577576,-0.04882812
3.96596146,1405,3.02133368,-3.04144175,-2.08441933,-0.51116943,-1.46263980,-2.70004272,2.97402918,3.25549692,-2.09222228,-0.48752701,-1.44547367,-2.03361511,2.97746466,-3.04678233,-2.13744362,-0.48828125,-1.44432926,-2.03399658,-0.00488281,0.01464844,0.04394531,-0.01464844,-0.00000000,-0.01464844,-2.97584534,-0.18523605,-0.18577576,-0.02441406
3.97981429,1410,3.02133368,-3.05097850,-2.07640847,-0.51116943,-1.46263980,-2.70004272,2.97403070,3.24630983,-2.08432667,-0.48752116,-1.44547367,-2.03361511,2.97746466,-3.04640086,-2.13668068,-0.48828125,-1.44471073,-2.03399658,-0.00976562,0.01953125,0.06347656,-0.02929688,-0.00000000,-0.01464844,-2.97584534,-0.18527994,-0.18577576,-0.04882812
3.99305367,1415,3.02133368,-3.05898936,-2.06992348,-0.51116943,-1.46263980,-2.70004272,2.97403119,3.23751168,-2.07706548,-0.48751924,-1.44547367,-2.03361511,2.97708319,-3.04640086,-2.13553627,-0.48828125,-1.44471073,-2.03399658,-0.00976562,0.00488281,0.08789062,-0.02929688,-0.00000000,-0.01464844,-2.97546387,-0.18501966,-0.18577576,-0.02441406
4.00575137,1420,3.02133368,-3.06967051,-2.06191262,-0.51116943,-1.46263980,-2.70004272,2.97403136,3.22839287,-2.06985838,-0.48751862,-1.44547367,-2.03361511,2.97708319,-3.04640086,-2.13439186,-0.48828125,-1.44471073,-2.03399658,-0.00976562,0.00000000,0.07812500,-0.01464844,0.01464844,0.00000000,-2.97546387,-0.18511894,-0.18577576,-0.02441406
4.01983714,1425,3.02133368,-3.07882579,-2.05428322,-0.51078796,-1.46263980,-2.70004272,2.97403141,3.21914260,-2.06251091,-0.48729319,-1.44547367,-2.03361511,2.97708319,-3.04601939,-2.13324745,-0.48828125,-1.44471073,-2.03399658,-0.01464844,0.00000000,0.10253906,-0.02929688,0.02929688,0.00000000,-2.97584534,-0.18524156,-0.18577576,-0.04882812
4.03422284,1430,3.02133368,-3.08759959,-2.04779824,-0.51078796,-1.46263980,-2.70004272,2.97403143,3.20998953,-2.05539858,-0.48718807,-1.44547367,-2.03361511,2.97708319,-3.04601939,-2.13210305,-0.48828125,-1.44432926,-2.03399658,-0.01464844,0.00000000,0.07812500,-0.01464844,0.01464844,0.00000000,-2.97546387,-0.18519165,-0.18539429,0.00000000
4.04912591,1435,3.02133368,-3.09904368,-2.03940590,-0.51078796,-1.46263980,-2.70004272,2.97403143,3.19961257,-2.04763076,-0.48715363,-1.44547367,-2.03361511,2.97708319,-3.04601939,-2.13057717,-0.48828125,-1.44432926,-2.03399658,-0.00488281,-0.00488281,0.09765625,-0.01464844,0.01464844,0.00000000,-2.97546387,-0.18517530,-0.18577576,-0.02441406
4.06434822,1440,3.02133368,-3.10743602,-2.03330239,-0.51078796,-1.46263980,-2.70004272,2.97403144,3.18945956,-2.04025337,-0.48714234,-1.44547367,-2.03361511,2.97670172,-3.04601939,-2.12905129,-0.48828125,-1.44432926,-2.03399658,-0.00488281,-0.00976562,0.11718750,-0.01464844,0.01464844,-0.01464844,-2.97584534,-0.18532253,-0.18577576,-0.02441406
4.07775593,1445,3.02133368,-3.11697276,-2.02681740,-0.51078796,-1.46263980,-2.70004272,2.97403144,3.17963054,-2.03327625,-0.48713864,-1.44547367,-2.03361511,2.97670172,-3.04640086,-2.12752541,-0.48828125,-1.44471073,-2.03399658,0.00000000,-0.01953125,0.13183594,-0.01464844,0.01464844,-0.01464844,-2.97584534,-0.18527312,-0.18539429,-0.02441406
4.09150147,1450,3.02133368,-3.12650950,-2.01995095,-0.51040649,-1.46263980,-2.70004272,2.97403144,3.17014891,-2.02659473,-0.48695127,-1.44547367,-2.03361511,2.97670172,-3.04716380,-2.12561806,-0.48789978,-1.44471073,-2.03399658,-0.00976562,-0.07812500,0.12695312,0.00000000,0.02929688,-0.01464844,-2.97584534,-0.18527646,-0.18539429,0.00000000
