MingxuanLei/DMarm_date_collection/data/episode_00/trajectory/teach_record_20260630_211912.csv
time_s,loop_count,master_q1,master_q2,master_q3,master_q4,master_q5,master_q6,slave_target_q1,slave_target_q2,slave_target_q3,slave_target_q4,slave_target_q5,slave_target_q6,slave_actual_q1,slave_actual_q2,slave_actual_q3,slave_actual_q4,slave_actual_q5,slave_actual_q6,slave_actual_v1,slave_actual_v2,slave_actual_v3,slave_actual_v4,slave_actual_v5,slave_actual_v6,master_tool,slave_tool_target,slave_tool_actual,slave_tool_actual_vel
0.02313256,5,3.09953498,-1.69752391,-3.09798439,-0.00076294,1.56012631,0.00000000,3.09953498,-1.64816990,-3.09848439,-0.00048901,1.56025131,-0.00023486,3.09953498,-1.65022166,-3.09951027,-0.00038147,1.56050778,-0.00038147,-0.00488281,-0.00488281,0.00976562,-0.01464844,-0.00000000,-0.01464844,-0.00152588,-0.00153882,-0.00038147,-0.04882812
0.04581857,10,3.09953498,-1.69752391,-3.09798439,-0.00076294,1.56012631,0.00000000,3.09953498,-1.64749758,-3.09814823,-0.00061214,1.56016727,-0.00007696,3.09953498,-1.65022166,-3.09951027,-0.00038147,1.56050778,-0.00038147,-0.00488281,-0.00488281,-0.00000000,-0.01464844,0.02929688,0.00000000,-0.00152588,-0.00204306,-0.00038147,-0.02441406
0.06011963,15,3.09953498,-1.69752391,-3.09798439,-0.00076294,1.56012631,0.00000000,3.09953498,-1.64727728,-3.09803808,-0.00071353,1.56013973,-0.00002522,3.09953498,-1.65022166,-3.09951027,-0.00038147,1.56050778,-0.00038147,-0.00488281,-0.00488281,0.00488281,-0.01464844,0.01464844,-0.01464844,-0.00152588,-0.00220829,-0.00038147,-0.02441406
0.07215118,20,3.09953498,-1.69752391,-3.09798439,-0.00076294,1.56012631,0.00000000,3.09953498,-1.64720509,-3.09800199,-0.00074675,1.56013071,-0.00000826,3.09953498,-1.65022166,-3.09951027,-0.00038147,1.56050778,-0.00038147,-0.00488281,-0.00488281,-0.00000000,-0.01464844,-0.00000000,-0.01464844,-0.00152588,-0.00226243,-0.00038147,-0.04882812
0.08653402,25,3.09953498,-1.69752391,-3.09798439,-0.00076294,1.56012631,0.00000000,3.09953498,-1.64718143,-3.09799016,-0.00070881,1.56012775,-0.00000271,3.09953498,-1.65022166,-3.09951027,-0.00038147,1.56050778,-0.00038147,-0.00488281,-0.00488281,0.00488281,-0.01464844,0.01464844,-0.01464844,-0.00152588,-0.00235830,-0.00038147,-0.02441406
0.10209799,30,3.09953498,-1.69752391,-3.09798439,-0.00038147,1.56012631,0.00000000,3.09953498,-1.64717368,-3.09798628,-0.00062984,1.56012678,-0.00000089,3.09953498,-1.65022166,-3.09951027,-0.00038147,1.56050778,-0.00038147,-0.00488281,-0.00488281,0.00976562,-0.02929688,0.01464844,-0.01464844,-0.00152588,-0.00231158,-0.00038147,0.00000000
0.11800671,35,3.09953498,-1.69752391,-3.09798439,-0.00038147,1.56012631,0.00000000,3.09953498,-1.64717114,-3.09798501,-0.00064303,1.56012646,-0.00000029,3.09953498,-1.65022166,-3.09951027,-0.00038147,1.56050778,-0.00038147,-0.00488281,-0.00488281,0.00488281,0.00000000,-0.00000000,-0.01464844,-0.00152588,-0.00229628,-0.00038147,-0.02441406
0.13330889,40,3.09953498,-1.69752391,-3.09798439,-0.00038147,1.56012631,0.00000000,3.09953498,-1.64717031,-3.09798460,-0.00053749,1.56012636,-0.00000010,3.09953498,-1.65022166,-3.09951027,-0.00038147,1.56050778,-0.00038147,-0.00488281,-0.00488281,0.00488281,-0.02929688,0.02929688,-0.01464844,-0.00152588,-0.00229126,-0.00038147,-0.02441406
0.14744043,45,3.09953498,-1.69752391,-3.09798439,-0.00038147,1.56012631,0.00000000,3.09953498,-1.64717003,-3.09798446,-0.00050291,1.56012633,-0.00000003,3.09953498,-1.65022166,-3.09951027,-0.00038147,1.56050778,-0.00038147,-0.00488281,-0.00488281,-0.00000000,-0.01464844,0.01464844,-0.01464844,-0.00152588,-0.00228962,-0.00038147,-0.04882812
0.16152954,50,3.09953498,-1.69752391,-3.09798439,-0.00038147,1.56012631,0.00000000,3.09953498,-1.64716995,-3.09798442,-0.00042126,1.56012632,-0.00000001,3.09953498,-1.65022166,-3.09951027,-0.00038147,1.56050778,-0.00038147,-0.00488281,-0.00488281,0.00976562,0.00000000,0.01464844,-0.01464844,-0.00152588,-0.00228908,-0.00038147,-0.02441406
0.17504930,55,3.09953498,-1.69752391,-3.09798439,-0.00038147,1.56012631,0.00000000,3.09953498,-1.64716992,-3.09798440,-0.00039451,1.56012631,-0.00000000,3.09953498,-1.65022166,-3.09951027,-0.00038147,1.56050778,-0.00038147,-0.00488281,0.00000000,0.00488281,-0.01464844,0.01464844,-0.01464844,-0.00152588,-0.00228890,-0.00038147,-0.02441406
0.19265318,60,3.09953498,-1.69752391,-3.09798439,-0.00038147,1.56012631,0.00000000,3.09953498,-1.64716991,-3.09798440,-0.00044678,1.56012631,-0.00000000,3.09953498,-1.65022166,-3.09951027,-0.00038147,1.56050778,-0.00038147,-0.00488281,-0.00488281,0.00488281,-0.01464844,0.01464844,-0.01464844,-0.00152588,-0.00228885,-0.00076294,-0.04882812
0.20656991,65,3.09953498,-1.69752391,-3.09798439,-0.00038147,1.56012631,0.00000000,3.09953498,-1.64716990,-3.09798439,-0.00040287,1.56012631,-0.00000000,3.09953498,-1.65022166,-3.09951027,-0.00038147,1.56050778,-0.00038147,-0.00488281,-0.00488281,0.00488281,-0.01464844,0.01464844,-0.01464844,-0.00152588,-0.00228883,-0.00038147,-0.04882812
0.21929717,70,3.09953498,-1.69752391,-3.09798439,-0.00076294,1.56012631,0.00000000,3.09953498,-1.64716990,-3.09798439,-0.00055267,1.56012631,-0.00000000,3.09953498,-1.65022166,-3.09951027,-0.00038147,1.56050778,-0.00038147,0.00000000,-0.00488281,0.00488281,0.00000000,0.02929688,-0.01464844,-0.00190735,-0.00234375,-0.00076294,-0.02441406
0.23312974,75,3.09953498,-1.69752391,-3.09798439,-0.00038147,1.56012631,0.00000000,3.09953498,-1.64716990,-3.09798439,-0.00043757,1.56012631,-0.00000000,3.09953498,-1.65022166,-3.09951027,-0.00038147,1.56050778,-0.00038147,-0.00488281,-0.00488281,0.00488281,0.00000000,0.01464844,0.00000000,-0.00152588,-0.00230682,-0.00076294,-0.02441406
0.24503517,80,3.09953498,-1.69752391,-3.09798439,-0.00038147,1.56012631,0.00000000,3.09953498,-1.64716990,-3.09798439,-0.00043110,1.56012631,-0.00000000,3.09953498,-1.65022166,-3.09951027,-0.00038147,1.56050778,-0.00038147,-0.00976562,-0.00488281,-0.00000000,-0.01464844,0.01464844,-0.01464844,-0.00152588,-0.00229472,-0.00076294,-0.04882812
0.26023126,85,3.09953498,-1.69752391,-3.09798439,-0.00038147,1.56012631,0.00000000,3.09953498,-1.64716990,-3.09798439,-0.00042898,1.56012631,-0.00000000,3.09953498,-1.65022166,-3.09951027,-0.00038147,1.56050778,-0.00038147,-0.00488281,-0.00976562,0.00488281,-0.01464844,0.02929688,-0.01464844,-0.00152588,-0.00229075,-0.00114441,-0.07324219
0.27361250,90,3.09953498,-1.69752391,-3.09798439,-0.00076294,1.56012631,0.00000000,3.09953498,-1.64716990,-3.09798439,-0.00061445,1.56012631,-0.00000000,3.09953498,-1.65022166,-3.09951027,-0.00038147,1.56050778,-0.00038147,-0.00488281,-0.00488281,0.00488281,-0.02929688,-0.00000000,-0.01464844,-0.00152588,-0.00228945,-0.00419617,-0.26855469
0.28733277,95,3.09953498,-1.69752391,-3.09798439,-0.00076294,1.56012631,0.00000000,3.09953498,-1.64716990,-3.09798439,-0.00071428,1.56012631,-0.00000000,3.09953498,-1.65022166,-3.09951027,-0.00038147,1.56050778,-0.00038147,-0.00488281,-0.00488281,-0.00000000,-0.01464844,0.01464844,-0.01464844,-0.00152588,-0.00228903,-0.00457764,0.00000000
0.30246878,100,3.09953498,-1.69752391,-3.09798439,-0.00076294,1.56012631,0.00000000,3.09953498,-1.64716990,-3.09798439,-0.00074700,1.56012631,-0.00006104,3.09953498,-1.65022166,-3.09951027,-0.00038147,1.56050778,-0.00038147,-0.00976562,-0.00488281,-0.00000000,-0.01464844,0.01464844,-0.01464844,-0.00152588,-0.00228889,-0.00457764,-0.04882812
0.31783509,105,3.09953498,-1.69752391,-3.09798439,-0.00076294,1.56012631,0.00000000,3.09953498,-1.64716990,-3.09798439,-0.00075771,1.56012631,-0.00002000,3.09953498,-1.65022166,-3.09951027,-0.00038147,1.56050778,-0.00038147,-0.00976562,-0.00488281,0.00488281,-0.01464844,0.02929688,-0.02929688,-0.00152588,-0.00228884,-0.00457764,-0.02441406
0.33032727,110,3.09953498,-1.69752391,-3.09798439,-0.00038147,1.56012631,0.00000000,3.09953498,-1.64716990,-3.09798439,-0.00064587,1.56012631,-0.00000655,3.09953498,-1.65022166,-3.09951027,-0.00038147,1.56050778,-0.00038147,-0.00488281,-0.00488281,0.00488281,-0.01464844,0.01464844,-0.02929688,-0.00152588,-0.00228883,-0.00457764,0.00000000
0.34336996,115,3.09953498,-1.69752391,-3.09798439,-0.00038147,1.56012631,0.00000000,3.09953498,-1.64716990,-3.09798439,-0.00046811,1.56012631,-0.00000215,3.09953498,-1.65022166,-3.09951027,-0.00038147,1.56050778,-0.00038147,-0.00488281,0.00000000,0.00488281,-0.01464844,-0.00000000,-0.01464844,-0.00152588,-0.00228882,-0.00457764,-0.02441406
0.35987473,120,3.09953498,-1.69752391,-3.09798439,-0.00038147,1.56012631,0.00000000,3.09953498,-1.64716990,-3.09798439,-0.00044892,1.56012631,-0.00000070,3.09953498,-1.65022166,-3.09951027,-0.00038147,1.56050778,-0.00038147,-0.00488281,-0.00488281,0.00488281,-0.02929688,0.01464844,-0.01464844,-0.00152588,-0.00228882,-0.00419617,0.00000000
0.37423706,125,3.09953498,-1.69752391,-3.09798439,-0.00038147,1.56012631,0.00000000,3.09953498,-1.64716990,-3.09798439,-0.00040357,1.56012631,-0.00000023,3.09953498,-1.65022166,-3.09951027,-0.00038147,1.56050778,-0.00038147,-0.00488281,-0.00976562,0.00488281,-0.01464844,0.01464844,-0.01464844,-0.00152588,-0.00228882,-0.00457764,0.00000000
0.38926482,130,3.09953498,-1.69752391,-3.09798439,-0.00038147,1.56012631,0.00000000,3.09953498,-1.64716990,-3.09798439,-0.00038871,1.56017514,-0.00000008,3.09953498,-1.65022166,-3.09951027,-0.00038147,1.56050778,-0.00038147,0.00000000,-0.00488281,-0.00000000,-0.01464844,0.02929688,-0.02929688,-0.00152588,-0.00228882,-0.00457764,-0.02441406
0.40300584,135,3.09953498,-1.69752391,-3.09798439,-0.00038147,1.56012631,0.00000000,3.09953498,-1.64716990,-3.09798439,-0.00038384,1.56014231,-0.00000002,3.09953498,-1.65022166,-3.09951027,-0.00038147,1.56050778,-0.00038147,-0.00488281,-0.00488281,0.00488281,-0.02929688,0.02929688,0.00000000,-0.00152588,-0.00228882,-0.00457764,-0.02441406
0.41740036,140,3.09953498,-1.69752391,-3.09798439,-0.00038147,1.56012631,0.00000000,3.09953498,-1.64716990,-3.09798439,-0.00038225,1.56013155,-0.00000001,3.09953498,-1.65022166,-3.09951027,-0.00038147,1.56050778,-0.00038147,-0.00488281,-0.00488281,0.00488281,-0.01464844,0.01464844,-0.01464844,-0.00152588,-0.00228882,-0.00457764,-0.02441406
0.43248868,145,3.09953498,-1.69752391,-3.09798439,-0.00038147,1.56012631,0.00000000,3.09953498,-1.64716990,-3.09798439,-0.00038172,1.56012803,-0.00000000,3.09953498,-1.65022166,-3.09951027,-0.00038147,1.56050778,-0.00038147,0.00000000,-0.00488281,0.00488281,-0.02929688,0.01464844,-0.01464844,-0.00190735,-0.00266113,-0.00419617,0.00000000
0.44586921,150,3.09953498,-1.69752391,-3.09798439,-0.00038147,1.56012631,0.00000000,3.09953498,-1.64716990,-3.09798439,-0.00038155,1.56012687,-0.00000000,3.09953498,-1.65022166,-3.09951027,-0.00038147,1.56050778,-0.00038147,-0.00976562,0.00000000,0.00488281,-0.02929688,0.02929688,-0.01464844,-0.00190735,-0.00292376,-0.00457764,-0.04882812
0.45918560,155,3.09953498,-1.69752391,-3.09798439,-0.00038147,1.56012631,0.00000000,3.09953498,-1.64716990,-3.09798439,-0.00038150,1.56012649,-0.00000000,3.09953498,-1.65022166,-3.09951027,-0.00038147,1.56050778,-0.00038147,-0.00488281,-0.00488281,0.00488281,0.00000000,0.04394531,-0.01464844,-0.00190735,-0.00300981,-0.00419617,0.00000000
0.47293115,160,3.09953498,-1.69752391,-3.09798439,-0.00038147,1.56012631,0.00000000,3.09953498,-1.64716990,-3.09798439,-0.00038148,1.56012637,-0.00000000,3.09953498,-1.65022166,-3.09951027,-0.00038147,1.56050778,-0.00038147,-0.00488281,-0.00488281,0.00488281,-0.02929688,-0.00000000,-0.01464844,-0.00228882,-0.00328826,-0.00457764,-0.02441406
0.48717785,165,3.09953498,-1.69752391,-3.09798439,-0.00038147,1.56012631,0.00000000,3.09953498,-1.64716990,-3.09798439,-0.00038147,1.56012633,-0.00000000,3.09953498,-1.65022166,-3.09951027,-0.00038147,1.56050778,-0.00038147,-0.00976562,-0.00488281,0.00976562,-0.01464844,0.01464844,-0.01464844,-0.00228882,-0.00364219,-0.00419617,0.00000000
0.50281596,170,3.09953498,-1.69752391,-3.09798439,-0.00038147,1.56012631,0.00000000,3.09953498,-1.64716990,-3.09798439,-0.00038147,1.56012632,-0.00000000,3.09953498,-1.65022166,-3.09951027,-0.00038147,1.56050778,-0.00038147,-0.00488281,-0.00488281,-0.00000000,0.00000000,0.01464844,0.00000000,-0.00267029,-0.00391076,-0.00457764,-0.02441406
0.51835275,175,3.09953498,-1.69752391,-3.09798439,-0.00038147,1.56012631,0.00000000,3.09953498,-1.64716990,-3.09798439,-0.00038147,1.56012631,-0.00000000,3.09953498,-1.65022166,-3.09951027,-0.00038147,1.56050778,-0.00038147,-0.00488281,0.00000000,-0.00000000,-0.01464844,0.01464844,0.00000000,-0.00267029,-0.00435911,-0.00457764,-0.02441406
0.53508711,180,3.09953498,-1.69752391,-3.09798439,-0.00038147,1.56012631,0.00000000,3.09953498,-1.64716990,-3.09798439,-0.00038147,1.56012631,-0.00000000,3.09953498,-1.65022166,-3.09951027,-0.00038147,1.56050778,-0.00038147,-0.00488281,-0.00488281,0.00488281,0.00000000,0.01464844,-0.02929688,-0.00381470,-0.00556829,-0.00457764,-0.02441406
0.54684258,185,3.09953498,-1.69752391,-3.09798439,-0.00038147,1.56012631,0.00000000,3.09953498,-1.64716990,-3.09798439,-0.00038147,1.56012631,-0.00000000,3.09953498,-1.65022166,-3.09951027,-0.00038147,1.56050778,-0.00038147,-0.00488281,-0.00488281,0.00488281,-0.01464844,0.02929688,-0.01464844,-0.00762939,-0.01179019,-0.00457764,-0.04882812
0.56111979,190,3.09953498,-1.69752391,-3.09798439,-0.00038147,1.56012631,0.00000000,3.09953498,-1.64716990,-3.09798439,-0.00038147,1.56012631,-0.00000000,3.09953498,-1.65022166,-3.09951027,-0.00038147,1.56050778,-0.00038147,-0.00488281,-0.00488281,0.00488281,-0.01464844,0.01464844,0.00000000,-0.00686646,-0.01264588,-0.00457764,-0.04882812
0.57470345,195,3.09953498,-1.69752391,-3.09798439,-0.00038147,1.56012631,0.00000000,3.09953498,-1.64716990,-3.09798439,-0.00038147,1.56012631,-0.00000000,3.09953498,-1.65022166,-3.09951027,-0.00038147,1.56050778,-0.00038147,-0.00976562,-0.00488281,0.00976562,-0.01464844,0.01464844,-0.01464844,-0.00686646,-0.01276612,-0.00457764,-0.04882812
0.58755207,200,3.09953498,-1.69752391,-3.09798439,-0.00076294,1.56012631,0.00000000,3.09953498,-1.64716990,-3.09798439,-0.00045776,1.56012631,-0.00000000,3.09953498,-1.65022166,-3.09951027,-0.00038147,1.56050778,-0.00038147,-0.00488281,-0.00488281,0.00488281,-0.02929688,-0.00000000,-0.02929688,-0.00686646,-0.01290317,-0.00457764,-0.04882812
0.59971142,205,3.09953498,-1.69752391,-3.09798439,-0.00038147,1.56012631,0.00000000,3.09953498,-1.64716990,-3.09798439,-0.00040647,1.56012631,-0.00000000,3.09953498,-1.65022166,-3.09951027,-0.00038147,1.56050778,-0.00038147,-0.00488281,-0.00488281,0.00976562,-0.02929688,0.01464844,0.00000000,-0.00686646,-0.01294808,-0.00457764,-0.02441406
0.61243773,210,3.09953498,-1.69752391,-3.09798439,-0.00038147,1.56012631,0.00000000,3.09953498,-1.64716990,-3.09798439,-0.00038966,1.56012631,-0.00000000,3.09953498,-1.65022166,-3.09951027,-0.00038147,1.56050778,-0.00038147,-0.00488281,-0.00488281,0.00976562,-0.01464844,0.02929688,0.00000000,-0.00686646,-0.01296280,-0.00457764,-0.02441406
0.62657619,215,3.09953498,-1.69752391,-3.09798439,-0.00038147,1.56012631,0.00000000,3.09953498,-1.64716990,-3.09798439,-0.00038415,1.56012631,-0.00000000,3.09953498,-1.65022166,-3.09951027,-0.00038147,1.56050778,-0.00038147,-0.00488281,0.00000000,0.00488281,-0.02929688,0.01464844,-0.01464844,-0.00686646,-0.01296762,-0.00457764,-0.02441406
0.64036345,220,3.09953498,-1.69752391,-3.09798439,-0.00038147,1.56012631,0.00000000,3.09953498,-1.64716990,-3.09798439,-0.00038235,1.56012631,-0.00000000,3.09953498,-1.65022166,-3.09951027,-0.00038147,1.56050778,-0.00038147,0.00000000,-0.00488281,0.00488281,-0.02929688,0.02929688,-0.01464844,-0.00686646,-0.01296920,-0.00457764,0.00000000
0.65326214,225,3.09953498,-1.69752391,-3.09798439,-0.00038147,1.56012631,0.00000000,3.09953498,-1.64716990,-3.09798439,-0.00038176,1.56012631,-0.00000000,3.09953498,-1.65022166,-3.09951027,-0.00038147,1.56050778,-0.00038147,0.00000000,-0.00976562,0.00488281,-0.01464844,0.01464844,-0.01464844,-0.00686646,-0.01296972,-0.00495911,-0.04882812
0.67151999,230,3.09953498,-1.69752391,-3.09798439,-0.00038147,1.56012631,0.00000000,3.09953498,-1.64716990,-3.09798439,-0.00038156,1.56012631,-0.00000000,3.09953498,-1.65022166,-3.09951027,-0.00038147,1.56050778,-0.00038147,-0.00488281,-0.00488281,0.00488281,-0.02929688,0.02929688,-0.01464844,-0.00686646,-0.01296989,-0.00534058,-0.07324219
0.68444395,235,3.09953498,-1.69752391,-3.09798439,-0.00038147,1.56012631,0.00000000,3.09953498,-1.64716990,-3.09798439,-0.00038150,1.56012631,-0.00000000,3.09953498,-1.65022166,-3.09951027,-0.00038147,1.56050778,-0.00038147,-0.00488281,-0.00488281,0.00976562,-0.02929688,0.01464844,-0.01464844,-0.00686646,-0.01296994,-0.00572205,-0.04882812
0.70006037,240,3.09953498,-1.69752391,-3.09798439,-0.00038147,1.56012631,0.00000000,3.09953498,-1.64716990,-3.09798439,-0.00038148,1.56012631,-0.00000000,3.09953498,-1.64984019,-3.09951027,-0.00038147,1.56050778,-0.00038147,-0.00488281,-0.00488281,0.00488281,0.00000000,-0.00000000,-0.02929688,-0.00686646,-0.01296996,-0.00762939,-0.19531250
0.71384931,245,3.09953498,-1.69752391,-3.09798439,-0.00038147,1.56012631,0.00000000,3.09953498,-1.64716990,-3.09798439,-0.00038147,1.56012631,-0.00000000,3.09953498,-1.64984019,-3.09951027,-0.00038147,1.56050778,-0.00038147,0.00000000,-0.00488281,0.00976562,-0.01464844,0.02929688,-0.02929688,-0.00686646,-0.01325219,-0.01029968,-0.09765625
0.72725606,250,3.09953498,-1.69752391,-3.09798439,-0.00038147,1.56012631,0.00000000,3.09953498,-1.64716990,-3.09798439,-0.00044251,1.56012631,-0.00000000,3.09953498,-1.64984019,-3.09951027,-0.00038147,1.56050778,-0.00038147,-0.00488281,-0.00488281,0.00976562,0.00000000,-0.00000000,-0.01464844,-0.00724792,-0.01343476,-0.01029968,-0.04882812
0.74349141,255,3.09953498,-1.69752391,-3.09798439,-0.00038147,1.56012631,0.00000000,3.09953498,-1.64716990,-3.09798439,-0.00045030,1.56012631,-0.00000000,3.09953498,-1.64984019,-3.09912880,-0.00038147,1.56050778,-0.00038147,-0.00488281,0.00488281,0.00976562,0.00000000,0.02929688,-0.01464844,-0.00724792,-0.01363521,-0.01029968,0.00000000
0.75782943,260,3.09953498,-1.69752391,-3.09798439,-0.00038147,1.56012631,0.00000000,3.09953498,-1.64716990,-3.09798439,-0.00040402,1.56012631,-0.00000000,3.09953498,-1.64984019,-3.09912880,-0.00038147,1.56050778,-0.00038147,-0.00488281,0.00488281,0.00488281,-0.02929688,0.01464844,0.00000000,-0.00724792,-0.01370090,-0.01029968,-0.02441406
0.77379084,265,3.09953498,-1.69752391,-3.09798439,-0.00038147,1.56012631,0.00000000,3.09953498,-1.64716990,-3.09798439,-0.00038886,1.56012631,-0.00000000,3.09953498,-1.64945872,-3.09912880,-0.00038147,1.56050778,-0.00038147,0.00000000,0.00488281,0.00488281,-0.02929688,0.01464844,-0.01464844,-0.00762939,-0.01397266,-0.01029968,-0.04882812
0.78655958,270,3.09953498,-1.69752391,-3.09798439,-0.00038147,1.56012631,0.00000000,3.09953498,-1.64716990,-3.09798439,-0.00038389,1.56012631,-0.00000000,3.09953498,-1.64945872,-3.09912880,-0.00038147,1.56050778,-0.00038147,-0.00488281,0.00488281,0.00488281,-0.01464844,0.01464844,-0.02929688,-0.00762939,-0.01424629,-0.01029968,-0.02441406
0.80235839,275,3.09953498,-1.69752391,-3.09798439,-0.00038147,1.56012631,0.00000000,3.09953498,-1.64716990,-3.09798439,-0.00038226,1.56012631,-0.00000000,3.09953498,-1.64945872,-3.09912880,-0.00038147,1.56050778,-0.00038147,-0.00488281,0.00000000,0.00976562,-0.01464844,-0.00000000,0.00000000,-0.00762939,-0.01441407,-0.01068115,-0.04882812
0.81678867,280,3.09953498,-1.69752391,-3.09798439,-0.00038147,1.56012631,0.00000000,3.09953498,-1.64716990,-3.09798439,-0.00038173,1.56012631,-0.00000000,3.09953498,-1.64907725,-3.09912880,-0.00038147,1.56050778,-0.00038147,-0.00488281,0.00000000,0.00976562,-0.01464844,0.01464844,-0.01464844,-0.00762939,-0.01446905,-0.01106262,-0.07324219
0.83175206,285,3.09953498,-1.69752391,-3.09798439,-0.00038147,1.56012631,0.00000000,3.09953498,-1.64716990,-3.09798439,-0.00038155,1.56012631,-0.00000000,3.09953498,-1.64907725,-3.09912880,-0.00038147,1.56050778,-0.00038147,-0.00488281,-0.00488281,0.01464844,-0.01464844,0.02929688,-0.02929688,-0.00801086,-0.01471778,-0.01258850,-0.12207031
0.84541821,290,3.09953498,-1.69752391,-3.09798439,-0.00038147,1.55974484,0.00000000,3.09953498,-1.64716990,-3.09798439,-0.00038150,1.56005002,-0.00000000,3.09953498,-1.64907725,-3.09912880,-0.00038147,1.56050778,-0.00038147,-0.00976562,-0.00488281,0.00976562,-0.01464844,0.01464844,0.00000000,-0.00801086,-0.01508151,-0.01487732,-0.21972656
0.86134529,295,3.09953498,-1.69752391,-3.09798439,-0.00038147,1.55974484,0.00000000,3.09953498,-1.64716990,-3.09798439,-0.00038148,1.55984484,0.00004883,3.09953498,-1.64907725,-3.09874733,-0.00038147,1.56050778,-0.00038147,-0.00488281,-0.00488281,0.00976562,-0.01464844,-0.00000000,-0.01464844,-0.00801086,-0.01520070,-0.01487732,-0.04882812
0.87942982,300,3.09953498,-1.69752391,-3.09798439,-0.00038147,1.55936337,0.00000000,3.09953498,-1.64716990,-3.09798439,-0.00038147,1.55955239,0.00013514,3.09953498,-1.64907725,-3.09874733,-0.00076294,1.56050778,-0.00038147,-0.00488281,-0.00488281,0.00976562,0.00000000,0.01464844,-0.01464844,-0.00801086,-0.01530225,-0.01487732,-0.04882812
0.89117551,305,3.09953498,-1.69752391,-3.09798439,-0.00038147,1.55821896,0.00038147,3.09953498,-1.64716990,-3.09798439,-0.00038147,1.55877504,0.00025192,3.09953498,-1.64907725,-3.09874733,-0.00038147,1.56050778,-0.00038147,0.00000000,-0.00488281,0.00488281,-0.01464844,0.01464844,0.00000000,-0.00839233,-0.01552328,-0.01487732,-0.04882812
0.90589976,310,3.09953498,-1.69752391,-3.09798439,-0.00038147,1.55554867,0.00038147,3.09953498,-1.64716990,-3.09798439,-0.00038147,1.55731829,0.00030777,3.09953498,-1.64907725,-3.09874733,-0.00038147,1.56050778,-0.00038147,-0.00488281,-0.00488281,0.00488281,-0.01464844,0.01464844,-0.01464844,-0.00839233,-0.01585840,-0.01487732,-0.04882812
0.92124248,315,3.09953498,-1.69752391,-3.09798439,-0.00038147,1.55325985,0.00038147,3.09953498,-1.64716990,-3.09798439,-0.00038147,1.55510974,0.00035732,3.09953498,-1.64907725,-3.09874733,-0.00038147,1.56050778,-0.00038147,-0.00488281,0.00000000,0.00488281,0.00000000,0.01464844,-0.01464844,-0.00839233,-0.01596821,-0.01487732,-0.02441406
0.93504429,320,3.09953498,-1.69752391,-3.09798439,-0.00038147,1.55135251,0.00038147,3.09953498,-1.64716990,-3.09798439,-0.00038147,1.55301581,0.00037356,3.09953498,-1.64907725,-3.09874733,-0.00038147,1.56050778,-0.00038147,0.00000000,0.00000000,0.00488281,-0.01464844,-0.00000000,0.00000000,-0.00839233,-0.01600419,-0.01487732,-0.04882812
0.94877219,325,3.09953498,-1.69752391,-3.09798439,-0.00038147,1.54906369,0.00038147,3.09953498,-1.64716990,-3.09798439,-0.00038147,1.55107942,0.00037888,3.09953498,-1.64907725,-3.09874733,-0.00038147,1.56012631,-0.00038147,-0.00488281,-0.00488281,0.00976562,-0.01464844,0.01464844,0.00000000,-0.00839233,-0.01601598,-0.01487732,-0.02441406
0.96493697,330,3.09953498,-1.69752391,-3.09798439,-0.00038147,1.54677487,0.00038147,3.09953498,-1.64716990,-3.09798439,-0.00038147,1.54868636,0.00038062,3.09953498,-1.64907725,-3.09874733,-0.00038147,1.56012631,-0.00038147,-0.00976562,-0.00488281,0.00488281,-0.01464844,0.01464844,-0.01464844,-0.00839233,-0.01616047,-0.01487732,-0.04882812
0.97893190,335,3.09953498,-1.69752391,-3.09798439,0.00000000,1.54486752,0.00038147,3.09953498,-1.64716990,-3.09798439,-0.00019531,1.54651976,0.00038119,3.09953498,-1.64907725,-3.09874733,-0.00038147,1.56012631,-0.00038147,-0.00488281,0.00000000,0.00488281,-0.01464844,-0.00000000,-0.01464844,-0.00839233,-0.01606719,-0.01487732,0.00000000
0.99275494,340,3.09953498,-1.69752391,-3.09798439,0.00000000,1.54334164,0.00038147,3.09953498,-1.64716990,-3.09798439,-0.00006400,1.54460375,0.00038138,3.09953498,-1.64907725,-3.09874733,-0.00038147,1.55974484,-0.00038147,-0.00488281,0.00000000,0.00488281,-0.02929688,-0.01464844,-0.01464844,-0.00839233,-0.01603663,-0.01487732,-0.02441406
1.00872064,345,3.09953498,-1.69752391,-3.09798439,0.00038147,1.54028988,0.00038147,3.09953498,-1.64716990,-3.09798439,0.00011636,1.54207455,0.00038144,3.09953498,-1.64907725,-3.09874733,-0.00076294,1.55974484,-0.00038147,-0.00488281,-0.00488281,0.00488281,-0.01464844,-0.00000000,0.00000000,-0.00877380,-0.01644189,-0.01487732,-0.04882812
1.02354789,350,3.09953498,-1.69752391,-3.09798439,0.00038147,1.53761960,0.00038147,3.09953498,-1.64716990,-3.09798439,0.00029460,1.53962920,0.00038146,3.09953498,-1.64869578,-3.09874733,-0.00038147,1.55936337,-0.00038147,-0.00488281,0.00000000,0.00488281,-0.01464844,-0.00000000,-0.02929688,-0.00877380,-0.01655028,-0.01487732,-0.04882812
1.03721714,355,3.09953498,-1.69752391,-3.09798439,0.00038147,1.53571225,0.00038147,3.09953498,-1.64716990,-3.09798439,0.00035300,1.53736538,0.00038147,3.09953498,-1.64869578,-3.09874733,-0.00038147,1.55898190,-0.00038147,0.00000000,0.00488281,0.00488281,-0.02929688,-0.02929688,-0.01464844,-0.00839233,-0.01633555,-0.01487732,-0.04882812
1.05368495,360,3.09953498,-1.69752391,-3.09798439,0.00038147,1.53342343,0.00038147,3.09953498,-1.64716990,-3.09798439,0.00037214,1.53518632,0.00038147,3.09953498,-1.64869578,-3.09874733,-0.00038147,1.55745602,-0.00038147,0.00000000,0.00000000,0.00976562,-0.01464844,-0.08789062,-0.01464844,-0.00877380,-0.01653984,-0.01487732,-0.02441406
1.06921554,365,3.09953498,-1.69752391,-3.09798439,0.00038147,1.53151608,0.00038147,3.09953498,-1.64716990,-3.09798439,0.00037841,1.53308056,0.00038147,3.09953498,-1.64831431,-3.09874733,-0.00038147,1.55669308,-0.00038147,-0.00488281,0.00000000,0.00488281,-0.01464844,-0.01464844,-0.01464844,-0.00877380,-0.01670444,-0.01525879,-0.04882812
1.08505177,370,3.09953498,-1.69752391,-3.09798439,0.00038147,1.52960873,0.00038147,3.09953498,-1.64716990,-3.09798439,0.00038047,1.53127861,0.00038147,3.09953498,-1.64831431,-3.09874733,-0.00076294,1.55554867,-0.00038147,-0.00488281,0.00000000,0.00488281,-0.01464844,-0.04394531,-0.02929688,-0.00877380,-0.01666072,-0.01487732,-0.04882812
1.09986401,375,3.09953498,-1.69752391,-3.09798439,0.00038147,1.52846432,0.00038147,3.09953498,-1.64716990,-3.09798439,0.00038114,1.52953690,0.00038147,3.09953498,-1.64831431,-3.09836586,-0.00038147,1.55325985,-0.00038147,-0.00488281,0.00000000,0.00976562,-0.01464844,-0.17578125,-0.01464844,-0.00839233,-0.01646940,-0.01487732,-0.02441406
1.11484671,380,3.09953498,-1.69752391,-3.09798439,0.00038147,1.52808285,0.00038147,3.09953498,-1.64716990,-3.09798439,0.00038136,1.52862963,0.00038147,3.09953498,-1.64831431,-3.09836586,-0.00076294,1.55173398,-0.00038147,-0.00976562,0.00000000,0.00976562,-0.02929688,-0.13183594,-0.01464844,-0.00877380,-0.01658370,-0.01487732,-0.02441406
1.12913656,385,3.09953498,-1.69714244,-3.09798439,0.00038147,1.52731991,0.00038147,3.09953498,-1.64709361,-3.09798439,0.00038143,1.52800933,0.00038147,3.09953498,-1.64831431,-3.09836586,-0.00038147,1.54868222,-0.00038147,-0.00488281,-0.00488281,0.00976562,-0.01464844,-0.14648438,-0.02929688,-0.00877380,-0.01653425,-0.01525879,-0.02441406
1.14335227,390,3.09953498,-1.69714244,-3.09798439,0.00038147,1.52693844,0.00038147,3.09953498,-1.64695874,-3.09798439,0.00038146,1.52735967,0.00038147,3.09953498,-1.64831431,-3.09836586,-0.00076294,1.54677487,-0.00038147,-0.00488281,-0.00976562,0.00488281,-0.01464844,-0.13183594,-0.01464844,-0.00877380,-0.01680027,-0.01525879,-0.04882812
1.15860796,395,3.09953498,-1.69714244,-3.09798439,0.00038147,1.52617550,0.00038147,3.09953498,-1.64690528,-3.09798439,0.00038147,1.52659478,0.00038147,3.09953498,-1.64831431,-3.09836586,-0.00076294,1.54486752,-0.00038147,-0.00488281,-0.00488281,0.00488281,-0.02929688,-0.13183594,-0.01464844,-0.00877380,-0.01678978,-0.01525879,-0.02441406
1.17057014,400,3.09953498,-1.69752391,-3.09798439,0.00038147,1.52579403,0.00038147,3.09953498,-1.64690301,-3.09798439,0.00038147,1.52608767,0.00038147,3.09953498,-1.64831431,-3.09836586,-0.00038147,1.54296017,-0.00038147,-0.00976562,-0.00488281,0.00488281,-0.02929688,-0.10253906,-0.01464844,-0.00877380,-0.01678634,-0.01525879,-0.02441406
1.18632245,405,3.09953498,-1.69714244,-3.09798439,0.00038147,1.52541256,0.00038147,3.09953498,-1.64682598,-3.09798439,0.00038147,1.52572167,0.00038147,3.09953498,-1.64831431,-3.09836586,-0.00038147,1.54028988,0.00000000,-0.00488281,0.00000000,0.00976562,-0.02929688,-0.08789062,-0.01464844,-0.00877380,-0.01708307,-0.01525879,-0.04882812
1.20162678,410,3.09953498,-1.69714244,-3.09798439,0.00038147,1.52541256,0.00038147,3.09953498,-1.64683980,-3.09798439,0.00038147,1.52551385,0.00038147,3.09953498,-1.64831431,-3.09836586,-0.00038147,1.53876401,0.00000000,-0.00976562,0.00000000,0.00488281,-0.01464844,-0.07324219,-0.01464844,-0.00915527,-0.01723523,-0.01525879,-0.04882812
1.21694660,415,3.09953498,-1.69714244,-3.09798439,0.00038147,1.52541256,0.00038147,3.09953498,-1.64680526,-3.09798439,0.00038147,1.52544576,0.00038147,3.09953498,-1.64793284,-3.09836586,-0.00038147,1.53800107,-0.00038147,-0.00488281,0.00488281,0.00488281,0.00000000,-0.02929688,-0.01464844,-0.00915527,-0.01730462,-0.01564026,-0.02441406
1.23065877,420,3.09953498,-1.69714244,-3.09798439,0.00038147,1.52541256,0.00038147,3.09953498,-1.64683301,-3.09798439,0.00038147,1.52542344,0.00038147,3.09953498,-1.64793284,-3.09836586,-0.00038147,1.53761960,-0.00038147,-0.00488281,0.00000000,-0.00000000,0.00000000,-0.00000000,-0.01464844,-0.00915527,-0.01740549,-0.01564026,0.00000000
1.24466658,425,3.09953498,-1.69714244,-3.09798439,0.00038147,1.52541256,0.00038147,3.09953498,-1.64680304,-3.09798439,0.00038147,1.52541613,0.00038147,3.09953498,-1.64793284,-3.09836586,-0.00038147,1.53761960,0.00000000,-0.00488281,0.00488281,0.00488281,-0.01464844,-0.01464844,-0.01464844,-0.00915527,-0.01750104,-0.01564026,-0.04882812
1.25817990,430,3.09953498,-1.69714244,-3.09798439,0.00038147,1.52541256,0.00038147,3.09953498,-1.64679322,-3.09798439,0.00038147,1.52541373,0.00038147,3.09953498,-1.64793284,-3.09836586,-0.00038147,1.53685666,-0.00038147,-0.00976562,0.00000000,0.00488281,-0.01464844,-0.01464844,-0.02929688,-0.00915527,-0.01753235,-0.01564026,0.00000000
1.27403283,435,3.09953498,-1.69714244,-3.09798439,0.00038147,1.52541256,0.00038147,3.09953498,-1.64685104,-3.09798439,0.00038147,1.52532066,0.00038147,3.09953498,-1.64793284,-3.09836586,-0.00038147,1.53685666,0.00000000,-0.00488281,0.00000000,0.00488281,0.00000000,0.02929688,-0.01464844,-0.00915527,-0.01754261,-0.01602173,-0.02441406
1.28572941,440,3.09953498,-1.69714244,-3.09798439,0.00038147,1.52541256,0.00038147,3.09953498,-1.64685777,-3.09798439,0.00038147,1.52525110,0.00038147,3.09953498,-1.64793284,-3.09836586,-0.00076294,1.53647519,0.00000000,-0.00976562,-0.00488281,0.00976562,-0.01464844,-0.00000000,-0.01464844,-0.00915527,-0.01754597,-0.01602173,-0.02441406
1.29977942,445,3.09953498,-1.69714244,-3.09798439,0.00038147,1.52503110,0.00038147,3.09953498,-1.64681115,-3.09798439,0.00038147,1.52519108,0.00038147,3.09953498,-1.64793284,-3.09836586,-0.00038147,1.53609372,0.00000000,-0.00488281,-0.00488281,0.00976562,0.00000000,-0.01464844,-0.01464844,-0.00915527,-0.01754707,-0.01602173,0.00000000
1.31404996,450,3.09953498,-1.69714244,-3.09798439,0.00038147,1.52503110,0.00038147,3.09953498,-1.64679588,-3.09798439,0.00038147,1.52508352,0.00038147,3.09953498,-1.64793284,-3.09836586,-0.00076294,1.53533078,0.00000000,-0.00488281,-0.00488281,-0.00000000,-0.01464844,-0.07324219,-0.02929688,-0.00915527,-0.01754743,-0.01640320,-0.02441406
1.33033681,455,3.09953498,-1.69714244,-3.09798439,0.00038147,1.52503110,0.00038147,3.09953498,-1.64679087,-3.09798439,0.00038147,1.52504827,0.00038147,3.09953498,-1.64793284,-3.09836586,-0.00076294,1.53342343,0.00000000,-0.00488281,-0.00488281,0.00488281,-0.02929688,-0.07324219,0.00000000,-0.00915527,-0.01754755,-0.01640320,-0.04882812
1.34503317,460,3.09953498,-1.69714244,-3.09798439,0.00038147,1.52503110,0.00038147,3.09953498,-1.64678923,-3.09798439,0.00038147,1.52503672,0.00038147,3.09953498,-1.64793284,-3.09836586,-0.00076294,1.53266049,0.00000000,-0.00488281,-0.00488281,0.00488281,-0.01464844,-0.04394531,-0.01464844,-0.00915527,-0.01754759,-0.01640320,-0.02441406
1.35819936,465,3.09953498,-1.69676097,-3.09798439,0.00038147,1.52503110,0.00038147,3.09953498,-1.64660254,-3.09798439,0.00038147,1.52503294,0.00038147,3.09953498,-1.64793284,-3.09836586,-0.00038147,1.53189755,0.00000000,-0.00488281,-0.00488281,0.00488281,-0.01464844,-0.01464844,0.00000000,-0.00915527,-0.01754760,-0.01678467,-0.04882812
1.37209463,470,3.09953498,-1.69637950,-3.09798439,0.00038147,1.52503110,0.00038147,3.09953498,-1.64633372,-3.09798439,0.00038147,1.52509273,0.00038147,3.09953498,-1.64793284,-3.09836586,-0.00038147,1.53151608,0.00000000,0.00000000,-0.00488281,0.00976562,-0.01464844,-0.00000000,-0.01464844,-0.00915527,-0.01754761,-0.01716614,-0.04882812
1.38689685,475,3.09953498,-1.69599803,-3.09798439,0.00038147,1.52503110,0.00038147,3.09953498,-1.64590127,-3.09798439,0.00038147,1.52512161,0.00038147,3.09953498,-1.64793284,-3.09798439,-0.00038147,1.53151608,0.00000000,-0.00488281,-0.00976562,0.00488281,-0.02929688,0.01464844,-0.02929688,-0.00915527,-0.01754761,-0.01754761,-0.07324219
1.40189719,480,3.09953498,-1.69561656,-3.09798439,0.00038147,1.52541256,0.00038147,3.09953498,-1.64565202,-3.09798439,0.00038147,1.52531722,0.00038147,3.09953498,-1.64755137,-3.09798439,-0.00038147,1.53151608,0.00000000,0.00000000,-0.00488281,0.00976562,-0.02929688,-0.00000000,-0.01464844,-0.00915527,-0.01754761,-0.01869202,-0.09765625
1.41439342,485,3.09953498,-1.69523509,-3.09798439,0.00038147,1.52541256,0.00038147,3.09953498,-1.64520402,-3.09798439,0.00038147,1.52538132,0.00038147,3.09953498,-1.64755137,-3.09798439,-0.00038147,1.53151608,0.00000000,-0.00488281,-0.00488281,0.00488281,0.00000000,-0.01464844,-0.01464844,-0.00915527,-0.01761011,-0.01945496,-0.09765625
1.42731380,490,3.09953498,-1.69447215,-3.09798439,0.00038147,1.52541256,0.00038147,3.09953498,-1.64468539,-3.09798439,0.00038147,1.52540233,0.00038147,3.09953498,-1.64755137,-3.09798439,-0.00038147,1.53113461,0.00000000,-0.00488281,0.00000000,-0.00000000,-0.01464844,-0.00000000,-0.01464844,-0.00915527,-0.01756809,-0.01945496,-0.02441406
1.44371319,495,3.09953498,-1.69409068,-3.09798439,0.00038147,1.52579403,0.00038147,3.09953498,-1.64411786,-3.09798439,0.00038147,1.52559537,0.00038147,3.09953498,-1.64755137,-3.09798439,-0.00038147,1.53075314,0.00000000,-0.00488281,-0.00488281,0.00488281,-0.01464844,-0.00000000,-0.02929688,-0.00915527,-0.01755432,-0.01945496,0.00000000
1.45817780,500,3.09953498,-1.69294627,-3.09798439,0.00038147,1.52579403,0.00038147,3.09953498,-1.64337391,-3.09798439,0.00038147,1.52572894,0.00038147,3.09953498,-1.64755137,-3.09798439,-0.00038147,1.53075314,0.00000000,0.00000000,0.00000000,0.00488281,-0.01464844,0.01464844,-0.01464844,-0.00915527,-0.01754981,-0.01945496,-0.02441406
1.47098327,505,3.09953498,-1.69218333,-3.09798439,0.00038147,1.52579403,0.00038147,3.09953498,-1.64258594,-3.09798439,0.00038147,1.52577270,0.00038147,3.09953498,-1.64755137,-3.09798439,-0.00038147,1.53075314,0.00000000,-0.00488281,-0.00488281,0.00488281,0.01464844,-0.00000000,-0.01464844,-0.00915527,-0.01754833,-0.01945496,-0.02441406
1.48495221,510,3.09953498,-1.69180186,-3.09798439,0.00038147,1.52579403,0.00038147,3.09953498,-1.64189110,-3.09790432,0.00038147,1.52584808,0.00038147,3.09953498,-1.64755137,-3.09798439,-0.00038147,1.53037167,0.00000000,-0.00488281,0.00000000,0.00488281,0.00000000,-0.00000000,-0.01464844,-0.00915527,-0.01754784,-0.01945496,0.00000000
1.49820399,515,3.09953498,-1.69065745,-3.09760292,0.00038147,1.52579403,0.00038147,3.09953498,-1.64101314,-3.09776272,0.00038147,1.52581174,0.00038147,3.09953498,-1.64755137,-3.09798439,-0.00038147,1.53037167,0.00000000,-0.00488281,-0.00488281,0.00488281,-0.01464844,-0.00000000,-0.01464844,-0.00915527,-0.01754768,-0.01945496,0.00000000
1.51400018,520,3.09953498,-1.68989451,-3.09760292,0.00038147,1.52579403,0.00038147,3.09953498,-1.64017345,-3.09768654,0.00038147,1.52579984,0.00038147,3.09953498,-1.64755137,-3.09798439,-0.00038147,1.52999020,-0.00038147,-0.00488281,0.00000000,0.00488281,-0.01464844,0.02929688,0.00000000,-0.00915527,-0.01754763,-0.01945496,-0.04882812
1.53060937,525,3.09953498,-1.68875010,-3.09760292,0.00038147,1.52579403,0.00038147,3.09953498,-1.63912889,-3.09763032,0.00038147,1.52579594,0.00038147,3.09953498,-1.64755137,-3.09798439,-0.00038147,1.52999020,0.00000000,-0.00488281,0.00000000,0.00488281,-0.01464844,0.01464844,-0.01464844,-0.00915527,-0.01754762,-0.01945496,0.00000000
1.54493070,530,3.09953498,-1.68798716,-3.09760292,0.00038147,1.52579403,0.00038147,3.09953498,-1.63830346,-3.09761190,0.00038147,1.52579466,0.00038147,3.09953498,-1.64755137,-3.09798439,-0.00038147,1.52960873,0.00000000,-0.00976562,0.00000000,0.00976562,-0.01464844,0.01464844,-0.01464844,-0.00915527,-0.01754761,-0.01945496,-0.04882812
1.55912519,535,3.09953498,-1.68684275,-3.09760292,0.00038147,1.52579403,0.00038147,3.09953498,-1.63727285,-3.09760587,0.00038147,1.52582549,0.00038147,3.09953498,-1.64755137,-3.09798439,-0.00038147,1.52960873,0.00000000,-0.00488281,0.00000000,0.00488281,-0.02929688,-0.01464844,-0.02929688,-0.00953674,-0.01776270,-0.01945496,0.00000000
1.57294607,540,3.09953498,-1.68531687,-3.09760292,0.00038147,1.52579403,0.00038147,3.09953498,-1.63605037,-3.09760389,0.00038147,1.52580434,0.00038147,3.09953498,-1.64716990,-3.09798439,-0.00038147,1.52960873,0.00000000,-0.00488281,0.00000000,0.00488281,-0.01464844,-0.00000000,-0.02929688,-0.01068115,-0.01871086,-0.01945496,-0.02441406
1.58698797,545,3.09953498,-1.68455394,-3.09760292,0.00038147,1.52579403,0.00038147,3.09953498,-1.63487660,-3.09760324,0.00038147,1.52579741,0.00038147,3.09953498,-1.64716990,-3.09798439,-0.00038147,1.52922726,0.00000000,-0.00488281,0.00488281,0.00488281,-0.01464844,-0.00000000,-0.02929688,-0.01144409,-0.02088142,-0.01945496,-0.02441406
1.60225606,550,3.09953498,-1.68264659,-3.09760292,0.00038147,1.52579403,0.00038147,3.09953498,-1.63345230,-3.09760303,0.00038147,1.52579514,0.00038147,3.09953498,-1.64716990,-3.09798439,-0.00038147,1.52922726,0.00000000,-0.00488281,0.00488281,0.00488281,0.00000000,0.02929688,-0.02929688,-0.01106262,-0.02134535,-0.01945496,-0.02441406
1.61666274,555,3.09953498,-1.68073924,-3.09760292,0.00038147,1.52579403,0.00038147,3.09953498,-1.63190099,-3.09760296,0.00038147,1.52579440,0.00038147,3.09953498,-1.64678843,-3.09798439,-0.00038147,1.52884579,-0.00038147,-0.00488281,0.01464844,0.00488281,0.00000000,-0.00000000,-0.02929688,-0.01144409,-0.02180719,-0.01945496,-0.04882812
1.62961149,560,3.09953498,-1.67921336,-3.09760292,0.00038147,1.52579403,0.00038147,3.09953498,-1.63025692,-3.09760293,0.00038147,1.52579415,0.00038147,3.09953498,-1.64640696,-3.09798439,-0.00038147,1.52884579,0.00000000,0.00000000,0.01464844,0.00488281,0.00000000,-0.00000000,-0.01464844,-0.01144409,-0.02194290,-0.01945496,-0.02441406
1.64378881,565,3.09953498,-1.67730601,-3.09760292,0.00038147,1.52579403,0.00038147,3.09953498,-1.62843584,-3.09760293,0.00038147,1.52579407,0.00038147,3.09953498,-1.64640696,-3.09798439,-0.00038147,1.52846432,0.00000000,-0.00488281,0.00976562,0.00488281,-0.02929688,-0.00000000,-0.01464844,-0.01106262,-0.02191291,-0.01945496,-0.02441406
1.65728498,570,3.09953498,-1.67539866,-3.09760292,0.00038147,1.52579403,0.00038147,3.09953498,-1.62655676,-3.09760292,0.00038147,1.52579405,0.00038147,3.09953498,-1.64564402,-3.09798439,-0.00038147,1.52808285,0.00000000,-0.00488281,0.03417969,0.00488281,-0.02929688,-0.00000000,-0.01464844,-0.01106262,-0.02178101,-0.01945496,-0.02441406
1.67098641,575,3.09953498,-1.67387278,-3.09760292,0.00038147,1.52579403,0.00038147,3.09953498,-1.62497618,-3.09760292,0.00038147,1.52579404,0.00038147,3.09953498,-1.64526255,-3.09798439,-0.00038147,1.52808285,0.00000000,-0.00488281,0.01953125,0.00488281,-0.02929688,-0.00000000,-0.01464844,-0.01106262,-0.02179736,-0.01945496,-0.02441406
1.68366194,580,3.09953498,-1.67196543,-3.09760292,0.00038147,1.52579403,0.00038147,3.09953498,-1.62319495,-3.09760292,0.00038147,1.52579404,0.00038147,3.09953498,-1.64488108,-3.09798439,-0.00038147,1.52770138,0.00000000,-0.00488281,0.02441406,0.00488281,-0.01464844,-0.01464844,-0.01464844,-0.01144409,-0.02183323,-0.01945496,-0.04882812
1.69638801,585,3.09953498,-1.66967662,-3.09760292,0.00038147,1.52579403,0.00038147,3.09953498,-1.62113349,-3.09760292,0.00038147,1.52579403,0.00038147,3.09953498,-1.64449961,-3.09798439,-0.00038147,1.52693844,0.00000000,-0.00976562,0.03906250,0.00488281,-0.02929688,-0.00000000,-0.01464844,-0.01144409,-0.02195143,-0.01945496,-0.02441406
1.71178150,590,3.09953498,-1.66853221,-3.09760292,0.00038147,1.52579403,0.00038147,3.09953498,-1.61936729,-3.09760292,0.00038147,1.52579403,0.00038147,3.09953498,-1.64411814,-3.09798439,-0.00038147,1.52693844,0.00000000,0.00000000,0.02929688,0.00488281,-0.02929688,-0.00000000,-0.01464844,-0.01144409,-0.02192766,-0.01945496,-0.02441406
1.72554874,595,3.09953498,-1.66586192,-3.09760292,0.00038147,1.52541256,0.00038147,3.09953498,-1.61757285,-3.09760292,0.00038147,1.52571774,0.00038147,3.09953498,-1.64373667,-3.09798439,-0.00038147,1.52693844,0.00000000,-0.00488281,0.01953125,0.00488281,-0.01464844,-0.00000000,-0.01464844,-0.01144409,-0.02193843,-0.01983643,-0.04882812
1.74173951,600,3.09953498,-1.66319163,-3.09760292,0.00038147,1.52541256,0.00038147,3.09953498,-1.61500157,-3.09760292,0.00038147,1.52551256,0.00038147,3.09953498,-1.64335520,-3.09798439,-0.00038147,1.52655697,0.00000000,-0.00488281,0.02441406,-0.00000000,-0.02929688,-0.00000000,-0.01464844,-0.01106262,-0.02191144,-0.01983643,-0.02441406
1.75579166,605,3.09953498,-1.66166575,-3.09760292,0.00038147,1.52541256,0.00038147,3.09953498,-1.61296077,-3.09760292,0.00038147,1.52544533,0.00038147,3.09953498,-1.64259227,-3.09798439,-0.00038147,1.52655697,0.00000000,-0.00488281,0.04882812,0.00488281,0.00000000,0.01464844,-0.01464844,-0.01144409,-0.02179249,-0.01983643,-0.02441406
1.76993799,610,3.09953498,-1.65937693,-3.09760292,0.00038147,1.52541256,0.00038147,3.09953498,-1.61071416,-3.09760292,0.00038147,1.52542330,0.00038147,3.09953498,-1.64182933,-3.09798439,-0.00038147,1.52693844,0.00000000,-0.00488281,0.04882812,0.00488281,-0.01464844,0.02929688,0.00000000,-0.01144409,-0.02191855,-0.01983643,-0.04882812
1.78354406,615,3.09953498,-1.65746958,-3.09760292,0.00038147,1.52541256,0.00038147,3.09953498,-1.60862533,-3.09760292,0.00038147,1.52541608,0.00032043,3.09953498,-1.64144786,-3.09798439,-0.00038147,1.52655697,0.00000000,-0.00488281,0.01953125,0.00488281,-0.02929688,0.01464844,-0.01464844,-0.01106262,-0.02176430,-0.01983643,-0.02441406
1.79784250,620,3.09953498,-1.65556224,-3.09760292,0.00038147,1.52541256,0.00038147,3.09953498,-1.60678986,-3.09760292,0.00038147,1.52541372,0.00036147,3.09953498,-1.64068492,-3.09798439,-0.00038147,1.52655697,0.00000000,-0.00488281,0.04882812,0.00976562,0.00000000,0.02929688,-0.01464844,-0.01106262,-0.02185438,-0.01983643,-0.04882812
1.81423020,625,3.09953498,-1.65289195,-3.09760292,0.00038147,1.52541256,0.00000000,3.09953498,-1.60465338,-3.09760292,0.00038147,1.52541294,0.00018876,3.09953498,-1.63992198,-3.09798439,-0.00038147,1.52655697,0.00000000,-0.00488281,0.05371094,0.00488281,-0.01464844,-0.00000000,0.00000000,-0.01106262,-0.02152355,-0.01983643,-0.04882812
1.82753253,630,3.09953498,-1.65136607,-3.09760292,0.00038147,1.52464963,0.00038147,3.09953498,-1.60254509,-3.09760292,0.00038147,1.52501889,0.00031832,3.09953498,-1.63954051,-3.09798439,-0.00038147,1.52655697,0.00000000,-0.00488281,0.04394531,0.00488281,0.00000000,-0.00000000,-0.01464844,-0.01144409,-0.02184996,-0.02021790,0.00000000
1.84335208,635,3.09953498,-1.64945872,-3.09760292,0.00038147,1.52350522,0.00000000,3.09953498,-1.60063294,-3.09760292,0.00038147,1.52421264,0.00022345,3.09953498,-1.63839610,-3.09798439,-0.00038147,1.52617550,0.00000000,-0.00488281,0.04882812,0.00488281,-0.01464844,0.01464844,-0.01464844,-0.01106262,-0.02188245,-0.02021790,0.00000000
1.85852218,640,3.09953498,-1.64755137,-3.09760292,0.00038147,1.52236081,0.00000000,3.09953498,-1.59872401,-3.09760292,0.00038147,1.52321810,0.00020457,3.09953498,-1.63763316,-3.09798439,-0.00038147,1.52617550,0.00000000,-0.00488281,0.04394531,0.00488281,-0.02929688,0.01464844,-0.01464844,-0.01106262,-0.02167337,-0.02021790,-0.02441406
1.87065029,645,3.09953498,-1.64564402,-3.09760292,0.00038147,1.52159787,0.00038147,3.09953498,-1.59687718,-3.09760292,0.00038147,1.52219910,0.00021364,3.09953498,-1.63687022,-3.09798439,-0.00038147,1.52579403,0.00000000,-0.00488281,0.04882812,0.00488281,-0.01464844,-0.00000000,-0.01464844,-0.01106262,-0.02160486,-0.02021790,-0.02441406
1.88518333,650,3.09953498,-1.64449961,-3.09760292,0.00038147,1.52121640,0.00038147,3.09953498,-1.59528337,-3.09760292,0.00038147,1.52156966,0.00017755,3.09953498,-1.63610728,-3.09798439,-0.00038147,1.52579403,0.00000000,0.00000000,0.05371094,0.00488281,-0.01464844,-0.00000000,-0.01464844,-0.01144409,-0.02177894,-0.02021790,0.00000000
1.89807463,655,3.09953498,-1.64297373,-3.09760292,0.00038147,1.52045346,0.00038147,3.09953498,-1.59382312,-3.09760292,0.00038147,1.52093836,0.00025361,3.09953498,-1.63572581,-3.09798439,-0.00038147,1.52541256,0.00000000,-0.00976562,0.03906250,0.00488281,0.00000000,-0.01464844,-0.01464844,-0.01106262,-0.02179668,-0.02059937,-0.02441406
1.91366911,660,3.09953498,-1.64182933,-3.09760292,0.00038147,1.51969052,0.00038147,3.09953498,-1.59239504,-3.09760292,0.00038147,1.52016972,0.00023948,3.09953498,-1.63458140,-3.09798439,-0.00038147,1.52503110,0.00000000,0.00000000,0.04394531,0.00488281,-0.02929688,-0.01464844,-0.01464844,-0.01144409,-0.02179785,-0.02021790,0.00000000
1.92719126,665,3.09953498,-1.64068492,-3.09760292,0.00038147,1.51892758,0.00038147,3.09953498,-1.59121871,-3.09760292,0.00038147,1.51940492,0.00022508,3.09953498,-1.63419993,-3.09798439,-0.00038147,1.52464963,0.00000000,-0.00488281,0.03417969,0.00488281,-0.01464844,-0.01464844,-0.01464844,-0.01144409,-0.02201796,-0.02021790,0.00000000
1.94269276,670,3.09953498,-1.63992198,-3.09760292,0.00038147,1.51854611,0.00038147,3.09953498,-1.59017139,-3.09760292,0.00038147,1.51885877,0.00033022,3.09953498,-1.63305552,-3.09798439,-0.00038147,1.52388669,0.00000000,0.00000000,0.05859375,0.00488281,-0.01464844,-0.02929688,-0.02929688,-0.01144409,-0.02202759,-0.02021790,-0.02441406
1.95711303,675,3.09953498,-1.63839610,-3.09760292,0.00038147,1.51816464,0.00038147,3.09953498,-1.58899031,-3.09760292,0.00038147,1.51842334,0.00036468,3.09953498,-1.63229258,-3.09798439,-0.00038147,1.52312375,0.00000000,-0.00488281,0.05859375,0.00488281,-0.01464844,-0.02929688,0.00000000,-0.01106262,-0.02194066,-0.02059937,0.00000000
1.97164202,680,3.09953498,-1.63801463,-3.09760292,0.00038147,1.51778317,0.00000000,3.09953498,-1.58812759,-3.09760292,0.00038147,1.51806325,0.00011950,3.09953498,-1.63152964,-3.09798439,-0.00038147,1.52274228,0.00000000,-0.00488281,0.05859375,0.00488281,0.00000000,-0.04394531,0.00000000,-0.01106262,-0.02181451,-0.02059937,-0.02441406
1.98934364,685,3.09953498,-1.63763316,-3.09760292,0.00038147,1.51702023,0.00038147,3.09953498,-1.58773734,-3.09760292,0.00038147,1.51748115,0.00025656,3.09953498,-1.63038523,-3.09798439,-0.00038147,1.52236081,0.00000000,-0.00488281,0.05371094,0.00488281,-0.01464844,0.01464844,-0.01464844,-0.01144409,-0.02176073,-0.02059937,-0.02441406
2.00518584,690,3.09953498,-1.63725169,-3.09760292,0.00038147,1.51587582,0.00000000,3.09953498,-1.58720407,-3.09760292,0.00038147,1.51665234,0.00026425,3.09953498,-1.62962229,-3.09798439,-0.00038147,1.52236081,0.00000000,-0.00488281,0.07812500,-0.00000000,-0.02929688,-0.00000000,-0.01464844,-0.01144409,-0.02194330,-0.02098083,-0.02441406
2.01905918,695,3.09953498,-1.63725169,-3.09760292,0.00038147,1.51473141,0.00038147,3.09953498,-1.58699808,-3.09760292,0.00038147,1.51558157,0.00029423,3.09953498,-1.62847789,-3.09798439,-0.00038147,1.52197934,0.00000000,-0.00488281,0.05371094,-0.00000000,-0.01464844,0.02929688,-0.01464844,-0.01144409,-0.02178340,-0.02059937,-0.02441406
2.03293276,700,3.09953498,-1.63725169,-3.09760292,0.00038147,1.51396847,0.00038147,3.09953498,-1.58693058,-3.09760292,0.00038147,1.51461619,0.00035288,3.09953498,-1.62771495,-3.09760292,-0.00038147,1.52159787,0.00000000,-0.00488281,0.07324219,0.00488281,0.00000000,-0.02929688,-0.01464844,-0.01106262,-0.02176298,-0.02098083,-0.02441406
2.04685569,705,3.09953498,-1.63725169,-3.09760292,0.00038147,1.51244259,0.00038147,3.09953498,-1.58690847,-3.09760292,0.00038147,1.51346783,0.00037210,3.09953498,-1.62695201,-3.09760292,-0.00038147,1.52121640,0.00000000,-0.00488281,0.05371094,0.00488281,0.00000000,-0.02929688,-0.01464844,-0.01144409,-0.02184638,-0.02098083,-0.04882812
2.06013918,710,3.09953498,-1.63725169,-3.09760292,0.00038147,1.51129818,0.00038147,3.09953498,-1.58690122,-3.09760292,0.00038147,1.51230845,0.00037840,3.09953498,-1.62618907,-3.09760292,0.00000000,1.52045346,0.00000000,-0.00488281,0.04882812,-0.00000000,-0.01464844,-0.04394531,-0.01464844,-0.01106262,-0.02178362,-0.02098083,-0.02441406
2.07430983,715,3.09953498,-1.63725169,-3.09760292,0.00038147,1.51053525,0.00038147,3.09953498,-1.58689884,-3.09760292,0.00038147,1.51132771,0.00038046,3.09953498,-1.62542613,-3.09760292,-0.00038147,1.51930905,0.00000000,-0.00488281,0.05371094,0.00488281,-0.02929688,-0.05859375,0.00000000,-0.01106262,-0.02186071,-0.02098083,-0.04882812
2.09081364,720,3.09953498,-1.63687022,-3.09760292,0.00038147,1.50977231,0.00038147,3.09953498,-1.58664159,-3.09760292,0.00038147,1.51047144,0.00038114,3.09953498,-1.62466319,-3.09760292,-0.00038147,1.51854611,0.00000000,-0.00488281,0.03417969,0.00976562,-0.02929688,-0.04394531,-0.01464844,-0.01144409,-0.02194091,-0.02098083,-0.02441406
2.10616302,725,3.09953498,-1.63687022,-3.09760292,0.00038147,1.50862790,0.00038147,3.09953498,-1.58655730,-3.09760292,0.00038147,1.50945269,0.00038136,3.09953498,-1.62390025,-3.09760292,-0.00038147,1.51778317,0.00000000,-0.00488281,0.04394531,0.00488281,-0.01464844,-0.02929688,-0.01464844,-0.01144409,-0.02206484,-0.02098083,-0.02441406
2.12256718,730,3.09991645,-1.63687022,-3.09760292,0.00038147,1.50710202,0.00038147,3.09972113,-1.58652968,-3.09760292,0.00038147,1.50806174,0.00038143,3.09953498,-1.62313731,-3.09760292,-0.00038147,1.51740170,0.00000000,-0.00488281,0.04882812,0.00488281,0.00000000,-0.01464844,-0.02929688,-0.01106262,-0.02177708,-0.02098083,-0.02441406
2.13823676,735,3.09953498,-1.63648875,-3.09760292,0.00038147,1.50595761,0.00038147,3.09971512,-1.58633447,-3.09760292,0.00038147,1.50686779,0.00038146,3.09953498,-1.62275584,-3.09760292,-0.00038147,1.51702023,0.00000000,-0.00488281,0.02441406,0.00488281,-0.01464844,-0.02929688,-0.01464844,-0.01106262,-0.02179607,-0.02098083,-0.02441406
2.15204287,740,3.09991645,-1.63648875,-3.09683998,0.00038147,1.50443173,0.00038147,3.09985047,-1.58620019,-3.09730141,0.00038147,1.50559180,0.00038147,3.09953498,-1.62199290,-3.09760292,0.00000000,1.51549435,0.00000000,-0.00488281,0.03417969,0.00488281,0.00000000,-0.08789062,-0.01464844,-0.01144409,-0.02195488,-0.02136230,-0.04882812
2.16497517,745,3.09991645,-1.63648875,-3.09607704,0.00038147,1.50252438,0.00038147,3.09989483,-1.58615619,-3.09662864,0.00038147,1.50404025,0.00038147,3.09953498,-1.62161143,-3.09760292,-0.00038147,1.51434994,0.00000000,-0.00488281,0.04394531,0.00488281,0.01464844,-0.10253906,0.00000000,-0.01106262,-0.02191683,-0.02136230,-0.02441406
2.18263674,750,3.09991645,-1.63648875,-3.09455117,0.00076294,1.50061703,0.00038147,3.09990936,-1.58614177,-3.09571140,0.00051880,1.50225877,0.00038147,3.09953498,-1.62084849,-3.09760292,-0.00038147,1.51244259,0.00000000,-0.00488281,0.03906250,0.00488281,-0.01464844,-0.10253906,0.00000000,-0.01144409,-0.02205695,-0.02136230,-0.02441406
2.19510055,755,3.09991645,-1.63648875,-3.09264382,0.00076294,1.49794674,0.00038147,3.09991413,-1.58613705,-3.09419881,0.00062190,1.50008969,0.00038147,3.09953498,-1.61970408,-3.09760292,-0.00038147,1.51129818,0.00000000,-0.00488281,0.04882812,0.00488281,-0.01464844,-0.01464844,-0.01464844,-0.01144409,-0.02198080,-0.02136230,0.00000000
2.20958018,760,3.09991645,-1.63648875,-3.09111794,0.00076294,1.49527646,0.00038147,3.09991569,-1.58613550,-3.09248929,0.00071673,1.49754165,0.00038147,3.09953498,-1.61932261,-3.09760292,0.00000000,1.51129818,0.00000000,-0.00488281,0.03906250,0.00976562,-0.01464844,-0.00000000,-0.01464844,-0.01144409,-0.02201541,-0.02136230,0.00000000
2.22568250,765,3.09991645,-1.63648875,-3.08882912,0.00114441,1.49298764,0.00038147,3.09991620,-1.58613499,-3.09054851,0.00093395,1.49503116,0.00038147,3.09953498,-1.61817820,-3.09760292,-0.00038147,1.51091672,0.00000000,-0.00488281,0.05859375,0.00976562,-0.01464844,-0.00000000,0.00000000,-0.01144409,-0.02191347,-0.02136230,-0.02441406
2.24043107,770,3.09991645,-1.63648875,-3.08577736,0.00114441,1.48993588,0.00038147,3.09991636,-1.58613483,-3.08808003,0.00107545,1.49222562,0.00038147,3.09953498,-1.61779673,-3.09760292,-0.00038147,1.51015378,0.00000000,-0.00488281,0.04394531,0.01464844,-0.02929688,-0.01464844,0.00000000,-0.01144409,-0.02195819,-0.02136230,-0.02441406
2.25389409,775,3.09991645,-1.63648875,-3.08348854,0.00114441,1.48612118,0.00038147,3.09991642,-1.58613477,-3.08561320,0.00112181,1.48902334,0.00038147,3.09953498,-1.61741526,-3.09722145,-0.00038147,1.50939084,0.00000000,-0.00488281,0.01953125,0.01953125,-0.02929688,-0.05859375,-0.01464844,-0.01144409,-0.02178828,-0.02174377,-0.02441406
2.26907563,780,3.09991645,-1.63648875,-3.08119973,0.00114441,1.48306943,0.00038147,3.09991644,-1.58613475,-3.08299017,0.00113700,1.48543495,0.00038147,3.09953498,-1.61665232,-3.09683998,0.00000000,1.50824643,0.00000000,-0.00976562,0.03906250,0.03417969,0.00000000,-0.07324219,-0.01464844,-0.01144409,-0.02195233,-0.02174377,-0.04882812
2.28631759,785,3.09991645,-1.63648875,-3.07547768,0.00114441,1.47467709,0.00038147,3.09991644,-1.58613475,-3.07900920,0.00114198,1.47979207,0.00038147,3.09953498,-1.61588938,-3.09645851,-0.00038147,1.50633908,0.00000000,-0.00488281,0.03417969,0.03417969,-0.02929688,-0.07324219,-0.01464844,-0.01106262,-0.02155564,-0.02174377,0.00000000
2.29877925,790,3.09991645,-1.63648875,-3.07280739,0.00114441,1.47048092,0.00038147,3.09991645,-1.58613475,-3.07552222,0.00114361,1.47452321,0.00038147,3.09953498,-1.61550791,-3.09607704,-0.00038147,1.50557614,0.00000000,-0.00488281,0.02441406,0.02441406,-0.02929688,-0.10253906,-0.02929688,-0.01144409,-0.02164075,-0.02174377,-0.02441406
2.31559467,795,3.09991645,-1.63648875,-3.06708535,0.00114441,1.46323300,0.00038147,3.09991645,-1.58613475,-3.07124056,0.00114415,1.46854390,0.00038147,3.09953498,-1.61512644,-3.09569558,0.00000000,1.50290585,0.00000000,-0.00488281,0.02441406,0.02441406,-0.01464844,-0.11718750,-0.01464844,-0.01144409,-0.02179070,-0.02174377,-0.04882812
2.32798100,800,3.09991645,-1.63648875,-3.06365212,0.00114441,1.45827389,0.00038147,3.09991645,-1.58613475,-3.06690140,0.00114432,1.46264015,0.00038147,3.09953498,-1.61474498,-3.09569558,0.00000000,1.50176144,0.00000000,-0.00488281,0.04394531,0.01953125,-0.01464844,-0.10253906,-0.02929688,-0.01144409,-0.02171777,-0.02174377,-0.02441406
2.34112000,805,3.09991645,-1.63648875,-3.06021889,0.00152588,1.45255185,0.00038147,3.09991645,-1.58613475,-3.06314934,0.00133054,1.45692838,0.00038147,3.09953498,-1.61398204,-3.09531411,-0.00038147,1.50023556,0.00000000,-0.00488281,0.04394531,0.03906250,-0.02929688,-0.13183594,-0.01464844,-0.01106262,-0.02174148,-0.02212524,-0.02441406
2.35691166,810,3.09991645,-1.63648875,-3.05525978,0.00190735,1.44492245,0.00038147,3.09991645,-1.58613475,-3.05884064,0.00168709,1.45035460,0.00038147,3.09953498,-1.61360057,-3.09455117,0.00000000,1.49603940,0.00000000,-0.00976562,0.01464844,0.05371094,-0.01464844,-0.27832031,-0.02929688,-0.01106262,-0.02176878,-0.02212524,-0.04882812
2.37200427,815,3.09991645,-1.63648875,-3.04991921,0.00267029,1.43691159,0.00038147,3.09991645,-1.58613475,-3.05398272,0.00222897,1.44294550,0.00038147,3.09953498,-1.61283763,-3.09378823,0.00000000,1.48993588,0.00000000,-0.00488281,0.04882812,0.02441406,-0.01464844,-0.30761719,-0.01464844,-0.01144409,-0.02180824,-0.02212524,-0.02441406
2.38577604,820,3.09991645,-1.63648875,-3.04496010,0.00343323,1.43004513,0.00038147,3.09991645,-1.58613475,-3.04886878,0.00291948,1.43554528,0.00038147,3.09953498,-1.61245616,-3.09340676,0.00000000,1.48650265,0.00000000,-0.00488281,0.03417969,0.04394531,0.00000000,-0.29296875,-0.01464844,-0.01106262,-0.02172816,-0.02250671,-0.04882812
2.40207481,825,3.09991645,-1.63648875,-3.04000099,0.00419617,1.42241574,0.00038147,3.09991645,-1.58613475,-3.04365679,0.00362743,1.42782935,0.00038147,3.09953498,-1.61169322,-3.09264382,0.00000000,1.48230649,0.00000000,0.00000000,0.02441406,0.04882812,0.00000000,-0.26367188,0.00000000,-0.01144409,-0.02191700,-0.02250671,-0.04882812
2.41509819,830,3.09991645,-1.63648875,-3.03389748,0.00495911,1.41402340,0.00038147,3.09991645,-1.58613475,-3.03814912,0.00445243,1.41977292,0.00038147,3.09953498,-1.61131175,-3.09149941,0.00000000,1.47772885,0.00000000,-0.00488281,0.02441406,0.06347656,0.00000000,-0.23437500,-0.01464844,-0.01144409,-0.02195935,-0.02250671,-0.04882812
2.42894745,835,3.09991645,-1.63648875,-3.02893837,0.00610352,1.40753842,0.00038147,3.09991645,-1.58613475,-3.03291798,0.00537303,1.41296637,0.00038147,3.09953498,-1.61093028,-3.09035500,0.00000000,1.47544003,0.00000000,-0.00488281,0.03417969,0.09277344,-0.01464844,-0.16113281,0.00000000,-0.01106262,-0.02191830,-0.02326965,-0.07324219
2.44403219,840,3.09991645,-1.63648875,-3.02321633,0.00839233,1.39952756,0.00038147,3.09991645,-1.58613475,-3.02786460,0.00685317,1.40613040,0.00038147,3.09953498,-1.61016734,-3.08921059,0.00000000,1.47124386,0.00000000,-0.00488281,0.04882812,0.08789062,-0.01464844,-0.29296875,-0.01464844,-0.01144409,-0.02193536,-0.02593994,-0.21972656
2.45728612,845,3.09991645,-1.63648875,-3.01749428,0.01106262,1.39151669,0.00038147,3.09991645,-1.58613475,-3.02250522,0.00902653,1.39845570,0.00038147,3.09953498,-1.60978587,-3.08806618,0.00038147,1.46781064,0.00000000,-0.00488281,0.00976562,0.09277344,0.02929688,-0.24902344,-0.02929688,-0.01144409,-0.02206302,-0.02593994,-0.04882812
2.47211838,850,3.09991645,-1.63648875,-3.01253517,0.01335144,1.38503171,0.00038147,3.09991645,-1.58613475,-3.01692667,0.01150212,1.39068781,0.00038147,3.09953498,-1.60940440,-3.08654030,0.00038147,1.46247006,0.00000000,-0.00488281,0.02441406,0.10253906,0.00000000,-0.36621094,-0.01464844,-0.01106262,-0.02177649,-0.02593994,0.00000000
2.48831582,855,3.09991645,-1.63648875,-3.00605019,0.01754761,1.37702084,0.00038147,3.09991645,-1.58613475,-3.01089154,0.01467258,1.38302853,0.00038147,3.09953498,-1.60902293,-3.08539589,0.00076294,1.45598507,0.00000000,-0.00488281,0.02441406,0.09765625,0.01464844,-0.42480469,-0.01464844,-0.01144409,-0.02193284,-0.02593994,-0.04882812
2.50179553,860,3.09991645,-1.63648875,-3.00147255,0.02021790,1.37015439,0.00038147,3.09991645,-1.58613475,-3.00579627,0.01783245,1.37603802,0.00038147,3.09953498,-1.60825999,-3.08425148,0.00190735,1.44988156,0.00000000,-0.00488281,0.04394531,0.07812500,0.05859375,-0.36621094,-0.02929688,-0.01144409,-0.02206220,-0.02593994,0.00000000
2.51763678,865,3.09991645,-1.63648875,-2.99613198,0.02288818,1.36252499,0.00038147,3.09991645,-1.58613475,-3.00042133,0.02076033,1.36854669,0.00038147,3.09953498,-1.60787852,-3.08234413,0.00343323,1.44377804,0.00000000,-0.00976562,0.01953125,0.12207031,0.10253906,-0.48339844,-0.01464844,-0.01106262,-0.02195200,-0.02593994,-0.02441406
2.53138590,870,3.09991645,-1.63648875,-2.99079140,0.02555847,1.35565854,0.00038147,3.09991645,-1.58619578,-2.99511832,0.02346620,1.36135390,0.00038147,3.09953498,-1.60749705,-3.08081826,0.00495911,1.43729306,0.00000000,-0.00488281,0.02929688,0.13183594,0.08789062,-0.39550781,0.00000000,-0.01144409,-0.02186828,-0.02593994,-0.02441406
2.54606080,875,3.09991645,-1.63648875,-2.98621376,0.02784729,1.34955502,0.00038147,3.09991645,-1.58615475,-2.99028591,0.02586970,1.35493739,0.00038147,3.09953498,-1.60711558,-3.07929238,0.00686646,1.43195248,0.00000000,-0.00488281,0.02441406,0.13183594,0.08789062,-0.30761719,-0.01464844,-0.01106262,-0.02181033,-0.02593994,-0.02441406
2.55946875,880,3.09991645,-1.63648875,-2.98201760,0.02937317,1.34345151,0.00038147,3.09991645,-1.58614130,-2.98557754,0.02794341,1.34834752,0.00038147,3.09953498,-1.60635264,-3.07738503,0.00762939,1.42737485,0.00000000,-0.00488281,0.03906250,0.11230469,0.02929688,-0.27832031,-0.01464844,-0.01106262,-0.02186946,-0.02593994,-0.02441406
2.57362342,885,3.09991645,-1.63648875,-2.97705849,0.03089905,1.33582211,0.00038147,3.09991645,-1.58613689,-2.98092374,0.02970984,1.34139128,0.00032043,3.09953498,-1.60597117,-3.07585915,0.00839233,1.42279721,0.00000000,0.00000000,0.01953125,0.12207031,0.02929688,-0.30761719,-0.01464844,-0.01106262,-0.02179119,-0.02593994,-0.02441406
2.58720946,890,3.09991645,-1.63648875,-2.97324379,0.03204346,1.33162594,0.00038147,3.09991645,-1.58613545,-2.97658116,0.03108933,1.33567790,0.00036147,3.09953498,-1.60558970,-3.07395180,0.00915527,1.41707516,0.00000000,-0.00976562,0.02929688,0.12695312,0.05859375,-0.39550781,-0.01464844,-0.01106262,-0.02186319,-0.02593994,0.00000000
2.60135674,895,3.09991645,-1.63648875,-2.96904763,0.03318787,1.32628537,0.00038147,3.09991645,-1.58613498,-2.97230577,0.03231076,1.33030305,0.00031388,3.09953498,-1.60520823,-3.07204445,0.01106262,1.41020871,0.00000000,-0.00488281,0.00976562,0.12695312,0.10253906,-0.43945312,-0.01464844,-0.01106262,-0.02180866,-0.02593994,-0.02441406
2.61717343,900,3.09991645,-1.63648875,-2.96523293,0.03471375,1.32132626,0.00038147,3.09991645,-1.58613482,-2.96823317,0.03367585,1.32538106,0.00035932,3.09953498,-1.60482676,-3.07051857,0.01258850,1.40448666,0.00000000,-0.00488281,0.01464844,0.13183594,0.13183594,-0.48339844,-0.04394531,-0.01144409,-0.02189944,-0.02555847,0.00000000
2.63113594,905,3.09991645,-1.63648875,-2.96103676,0.03585815,1.31560422,0.00038147,3.09991645,-1.58613477,-2.96454478,0.03481249,1.32043729,0.00033515,3.09953498,-1.60482676,-3.06822975,0.01564026,1.39723874,0.00000000,0.00000000,0.01464844,0.14160156,0.14648438,-0.36621094,-0.01464844,-0.01144409,-0.02192918,-0.02593994,-0.04882812
2.64448953,910,3.09991645,-1.63648875,-2.95760353,0.03738403,1.31140805,0.00038147,3.09991645,-1.58613475,-2.96046056,0.03632069,1.31509966,0.00031746,3.09953498,-1.60444529,-3.06670388,0.01640320,1.39304257,0.00000000,-0.00488281,0.01464844,0.12207031,0.05859375,-0.39550781,-0.01464844,-0.01106262,-0.02178634,-0.02555847,-0.02441406
2.66065812,915,3.09991645,-1.63648875,-2.95378884,0.03776550,1.30797482,0.00038147,3.09991645,-1.58613475,-2.95672356,0.03728279,1.31087785,0.00031167,3.09953498,-1.60406382,-3.06441506,0.01754761,1.38617611,0.00000000,-0.00488281,0.00976562,0.15625000,0.05859375,-0.35156250,0.00000000,-0.01106262,-0.02176395,-0.02593994,-0.04882812
2.67599463,920,3.09991645,-1.63648875,-2.94997414,0.03852844,1.30339718,0.00038147,3.09991645,-1.58613475,-2.95296606,0.03800113,1.30677911,0.00035860,3.09953498,-1.60406382,-3.06212624,0.01869202,1.38045407,0.00000000,-0.00488281,0.01953125,0.18066406,0.04394531,-0.39550781,-0.01464844,-0.01106262,-0.02166970,-0.02593994,-0.02441406
2.69054627,925,3.10029792,-1.63648875,-2.94539650,0.03890991,1.29881955,0.00038147,3.10014167,-1.58616600,-2.94875873,0.03858087,1.30234082,0.00037397,3.09953498,-1.60330088,-3.05983742,0.02021790,1.37473202,0.00000000,-0.00488281,0.02441406,0.13183594,0.11718750,-0.30761719,0.00000000,-0.01144409,-0.02171327,-0.02555847,-0.04882812
2.70498109,930,3.10106086,-1.63648875,-2.94120034,0.03890991,1.29347897,0.00038147,3.10060926,-1.58614499,-2.94474690,0.03880209,1.29773439,0.00034776,3.09953498,-1.60291941,-3.05754860,0.02288818,1.37015439,0.00000000,-0.00488281,0.03906250,0.13183594,0.14648438,-0.29296875,0.00000000,-0.01144409,-0.02192775,-0.02555847,-0.02441406
2.71845841,935,3.10144233,-1.63648875,-2.93776711,0.03890991,1.28928280,0.00000000,3.10098917,-1.58618693,-2.94103618,0.03887458,1.29325339,0.00029413,3.09953498,-1.60253794,-3.05525978,0.02441406,1.36366940,0.00000000,-0.00488281,0.00488281,0.17578125,0.10253906,-0.42480469,-0.01464844,-0.01106262,-0.02176732,-0.02555847,-0.02441406
2.73526001,940,3.10182379,-1.63648875,-2.93395241,0.03890991,1.28546811,0.00038147,3.10137013,-1.58615185,-2.93721210,0.03889834,1.28889663,0.00030402,3.09953498,-1.60253794,-3.05258950,0.02555847,1.35642148,0.00000000,-0.00488281,0.00000000,0.17578125,0.04394531,-0.45410156,-0.01464844,-0.01144409,-0.02188589,-0.02593994,-0.07324219
2.74767447,945,3.10182379,-1.63648875,-2.93090065,0.03890991,1.28203488,0.00000000,3.10167514,-1.58614035,-2.93348881,0.03890612,1.28480336,0.00019191,3.09953498,-1.60253794,-3.05068215,0.02593994,1.35260678,0.00000000,-0.00976562,0.00976562,0.16601562,0.00000000,-0.33691406,-0.01464844,-0.01106262,-0.02177215,-0.02555847,0.00000000
2.76043034,950,3.10182379,-1.63648875,-2.92746743,0.03890991,1.27936459,0.00000000,3.10177508,-1.58613658,-2.93001327,0.03890867,1.28164921,0.00017275,3.09953498,-1.60215647,-3.04877480,0.02593994,1.34841061,0.00000000,-0.00488281,0.01464844,0.16601562,0.00000000,-0.35156250,-0.01464844,-0.01144409,-0.02200954,-0.02555847,0.00000000
2.77444649,955,3.10182379,-1.63648875,-2.92403420,0.03890991,1.27631283,0.00000000,3.10180783,-1.58613535,-2.92682203,0.03890950,1.27877093,0.00005661,3.09953498,-1.60177500,-3.04648598,0.02670288,1.34421444,0.00000000,-0.00488281,0.02441406,0.15136719,0.04394531,-0.24902344,0.00000000,-0.01106262,-0.02175896,-0.02555847,-0.02441406
2.78730130,960,3.10182379,-1.63648875,-2.92098244,0.03890991,1.27402402,0.00000000,3.10181856,-1.58613494,-2.92355709,0.03884874,1.27606044,0.00001855,3.09953498,-1.60139353,-3.04457863,0.02784729,1.34039975,0.00000000,-0.00488281,0.01464844,0.16113281,0.04394531,-0.27832031,-0.01464844,-0.01144409,-0.02192710,-0.02555847,0.00000000
2.80089259,965,3.10220526,-1.63648875,-2.91831215,0.03890991,1.27097226,0.00000000,3.10204730,-1.58619585,-2.92068218,0.03870969,1.27341006,0.00000608,3.09953498,-1.60139353,-3.04228981,0.02861023,1.33620358,0.00000000,-0.00488281,0.00488281,0.18066406,0.07324219,-0.29296875,-0.01464844,-0.01144409,-0.02193824,-0.02555847,-0.02441406
2.81289291,970,3.10220526,-1.63648875,-2.91564186,0.03852844,1.26830197,0.00000000,3.10215350,-1.58618602,-2.91787453,0.03870698,1.27063692,0.00000199,3.09953498,-1.60139353,-3.04038246,0.03013611,1.33162594,0.00000000,-0.00488281,0.00976562,0.15625000,0.08789062,-0.35156250,-0.01464844,-0.01144409,-0.02192334,-0.02555847,0.00000000
2.82730484,975,3.10258673,-1.63648875,-2.91297158,0.03852844,1.26525021,0.00000000,3.10241352,-1.58615155,-2.91512945,0.03858694,1.26756660,0.00000065,3.09953498,-1.60101206,-3.03809365,0.03089905,1.32742978,0.00000000,0.00000000,0.01953125,0.16601562,0.02929688,-0.33691406,0.00000000,-0.01106262,-0.02178443,-0.02555847,-0.02441406
2.84106922,980,3.10258673,-1.63648875,-2.90991982,0.03852844,1.26143551,0.00000000,3.10252998,-1.58614025,-2.91230953,0.03854761,1.26413644,0.00000021,3.09953498,-1.60063060,-3.03580483,0.03128052,1.32170773,0.00000000,-0.00976562,0.00976562,0.17089844,0.01464844,-0.33691406,-0.02929688,-0.01144409,-0.02185341,-0.02555847,0.00000000
2.85540938,985,3.10258673,-1.63648875,-2.90763100,0.03852844,1.25914670,0.00000000,3.10256814,-1.58613655,-2.90977636,0.03853472,1.26125293,0.00000007,3.09953498,-1.60024913,-3.03351601,0.03128052,1.31751156,0.00000000,-0.00488281,0.01953125,0.16601562,-0.02929688,-0.23437500,0.00000000,-0.01144409,-0.02173832,-0.02555847,-0.02441406
2.86802769,990,3.10258673,-1.63648875,-2.90534218,0.03852844,1.25723935,0.00000000,3.10258064,-1.58613534,-2.90710377,0.03853050,1.25881428,0.00000002,3.09953498,-1.59986766,-3.03160866,0.03128052,1.31484128,0.00000000,-0.00488281,0.02929688,0.16601562,-0.01464844,-0.20507812,-0.01464844,-0.01144409,-0.02187639,-0.02555847,-0.04882812
2.88304853,995,3.10296820,-1.63648875,-2.90190895,0.03852844,1.25456906,-0.00038147,3.10284121,-1.58617400,-2.90429381,0.03852912,1.25650164,-0.00017638,3.09953498,-1.59948619,-3.02855690,0.03204346,1.31102658,0.00000000,-0.00976562,0.00488281,0.18554688,0.02929688,-0.23437500,-0.01464844,-0.01144409,-0.02192163,-0.02517700,-0.02441406
2.89730501,1000,3.10296820,-1.63648875,-2.90000161,0.03852844,1.25266171,-0.00038147,3.10292659,-1.58617886,-2.90187927,0.03852866,1.25437896,-0.00031427,3.09953498,-1.59948619,-3.02626808,0.03280640,1.30683041,0.00000000,-0.00488281,0.01464844,0.17089844,0.02929688,-0.23437500,-0.01464844,-0.01106262,-0.02174578,-0.02555847,-0.02441406
2.91080356,1005,3.10296820,-1.63648875,-2.89771279,0.03852844,1.25037289,-0.00038147,3.10295457,-1.58621024,-2.89965911,0.03852851,1.25226666,-0.00035945,3.09953498,-1.59910472,-3.02397927,0.03318787,1.30301571,0.00000000,-0.00488281,0.01953125,0.17089844,0.02929688,-0.29296875,0.00000000,-0.01106262,-0.02184831,-0.02555847,-0.04882812
2.92499113,1010,3.10296820,-1.63648875,-2.89542397,0.03852844,1.24884701,-0.00038147,3.10296374,-1.58627862,-2.89725168,0.03852847,1.25028836,-0.00037425,3.09953498,-1.59872325,-3.02169045,0.03395081,1.29691220,0.00000000,-0.00488281,0.00488281,0.15625000,0.00000000,-0.36621094,-0.01464844,-0.01106262,-0.02164363,-0.02517700,-0.02441406
2.93983126,1015,3.10334967,-1.63648875,-2.89351662,0.03852844,1.24732113,-0.00038147,3.10319196,-1.58622095,-2.89509258,0.03852845,1.24864549,-0.00037911,3.09953498,-1.59872325,-3.01978310,0.03395081,1.29347897,0.00000000,-0.00488281,0.01464844,0.17089844,-0.01464844,-0.21972656,-0.01464844,-0.01106262,-0.02145449,-0.02517700,-0.02441406
2.95184994,1020,3.10373114,-1.63648875,-2.89160927,0.03852844,1.24655819,-0.00076294,3.10352321,-1.58622403,-2.89323945,0.03852844,1.24749265,-0.00050582,3.09953498,-1.59834178,-3.01749428,0.03395081,1.29195309,0.00000000,-0.00488281,0.00976562,0.17089844,-0.01464844,-0.10253906,0.00000000,-0.01106262,-0.02151458,-0.02517700,0.00000000
2.96637011,1025,3.10449408,-1.63648875,-2.88932045,0.03852844,1.24541379,-0.00076294,3.10405681,-1.58622504,-2.89112465,0.03852844,1.24631569,-0.00055954,3.09953498,-1.59834178,-3.01482399,0.03433228,1.28928280,0.00000000,0.00000000,0.00488281,0.17089844,-0.01464844,-0.11718750,-0.01464844,-0.01144409,-0.02174936,-0.02517700,-0.04882812
2.98318195,1030,3.10601996,-1.63687022,-2.88626870,0.03814697,1.24312497,-0.00076294,3.10509494,-1.58624063,-2.88842337,0.03827197,1.24455380,-0.00058643,3.09953498,-1.59796031,-3.01177224,0.03433228,1.28699399,0.00000000,0.00000000,0.01464844,0.18066406,0.00000000,-0.14648438,-0.01464844,-0.01106262,-0.02178699,-0.02555847,-0.02441406
2.99629664,1035,3.10678290,-1.63648875,-2.88397988,0.03776550,1.24121762,-0.00038147,3.10612823,-1.58616944,-2.88589930,0.03796271,1.24262381,-0.00059756,3.09991645,-1.59796031,-3.00948342,0.03433228,1.28432370,0.00000000,0.00000000,0.00488281,0.17578125,0.00000000,-0.19042969,-0.01464844,-0.01144409,-0.02187378,-0.02517700,-0.02441406
3.01040936,1040,3.10754584,-1.63648875,-2.88169106,0.03738403,1.24045468,-0.00038147,3.10686989,-1.58617736,-2.88365107,0.03769280,1.24137689,-0.00054456,3.09991645,-1.59757884,-3.00757607,0.03471375,1.28050900,0.00000000,0.00976562,0.01464844,0.17089844,0.01464844,-0.27832031,-0.01464844,-0.01106262,-0.02152990,-0.02517700,0.00000000
3.02282906,1045,3.10830878,-1.63648875,-2.87940224,0.03776550,1.23931027,-0.00038147,3.10762586,-1.58618777,-2.88132672,0.03774168,1.24028677,-0.00046616,3.10029792,-1.59719737,-3.00566872,0.03471375,1.27554989,0.00000000,0.00976562,0.01464844,0.17578125,0.00000000,-0.30761719,0.00000000,-0.01106262,-0.02147972,-0.02517700,0.00000000
3.03602695,1050,3.10869025,-1.63648875,-2.87711342,0.03776550,1.23854733,-0.00038147,3.10827116,-1.58625222,-2.87914540,0.03775770,1.23936780,-0.00040922,3.10029792,-1.59719737,-3.00337990,0.03471375,1.27135373,0.00000000,0.00488281,0.00976562,0.17089844,-0.01464844,-0.27832031,0.00000000,-0.01106262,-0.02149844,-0.02517700,0.00000000
3.05103183,1055,3.10945319,-1.63648875,-2.87444313,0.03776550,1.23740292,-0.00038147,3.10896430,-1.58621230,-2.87657870,0.03776294,1.23832851,-0.00039056,3.10029792,-1.59681590,-3.00109108,0.03509521,1.26906491,0.00000000,0.00000000,0.00976562,0.15625000,-0.01464844,-0.13183594,-0.01464844,-0.01106262,-0.02152898,-0.02517700,-0.02441406
3.06531692,1060,3.11059760,-1.63648875,-2.87100991,0.03776550,1.23587704,-0.00038147,3.10973183,-1.58616016,-2.87372873,0.03776466,1.23719108,-0.00038445,3.10029792,-1.59643443,-2.99842079,0.03509521,1.26792050,0.00000000,0.00000000,0.00976562,0.18066406,0.00000000,-0.02929688,-0.01464844,-0.01144409,-0.02169158,-0.02517700,-0.02441406
3.07994509,1065,3.11174201,-1.63648875,-2.86719521,0.03738403,1.23358822,-0.00038147,3.11075275,-1.58614307,-2.87027898,0.03768893,1.23531080,-0.00038245,3.10067939,-1.59643443,-2.99613198,0.03509521,1.26753903,0.00000000,0.00976562,0.00976562,0.19042969,0.00000000,-0.01464844,-0.02929688,-0.01144409,-0.02174486,-0.02517700,0.00000000
3.09489202,1070,3.11288642,-1.63687022,-2.86338051,0.03776550,1.23129941,-0.00038147,3.11181763,-1.58631387,-2.86662001,0.03764813,1.23320419,-0.00038179,3.10106086,-1.59605296,-2.99308022,0.03547668,1.26677609,0.00000000,0.01953125,0.01464844,0.16601562,0.00000000,-0.04394531,-0.01464844,-0.01106262,-0.02155016,-0.02479553,0.00000000
3.11074328,1075,3.11403083,-1.63687022,-2.85956581,0.03776550,1.22939206,-0.00038147,3.11302387,-1.58626973,-2.86276161,0.03761718,1.23099327,-0.00038157,3.10106086,-1.59605296,-2.99040993,0.03585815,1.26448727,0.00000000,0.00976562,0.00488281,0.19042969,0.00000000,-0.19042969,-0.01464844,-0.01106262,-0.02142386,-0.02517700,-0.02441406
3.12497520,1080,3.11479377,-1.63687022,-2.85536965,0.03776550,1.22710324,-0.00038147,3.11406341,-1.58630410,-2.85868149,0.03771690,1.22881786,-0.00038150,3.10144233,-1.59605296,-2.98850258,0.03623962,1.26067257,0.00000000,0.00488281,0.00000000,0.17089844,0.01464844,-0.32226562,-0.01464844,-0.01106262,-0.02154263,-0.02517700,-0.02441406
3.13978362,1085,3.11555670,-1.63648875,-2.85117348,0.03776550,1.22443295,-0.00038147,3.11485596,-1.58628253,-2.85449796,0.03771833,1.22633318,-0.00038148,3.10144233,-1.59605296,-2.98583229,0.03662109,1.25647641,0.00000000,0.00000000,0.00000000,0.17578125,0.01464844,-0.26367188,-0.01464844,-0.01106262,-0.02148389,-0.02517700,-0.02441406
3.15486193,1090,3.11631964,-1.63648875,-2.84659584,0.03776550,1.22061825,-0.00038147,3.11562860,-1.58618317,-2.85053189,0.03775004,1.22358711,-0.00038147,3.10182379,-1.59567149,-2.98278054,0.03700256,1.25228024,0.00000000,0.01464844,0.00488281,0.17578125,0.00000000,-0.24902344,0.00000000,-0.01106262,-0.02140215,-0.02479553,-0.04882812
3.16841793,1095,3.11708258,-1.63648875,-2.84316262,0.03776550,1.21756650,-0.00038147,3.11645575,-1.58629954,-2.84630101,0.03776044,1.22023171,-0.00038147,3.10182379,-1.59567149,-2.98087319,0.03738403,1.24999142,0.00000000,0.01953125,0.00976562,0.17578125,0.02929688,-0.17578125,-0.01464844,-0.01106262,-0.02137536,-0.02479553,0.00000000
3.18178821,1100,3.11860846,-1.63687022,-2.83896645,0.03738403,1.21375180,-0.00038147,3.11757250,-1.58631387,-2.84207931,0.03757769,1.21640443,-0.00038147,3.10220526,-1.59529002,-2.97858437,0.03738403,1.24846554,0.00000000,0.00976562,0.01953125,0.17089844,-0.01464844,-0.08789062,-0.01464844,-0.01106262,-0.02136658,-0.02479553,0.00000000
3.19461536,1105,3.11937140,-1.63687022,-2.83477028,0.03738403,1.20993710,-0.00038147,3.11868037,-1.58634981,-2.83796072,0.03744749,1.21273259,-0.00038147,3.10220526,-1.59490855,-2.97591408,0.03738403,1.24770260,0.00000000,0.00976562,0.00488281,0.18554688,-0.01464844,-0.05859375,-0.01464844,-0.01106262,-0.02136371,-0.02479553,-0.02441406
3.20850539,1110,3.12051581,-1.63648875,-2.83019265,0.03738403,1.20497799,-0.00038147,3.11970295,-1.58635414,-2.83378789,0.03740483,1.20854197,-0.00038147,3.10258673,-1.59490855,-2.97362526,0.03738403,1.24617672,0.00000000,0.01464844,0.00488281,0.20507812,-0.02929688,-0.08789062,-0.01464844,-0.01106262,-0.02136276,-0.02479553,-0.02441406
3.22336030,1115,3.12051581,-1.63648875,-2.82561501,0.03738403,1.20078183,-0.00038147,3.12024945,-1.58635556,-2.82911634,0.03739085,1.20408688,-0.00038147,3.10334967,-1.59490855,-2.96981057,0.03738403,1.24312497,0.00000000,0.03417969,0.00488281,0.22460938,-0.01464844,-0.21972656,-0.01464844,-0.01106262,-0.02148453,-0.02479553,-0.02441406
3.23628378,1120,3.12089728,-1.63687022,-2.82027443,0.03738403,1.19582272,-0.00038147,3.12068500,-1.58639326,-2.82434167,0.03738627,1.19952047,-0.00043030,3.10334967,-1.59452708,-2.96752175,0.03738403,1.24121762,-0.00038147,0.00976562,0.00976562,0.19531250,-0.01464844,-0.11718750,-0.02929688,-0.01106262,-0.02140235,-0.02479553,0.00000000
3.25144005,1125,3.12089728,-1.63687022,-2.81531533,0.03738403,1.19010068,-0.00076294,3.12082772,-1.58647593,-2.81961536,0.03738476,1.19475864,-0.00057386,3.10373114,-1.59414561,-2.96446999,0.03738403,1.23892880,-0.00038147,0.01464844,0.02441406,0.18554688,-0.02929688,-0.14648438,-0.01464844,-0.01106262,-0.02137543,-0.02441406,-0.02441406
3.26486206,1130,3.12127875,-1.63687022,-2.81111916,0.03738403,1.18590451,-0.00076294,3.12095078,-1.58650301,-2.81490661,0.03738427,1.18976042,-0.00066192,3.10411261,-1.59414561,-2.96218117,0.03738403,1.23549557,0.00000000,0.01464844,0.00488281,0.19531250,0.00000000,-0.29296875,-0.01464844,-0.01106262,-0.02136660,-0.02441406,-0.02441406
3.27900648,1135,3.12166022,-1.63687022,-2.80463417,0.03700256,1.17980099,-0.00076294,3.12124758,-1.58641960,-2.80953638,0.03724678,1.18442045,-0.00072984,3.10411261,-1.59414561,-2.95951088,0.03738403,1.23168088,0.00000000,0.00976562,0.00000000,0.20019531,0.00000000,-0.27832031,-0.01464844,-0.01106262,-0.02130121,-0.02441406,0.00000000
3.29438710,1140,3.12166022,-1.63687022,-2.79929360,0.03700256,1.17484189,-0.00076294,3.12152501,-1.58642352,-2.80389360,0.03708259,1.17916614,-0.00075209,3.10449408,-1.59376414,-2.95645912,0.03738403,1.22634030,-0.00038147,0.00976562,0.00976562,0.20996094,-0.01464844,-0.36621094,0.00000000,-0.01106262,-0.02134229,-0.02441406,-0.02441406
3.30847907,1145,3.12166022,-1.63687022,-2.79357155,0.03700256,1.16950131,-0.00076294,3.12161591,-1.58648584,-2.79804861,0.03702879,1.17370197,-0.00075939,3.10525702,-1.59376414,-2.95378884,0.03738403,1.22176266,-0.00038147,0.03417969,0.00000000,0.20996094,-0.01464844,-0.32226562,0.00000000,-0.01068115,-0.02090531,-0.02403259,0.00000000
3.32207727,1150,3.12127875,-1.63687022,-2.78784951,0.03662109,1.16416073,-0.00114441,3.12156941,-1.58650626,-2.79253041,0.03693486,1.16859482,-0.00098699,3.10525702,-1.59338267,-2.95073708,0.03738403,1.21832943,-0.00038147,0.00976562,0.00488281,0.20996094,0.00000000,-0.23437500,-0.01464844,-0.01106262,-0.02115006,-0.02403259,0.00000000
3.33527374,1155,3.12127875,-1.63687022,-2.78250893,0.03547668,1.15920163,-0.00152588,3.12137399,-1.58651295,-2.78687187,0.03632413,1.16328838,-0.00134930,3.10563849,-1.59338267,-2.94844826,0.03738403,1.21565915,-0.00038147,0.02441406,0.00488281,0.20019531,-0.01464844,-0.19042969,0.00000000,-0.01068115,-0.02084232,-0.02403259,0.00000000
3.34962702,1160,3.12166022,-1.63687022,-2.77602394,0.03318787,1.15386105,-0.00228882,3.12143508,-1.58651515,-2.78086375,0.03474778,1.15788282,-0.00180078,3.10601996,-1.59338267,-2.94577797,0.03738403,1.21375180,-0.00038147,0.00488281,0.00488281,0.22460938,-0.01464844,-0.11718750,-0.02929688,-0.01068115,-0.02067898,-0.02365112,0.00000000
3.36286783,1165,3.12166022,-1.63687022,-2.77030190,0.03089905,1.14966488,-0.00267029,3.12158645,-1.58651587,-2.77497325,0.03260014,1.15310627,-0.00231506,3.10601996,-1.59300120,-2.94196328,0.03738403,1.21108151,-0.00038147,0.00976562,0.00000000,0.22460938,-0.01464844,-0.17578125,-0.01464844,-0.01106262,-0.02085616,-0.02288818,0.07324219
3.37854481,1170,3.12166022,-1.63687022,-2.76305397,0.02746582,1.14470578,-0.00495911,3.12163605,-1.58651610,-2.76856613,0.02986064,1.14847163,-0.00366057,3.10640143,-1.59300120,-2.93853005,0.03738403,1.20650387,-0.00038147,0.01464844,0.00000000,0.24902344,-0.02929688,-0.32226562,-0.01464844,-0.01068115,-0.02074601,-0.01640320,0.36621094
3.39493084,1175,3.12166022,-1.63687022,-2.75542458,0.02441406,1.13936520,-0.00572205,3.12165230,-1.58651618,-2.76137533,0.02684235,1.14334041,-0.00501529,3.10678290,-1.59300120,-2.93509682,0.03738403,1.20001889,-0.00038147,0.02441406,-0.00488281,0.22460938,-0.02929688,-0.42480469,-0.01464844,-0.01068115,-0.02064742,-0.01525879,0.00000000
3.40719390,1180,3.12127875,-1.63687022,-2.75084694,0.02250671,1.13593197,-0.00572205,3.12158133,-1.58651620,-2.75525685,0.02441618,1.13909102,-0.00542014,3.10716437,-1.59300120,-2.93204506,0.03700256,1.19544125,-0.00038147,0.00976562,-0.00488281,0.22460938,-0.02929688,-0.32226562,-0.02929688,-0.01068115,-0.02051746,-0.01525879,-0.04882812
3.42089915,1185,3.12127875,-1.63687022,-2.74474343,0.01983643,1.13135434,-0.00572205,3.12152683,-1.58651621,-2.74955223,0.02204952,1.13492270,-0.00558406,3.10716437,-1.59300120,-2.92937477,0.03700256,1.19086361,-0.00038147,0.01953125,0.00000000,0.20507812,-0.02929688,-0.33691406,-0.01464844,-0.01029968,-0.02041994,-0.01525879,-0.02441406
3.43459249,1190,3.12127875,-1.63687022,-2.73940285,0.01792908,1.12792111,-0.00572205,3.12136004,-1.58651621,-2.74377255,0.01965036,1.13079742,-0.00567683,3.10754584,-1.59261973,-2.92594155,0.03662109,1.18819333,-0.00076294,0.02441406,0.00000000,0.23437500,-0.05859375,-0.23437500,-0.01464844,-0.01068115,-0.02054057,-0.01525879,0.00000000
3.45067167,1195,3.12127875,-1.63687022,-2.73291787,0.01640320,1.12486935,-0.00572205,3.12130539,-1.58651621,-2.73775842,0.01771772,1.12734409,-0.00570723,3.10792731,-1.59261973,-2.92136391,0.03471375,1.18285275,-0.00076294,0.00976562,0.00000000,0.25878906,-0.13183594,-0.24902344,-0.04394531,-0.01068115,-0.02058010,-0.01525879,-0.02441406
3.46796703,1200,3.12127875,-1.63687022,-2.72910317,0.01487732,1.12296200,-0.00572205,3.12128748,-1.58651622,-2.73284118,0.01608980,1.12485984,-0.00568594,3.10792731,-1.59261973,-2.91831215,0.03356934,1.17980099,-0.00076294,0.00488281,-0.00488281,0.28808594,-0.08789062,-0.21972656,-0.01464844,-0.01029968,-0.02022074,-0.01525879,-0.02441406
3.48666239,1205,3.12127875,-1.63687022,-2.72338112,0.01068115,1.12143612,-0.00572205,3.12128161,-1.58651622,-2.72797855,0.01369125,1.12289785,-0.00567115,3.10830878,-1.59223826,-2.91259011,0.03204346,1.17369748,-0.00076294,0.00976562,0.01953125,0.25390625,-0.05859375,-0.27832031,-0.02929688,-0.01029968,-0.02013814,-0.01564026,-0.04882812
3.50075889,1210,3.12127875,-1.63687022,-2.71994789,0.00724792,1.12029172,-0.00572205,3.12127969,-1.58651622,-2.72338114,0.01024892,1.12139618,-0.00566631,3.10869025,-1.59185679,-2.90953835,0.03128052,1.16835690,-0.00114441,0.01464844,0.01464844,0.23925781,-0.05859375,-0.32226562,-0.01464844,-0.01068115,-0.02038573,-0.01525879,0.00000000
3.51462579,1215,3.12166022,-1.63687022,-2.71689614,0.00419617,1.11952878,-0.00572205,3.12141639,-1.58651622,-2.71973061,0.00688901,1.12033014,-0.00561589,3.10907172,-1.59185679,-2.90610512,0.03051758,1.16454220,-0.00114441,0.00488281,0.02441406,0.26367188,-0.07324219,-0.27832031,-0.02929688,-0.01029968,-0.02019220,-0.01525879,-0.07324219
3.52992916,1220,3.12166022,-1.63687022,-2.71346291,0.00114441,1.11876584,-0.00572205,3.12158032,-1.58651622,-2.71623839,0.00367817,1.11934874,-0.00555591,3.10907172,-1.59147532,-2.90229042,0.02937317,1.16149045,-0.00152588,0.00976562,0.00488281,0.23925781,-0.10253906,-0.17578125,-0.02929688,-0.01068115,-0.02034388,-0.01525879,0.00000000
3.54719806,1225,3.12166022,-1.63687022,-2.71079262,-0.00114441,1.11838437,-0.00572205,3.12163404,-1.58651622,-2.71310932,0.00104669,1.11870037,-0.00548743,3.10945319,-1.59147532,-2.89733132,0.02632141,1.15843869,-0.00152588,0.01464844,-0.00488281,0.24902344,-0.21972656,-0.10253906,-0.02929688,-0.01068115,-0.02015529,-0.01525879,-0.04882812
3.55919933,1230,3.12166022,-1.63687022,-2.70926674,-0.00267029,1.11838437,-0.00534058,3.12165164,-1.58651622,-2.71085644,-0.00112174,1.11848792,-0.00548880,3.10983466,-1.59147532,-2.89466103,0.02441406,1.15691281,-0.00190735,0.03906250,-0.00488281,0.25878906,-0.17578125,-0.11718750,-0.02929688,-0.01029968,-0.02006298,-0.01564026,-0.02441406
3.57640862,1235,3.12166022,-1.63687022,-2.70735939,-0.00419617,1.11838437,-0.00534058,3.12165741,-1.58651622,-2.70879632,-0.00287575,1.11841830,-0.00538914,3.11021613,-1.59147532,-2.89008339,0.02212524,1.15347958,-0.00267029,0.00488281,-0.00488281,0.25390625,-0.14648438,-0.17578125,-0.05859375,-0.01029968,-0.02013039,-0.01564026,-0.02441406
3.59065890,1240,3.12127875,-1.63687022,-2.70507058,-0.00457764,1.11838437,-0.00534058,3.12140283,-1.58651622,-2.70682903,-0.00398871,1.11839549,-0.00535649,3.11021613,-1.59147532,-2.88626870,0.02059937,1.15004635,-0.00343323,0.00976562,-0.00488281,0.24902344,-0.11718750,-0.20507812,-0.07324219,-0.01068115,-0.02026991,-0.01525879,-0.02441406
3.60622573,1245,3.12127875,-1.63687022,-2.70316323,-0.00495911,1.11838437,-0.00534058,3.12131941,-1.58651622,-2.70480438,-0.00460988,1.11838801,-0.00542587,3.11059760,-1.59147532,-2.88359841,0.01907349,1.14623166,-0.00419617,0.01464844,-0.00488281,0.23925781,-0.14648438,-0.29296875,-0.05859375,-0.01029968,-0.02033882,-0.01564026,-0.02441406
3.61901379,1250,3.12127875,-1.63687022,-2.70125588,-0.00534058,1.11838437,-0.00534058,3.12129207,-1.58651622,-2.70281953,-0.00492097,1.11838556,-0.00536853,3.11059760,-1.59147532,-2.88016518,0.01716614,1.14317990,-0.00419617,0.00488281,0.00000000,0.23437500,-0.14648438,-0.13183594,-0.01464844,-0.01068115,-0.02029426,-0.01564026,-0.02441406
3.63194180,1255,3.12166022,-1.63687022,-2.69934853,-0.00572205,1.11838437,-0.00534058,3.12135941,-1.58651622,-2.70088679,-0.00534041,1.11838476,-0.00534973,3.11059760,-1.59109385,-2.87711342,0.01487732,1.14127255,-0.00419617,0.00000000,0.00488281,0.21484375,-0.17578125,-0.10253906,-0.01464844,-0.01029968,-0.02008411,-0.01564026,-0.02441406
3.64572668,1260,3.12166022,-1.63687022,-2.69782265,-0.00610352,1.11838437,-0.00534058,3.12138148,-1.58651622,-2.69919633,-0.00573432,1.11838449,-0.00534358,3.11097907,-1.59109385,-2.87368019,0.01296997,1.14012814,-0.00419617,0.00488281,-0.00488281,0.24414062,-0.14648438,-0.07324219,-0.02929688,-0.01029968,-0.02018028,-0.01564026,-0.02441406
3.66210890,1265,3.12166022,-1.63687022,-2.69629677,-0.00610352,1.11838437,-0.00534058,3.12156888,-1.58651622,-2.69746760,-0.00598254,1.11838441,-0.00534156,3.11097907,-1.59109385,-2.87024697,0.01182556,1.13898373,-0.00419617,0.00976562,-0.00488281,0.23437500,-0.08789062,-0.05859375,-0.02929688,-0.01068115,-0.02024231,-0.01564026,-0.02441406
3.67609143,1270,3.12127875,-1.63687022,-2.69438942,-0.00610352,1.11838437,-0.00534058,3.12150517,-1.58651622,-2.69576771,-0.00606387,1.11838438,-0.00534090,3.11136054,-1.59109385,-2.86681374,0.01068115,1.13898373,-0.00419617,0.02441406,-0.00488281,0.23437500,-0.08789062,0.01464844,-0.01464844,-0.01068115,-0.02034174,-0.01564026,-0.02441406
3.69040704,1275,3.12127875,-1.63687022,-2.69286354,-0.00686646,1.11800290,-0.00534058,3.12135294,-1.58651622,-2.69403588,-0.00648432,1.11819821,-0.00534068,3.11174201,-1.59109385,-2.86299904,0.00877380,1.13783932,-0.00419617,0.00976562,0.00488281,0.21972656,-0.16113281,-0.07324219,-0.02929688,-0.01068115,-0.02035479,-0.01602173,-0.02441406
3.70661402,1280,3.12127875,-1.63687022,-2.69095620,-0.00762939,1.11723996,-0.00534058,3.12130306,-1.58651622,-2.69236623,-0.00695486,1.11774341,-0.00534061,3.11174201,-1.59109385,-2.85956581,0.00686646,1.13631344,-0.00457764,0.00488281,0.00488281,0.23925781,-0.10253906,-0.08789062,-0.01464844,-0.01068115,-0.02037860,-0.01602173,-0.04882812
3.71878672,1285,3.12127875,-1.63687022,-2.68981179,-0.00839233,1.11609555,-0.00534058,3.12128672,-1.58651622,-2.69090859,-0.00773185,1.11695632,-0.00534059,3.11212348,-1.59071238,-2.85689553,0.00610352,1.13478756,-0.00457764,0.01953125,0.00976562,0.20507812,-0.08789062,-0.10253906,-0.01464844,-0.01068115,-0.02030730,-0.01602173,-0.04882812
3.73296762,1290,3.12127875,-1.63687022,-2.68828591,-0.00877380,1.11456967,-0.00534058,3.12128136,-1.58651622,-2.68947587,-0.00840113,1.11581364,-0.00534058,3.11250495,-1.59071238,-2.85384377,0.00572205,1.13364316,-0.00457764,0.00488281,0.00976562,0.23437500,-0.05859375,-0.07324219,-0.01464844,-0.01029968,-0.01999072,-0.01640320,-0.02441406
3.74904680,1295,3.12127875,-1.63687022,-2.68561562,-0.00953674,1.11075497,-0.00534058,3.12127961,-1.58651622,-2.68746160,-0.00898445,1.11329297,-0.00534058,3.11250495,-1.59033091,-2.85002907,0.00495911,1.13135434,-0.00457764,0.00000000,0.00488281,0.22949219,-0.05859375,-0.10253906,-0.02929688,-0.01029968,-0.01988699,-0.01640320,-0.04882812
3.76151395,1300,3.12127875,-1.63687022,-2.68408974,-0.00915527,1.10846615,-0.00534058,3.12127903,-1.58651622,-2.68565655,-0.00916961,1.11061128,-0.00534058,3.11250495,-1.59033091,-2.84774025,0.00419617,1.13020993,-0.00457764,0.00000000,0.00488281,0.21972656,-0.07324219,-0.08789062,-0.02929688,-0.01029968,-0.01985299,-0.01640320,-0.02441406
3.77460742,1305,3.12127875,-1.63687022,-2.68256386,-0.00915527,1.10617734,-0.00534058,3.12127884,-1.58651622,-2.68397815,-0.00915997,1.10806238,-0.00534058,3.11250495,-1.59033091,-2.84468849,0.00343323,1.12868405,-0.00457764,0.00488281,0.00000000,0.20996094,-0.07324219,-0.10253906,-0.02929688,-0.01029968,-0.01984185,-0.01678467,-0.04882812
3.78852177,1310,3.12127875,-1.63687022,-2.68103798,-0.00877380,1.10312558,-0.00534058,3.12127878,-1.58651622,-2.68228316,-0.00908052,1.10532579,-0.00534058,3.11288642,-1.59033091,-2.84201821,0.00267029,1.12715817,-0.00457764,0.00488281,0.00488281,0.21972656,-0.07324219,-0.10253906,0.00000000,-0.01029968,-0.01993586,-0.01792908,-0.12207031
3.80137873,1315,3.12127875,-1.63687022,-2.67913063,-0.00839233,1.10045529,-0.00495911,3.12127876,-1.58651622,-2.68056453,-0.00879801,1.10266356,-0.00512317,3.11288642,-1.59033091,-2.83858498,0.00228882,1.12486935,-0.00495911,0.00000000,0.00000000,0.23437500,-0.07324219,-0.19042969,-0.01464844,-0.01029968,-0.01986901,-0.02021790,-0.14648438
3.81564307,1320,3.12127875,-1.63687022,-2.67722329,-0.00839233,1.09778500,-0.00495911,3.12127875,-1.58651622,-2.67871902,-0.00852527,1.09987677,-0.00504412,3.11326789,-1.59033091,-2.83553322,0.00152588,1.12219906,-0.00457764,0.00976562,-0.00488281,0.22460938,-0.10253906,-0.16113281,0.00000000,-0.01029968,-0.01984710,-0.02021790,-0.02441406
3.82967949,1325,3.12127875,-1.63687022,-2.67493447,-0.00839233,1.09435177,-0.00495911,3.12127875,-1.58651622,-2.67675564,-0.00843589,1.09693271,-0.00498696,3.11326789,-1.59033091,-2.83324440,0.00000000,1.12105465,-0.00495911,0.01953125,-0.00488281,0.23437500,-0.14648438,-0.08789062,-0.02929688,-0.01029968,-0.01983992,-0.01983643,-0.02441406
3.84345651,1330,3.12166022,-1.63687022,-2.67264565,-0.00801086,1.09130002,-0.00495911,3.12150397,-1.58651622,-2.67446360,-0.00815014,1.09368724,-0.00496823,3.11364936,-1.58994944,-2.83019265,-0.00152588,1.11952878,-0.00495911,0.00488281,0.00488281,0.20507812,-0.10253906,-0.07324219,-0.01464844,-0.01029968,-0.01983757,-0.02021790,0.00000000
3.85664630,1335,3.12166022,-1.63687022,-2.67073830,-0.00762939,1.08786679,-0.00495911,3.12160902,-1.58651622,-2.67226760,-0.00780003,1.09047423,-0.00496210,3.11364936,-1.58994944,-2.82752236,-0.00228882,1.11800290,-0.00495911,0.00000000,0.00976562,0.21972656,-0.05859375,-0.10253906,0.00000000,-0.01029968,-0.01995887,-0.02021790,-0.04882812
3.87171626,1340,3.12166022,-1.63687022,-2.66844948,-0.00686646,1.08405209,-0.00495911,3.12164344,-1.58651622,-2.67017179,-0.00738380,1.08691870,-0.00496009,3.11364936,-1.58994944,-2.82370766,-0.00267029,1.11533261,-0.00495911,0.00000000,0.00000000,0.20996094,-0.04394531,-0.13183594,-0.01464844,-0.01029968,-0.01995467,-0.02021790,-0.02441406
3.88531017,1345,3.12166022,-1.63687022,-2.66616066,-0.00686646,1.07985592,-0.00495911,3.12165472,-1.58651622,-2.66790716,-0.00703598,1.08313510,-0.00495943,3.11364936,-1.58994944,-2.82141884,-0.00267029,1.11418820,-0.00495911,0.00000000,-0.00488281,0.22949219,-0.02929688,-0.08789062,0.00000000,-0.01029968,-0.01997283,-0.01983643,0.00000000
3.89880061,1350,3.12166022,-1.63687022,-2.66463478,-0.00686646,1.07680417,-0.00495911,3.12165842,-1.58651622,-2.66598881,-0.00692200,1.07942019,-0.00495921,3.11364936,-1.58994944,-2.81913002,-0.00305176,1.11304379,-0.00495911,0.00488281,0.00000000,0.21484375,-0.04394531,-0.07324219,-0.01464844,-0.01029968,-0.01988112,-0.02021790,-0.04882812
3.91622949,1355,3.12166022,-1.63687022,-2.66158303,-0.00686646,1.07184506,-0.00495911,3.12165963,-1.58651622,-2.66372691,-0.00688466,1.07526576,-0.00495914,3.11403083,-1.58956797,-2.81493386,-0.00343323,1.11151791,-0.00495911,0.01464844,0.00000000,0.20507812,-0.02929688,-0.08789062,-0.01464844,-0.01029968,-0.01992920,-0.01983643,-0.02441406
3.92999959,1360,3.12166022,-1.63687022,-2.66005715,-0.00686646,1.06841183,-0.00495911,3.12166003,-1.58651622,-2.66144911,-0.00687242,1.07114796,-0.00495912,3.11441230,-1.58956797,-2.81188210,-0.00381470,1.10846615,-0.00495911,0.01464844,0.00000000,0.19531250,-0.01464844,-0.16113281,-0.01464844,-0.01029968,-0.01986683,-0.02021790,-0.02441406
3.94439435,1365,3.12166022,-1.63687022,-2.65776833,-0.00686646,1.06421567,-0.00495911,3.12166016,-1.58651622,-2.65941439,-0.00691724,1.06714788,-0.00495911,3.11441230,-1.58956797,-2.80921181,-0.00381470,1.10579587,-0.00495911,-0.00488281,0.00488281,0.21484375,-0.01464844,-0.19042969,-0.01464844,-0.01029968,-0.01984639,-0.02021790,-0.04882812
3.95714211,1370,3.12166022,-1.63687022,-2.65586098,-0.00686646,1.06116391,-0.00495911,3.12166020,-1.58651622,-2.65754538,-0.00692216,1.06385618,-0.00495911,3.11441230,-1.58956797,-2.80654152,-0.00381470,1.10312558,-0.00495911,0.00000000,-0.00488281,0.21972656,-0.01464844,-0.27832031,-0.02929688,-0.01029968,-0.01983969,-0.02021790,-0.02441406
3.97207546,1375,3.12166022,-1.63687022,-2.65433510,-0.00686646,1.05773068,-0.00495911,3.12166021,-1.58651622,-2.65573910,-0.00688471,1.06053964,-0.00495911,3.11479377,-1.58956797,-2.80387123,-0.00381470,1.09816647,-0.00495911,0.00488281,-0.00976562,0.20996094,-0.01464844,-0.23437500,0.00000000,-0.01029968,-0.01983750,-0.02021790,-0.02441406
3.98545933,1380,3.12166022,-1.63687022,-2.65242775,-0.00686646,1.05353451,-0.00495911,3.12166022,-1.58651622,-2.65394494,-0.00687244,1.05672546,-0.00495911,3.11479377,-1.58956797,-2.80081948,-0.00381470,1.09511471,-0.00495911,0.00000000,0.00000000,0.19042969,-0.01464844,-0.20507812,-0.01464844,-0.01029968,-0.01973912,-0.02021790,-0.02441406
3.99910665,1385,3.12166022,-1.63687022,-2.65090187,-0.00686646,1.05010129,-0.00495911,3.12166022,-1.58651622,-2.65222959,-0.00686841,1.05313469,-0.00495911,3.11479377,-1.58956797,-2.79814919,-0.00381470,1.09168149,-0.00495911,0.00000000,0.00000000,0.19531250,0.00000000,-0.20507812,-0.01464844,-0.00991821,-0.01957383,-0.01983643,-0.02441406
4.01402617,1390,3.12166022,-1.63687022,-2.64975746,-0.00686646,1.04781247,-0.00495911,3.12166022,-1.58651622,-2.65081802,-0.00686710,1.05002764,-0.00495911,3.11479377,-1.58956797,-2.79586037,-0.00419617,1.08939267,-0.00495911,0.00488281,-0.00488281,0.19042969,0.00000000,-0.16113281,-0.02929688,-0.00991821,-0.01929994,-0.02021790,-0.02441406
4.02800560,1395,3.12166022,-1.63687022,-2.64899453,-0.00686646,1.04590512,-0.00495911,3.12166022,-1.58651622,-2.64974244,-0.00686667,1.04759583,-0.00495911,3.11517524,-1.58956797,-2.79242714,-0.00419617,1.08672238,-0.00534058,0.00976562,-0.00488281,0.20507812,-0.02929688,-0.16113281,-0.02929688,-0.00991821,-0.01914769,-0.01983643,-0.02441406
4.04116869,1400,3.12166022,-1.63687022,-2.64861306,-0.00648499,1.04361630,-0.00495911,3.12166022,-1.58651622,-2.64898313,-0.00672919,1.04550137,-0.00495911,3.11517524,-1.58956797,-2.78975685,-0.00419617,1.08443356,-0.00534058,0.00488281,-0.00488281,0.20996094,-0.01464844,-0.10253906,-0.01464844,-0.00991821,-0.01909780,-0.02021790,-0.04882812
4.05597234,1405,3.12166022,-1.63687022,-2.64861306,-0.00495911,1.04247189,-0.00495911,3.12166022,-1.58651622,-2.64873432,-0.00590876,1.04374633,-0.00495911,3.11517524,-1.58956797,-2.78708657,-0.00457764,1.08328915,-0.00534058,0.00000000,0.00000000,0.20019531,-0.02929688,-0.05859375,-0.02929688,-0.00953674,-0.01886637,-0.01983643,0.00000000
4.07126856,1410,3.12166022,-1.63687022,-2.64861306,-0.00343323,1.04209042,-0.00534058,3.12166022,-1.58651622,-2.64865279,-0.00461404,1.04266428,-0.00509644,3.11555670,-1.58956797,-2.78441628,-0.00457764,1.08100033,-0.00495911,0.00000000,-0.00488281,0.18066406,-0.01464844,-0.14648438,-0.01464844,-0.00953674,-0.01849268,-0.01983643,0.00000000
4.08171105,1415,3.12166022,-1.63687022,-2.64861306,-0.00343323,1.04209042,-0.00495911,3.12166022,-1.58651622,-2.64862608,-0.00382016,1.04230971,-0.00509200,3.11555670,-1.58956797,-2.78250893,-0.00457764,1.07871152,-0.00534058,0.00000000,-0.00488281,0.19531250,-0.04394531,-0.21972656,-0.01464844,-0.00915527,-0.01799791,-0.01983643,0.00000000
4.09573984,1420,3.12166022,-1.63687022,-2.64861306,-0.00343323,1.04247189,-0.00534058,3.12166022,-1.58651622,-2.64861732,-0.00356002,1.04223857,-0.00525912,3.11555670,-1.58918650,-2.78022011,-0.00457764,1.07527829,-0.00495911,0.00000000,-0.00488281,0.17578125,-0.01464844,-0.24902344,-0.01464844,-0.00877380,-0.01744492,-0.02021790,-0.02441406
4.11073375,1425,3.12166022,-1.63687022,-2.64861306,-0.00343323,1.04247189,-0.00534058,3.12166022,-1.58651622,-2.64861445,-0.00347477,1.04235637,-0.00531389,3.11555670,-1.58918650,-2.77754982,-0.00457764,1.07108212,-0.00534058,0.00000000,-0.00488281,0.18066406,-0.01464844,-0.21972656,-0.01464844,-0.00877380,-0.01700102,-0.02021790,-0.02441406
4.12232637,1430,3.12166022,-1.63687022,-2.64861306,-0.00381470,1.04209042,-0.00572205,3.12166022,-1.58651622,-2.64861351,-0.00352314,1.04235774,-0.00544719,3.11555670,-1.58918650,-2.77564247,-0.00457764,1.06803036,-0.00534058,-0.00488281,0.00000000,0.17578125,0.00000000,-0.24902344,-0.02929688,-0.00839233,-0.01640512,-0.01983643,0.00000000
4.13826680,1435,3.12166022,-1.63687022,-2.64861306,-0.00381470,1.04247189,-0.00572205,3.12166022,-1.58651622,-2.64861321,-0.00371916,1.04232462,-0.00563198,3.11555670,-1.58918650,-2.77259072,-0.00457764,1.06459714,-0.00534058,0.00000000,0.00000000,0.16601562,-0.01464844,-0.13183594,-0.02929688,-0.00801086,-0.01577504,-0.01983643,-0.02441406
4.15439272,1440,3.12166022,-1.63687022,-2.64861306,-0.00381470,1.04247189,-0.00572205,3.12166022,-1.58651622,-2.64861310,-0.00378339,1.04238457,-0.00569253,3.11593817,-1.58918650,-2.76992043,-0.00457764,1.06345273,-0.00534058,0.00488281,-0.00488281,0.17089844,0.00000000,-0.05859375,-0.02929688,-0.00762939,-0.01515330,-0.01983643,0.00000000
4.16868424,1445,3.12166022,-1.63687022,-2.64861306,-0.00381470,1.04209042,-0.00572205,3.12166022,-1.58651622,-2.64861307,-0.00380444,1.04218681,-0.00571238,3.11631964,-1.58918650,-2.76763161,-0.00457764,1.06307126,-0.00534058,0.02441406,-0.00488281,0.18066406,-0.02929688,-0.02929688,0.00000000,-0.00724792,-0.01455869,-0.01983643,-0.02441406
4.18418574,1450,3.12166022,-1.63687022,-2.64861306,-0.00381470,1.04132748,-0.00534058,3.12166022,-1.58651622,-2.64861306,-0.00381134,1.04172821,-0.00549366,3.11631964,-1.58918650,-2.76496132,-0.00457764,1.06192685,-0.00534058,0.00488281,-0.00488281,0.16601562,-0.01464844,-0.02929688,0.00000000,-0.00762939,-0.01451644,-0.01983643,0.02441406
4.19707704,1455,3.12166022,-1.63687022,-2.64861306,-0.00381470,1.04094601,-0.00534058,3.12166022,-1.58651622,-2.64861306,-0.00381360,1.04132146,-0.00539074,3.11631964,-1.58918650,-2.76267250,-0.00457764,1.06154538,-0.00534058,0.00000000,0.00000000,0.16601562,-0.01464844,-0.01464844,-0.04394531,-0.00762939,-0.01450260,-0.01983643,0.00000000
4.21136785,1460,3.12166022,-1.63687022,-2.64861306,-0.00381470,1.04094601,-0.00534058,3.12166022,-1.58651622,-2.64861306,-0.00381434,1.04106904,-0.00535701,3.11670111,-1.58918650,-2.76076516,-0.00457764,1.06040097,-0.00534058,0.00000000,0.00000000,0.18066406,-0.02929688,-0.10253906,-0.01464844,-0.00801086,-0.01465065,-0.01983643,-0.02441406
4.22442913,1465,3.12166022,-1.63687022,-2.64861306,-0.00381470,1.04094601,-0.00534058,3.12166022,-1.58651622,-2.64861306,-0.00381458,1.04098633,-0.00534596,3.11670111,-1.58918650,-2.75847634,-0.00457764,1.05849362,-0.00534058,0.00000000,-0.00488281,0.15625000,0.00000000,-0.08789062,-0.01464844,-0.00762939,-0.01454657,-0.01983643,-0.02441406
