MingxuanLei/DMarm_date_collection/data/trajectory/teach_record_20260625_222508.csv
time_s,loop_count,master_q1,master_q2,master_q3,master_q4,master_q5,master_q6,slave_target_q1,slave_target_q2,slave_target_q3,slave_target_q4,slave_target_q5,slave_target_q6,slave_actual_q1,slave_actual_q2,slave_actual_q3,slave_actual_q4,slave_actual_q5,slave_actual_q6,slave_actual_v1,slave_actual_v2,slave_actual_v3,slave_actual_v4,slave_actual_v5,slave_actual_v6,master_tool,slave_tool_target,slave_tool_actual,slave_tool_actual_vel
0.02238774,5,3.13272284,2.72752236,-1.59423073,-0.01907349,-1.59195804,-2.79769897,3.11021613,2.73430264,-1.59284926,-0.04310608,-1.57868631,-2.20260620,3.11021613,2.72942971,-1.59079750,-0.04348755,-1.58394718,-2.20298767,-0.00488281,-0.00488281,0.00488281,-0.01464844,0.02929688,-0.02929688,-2.98118591,-0.17668298,-0.17700195,0.02441406
0.03713202,10,3.13272284,2.72752236,-1.59423073,-0.01907349,-1.59195804,-2.79769897,3.11021613,2.73589940,-1.59352158,-0.04306702,-1.57688626,-2.20260620,3.11021613,2.72942971,-1.59079750,-0.04348755,-1.58394718,-2.20298767,-0.00488281,-0.00488281,-0.00000000,-0.01464844,0.01464844,-0.01464844,-2.98118591,-0.17664096,-0.17700195,-0.02441406
0.05349088,15,3.13272284,2.72752236,-1.59423073,-0.01869202,-1.59195804,-2.79769897,3.11021613,2.73642262,-1.59374189,-0.04294667,-1.57624759,-2.20260620,3.11021613,2.72942971,-1.59079750,-0.04348755,-1.58394718,-2.20298767,-0.00488281,0.00000000,0.00488281,-0.01464844,0.01464844,-0.01464844,-2.98118591,-0.17662719,-0.17700195,-0.04882812
0.06883001,20,3.13272284,2.72752236,-1.59423073,-0.01907349,-1.59233951,-2.79769897,3.11021613,2.73659407,-1.59381408,-0.04300502,-1.57611461,-2.20260620,3.11021613,2.72942971,-1.59079750,-0.04348755,-1.58356571,-2.20298767,-0.00488281,-0.00488281,-0.00000000,0.00000000,0.02929688,-0.01464844,-2.98118591,-0.17662268,-0.17700195,-0.04882812
0.08312821,25,3.13272284,2.72752236,-1.59423073,-0.01907349,-1.59195804,-2.79769897,3.11021613,2.73665025,-1.59383773,-0.04298068,-1.57599474,-2.20260620,3.11021613,2.72942971,-1.59079750,-0.04348755,-1.58356571,-2.20298767,-0.00976562,0.00000000,0.00976562,-0.02929688,0.02929688,-0.02929688,-2.98118591,-0.17662120,-0.17662048,-0.02441406
0.09634113,30,3.13272284,2.72752236,-1.59423073,-0.01907349,-1.59195804,-2.79769897,3.11021613,2.73666866,-1.59384548,-0.04298491,-1.57595546,-2.20260620,3.11021613,2.72942971,-1.59079750,-0.04348755,-1.58356571,-2.20298767,-0.00976562,0.00000000,0.00488281,-0.01464844,0.02929688,-0.01464844,-2.98118591,-0.17662072,-0.17700195,-0.02441406
0.10930443,35,3.13272284,2.72752236,-1.59423073,-0.01869202,-1.59195804,-2.79769897,3.11021613,2.73667470,-1.59384802,-0.04299008,-1.57594259,-2.20260620,3.11021613,2.72942971,-1.59079750,-0.04348755,-1.58318424,-2.20298767,-0.00976562,0.00000000,0.00488281,-0.01464844,0.02929688,-0.01464844,-2.98118591,-0.17662056,-0.17700195,-0.04882812
0.12415385,40,3.13272284,2.72752236,-1.59423073,-0.01907349,-1.59195804,-2.79769897,3.11021613,2.73667667,-1.59384886,-0.04306807,-1.57593837,-2.20260620,3.11021613,2.72942971,-1.59079750,-0.04348755,-1.58318424,-2.20260620,-0.00488281,0.00488281,0.00488281,0.00000000,0.02929688,0.00000000,-2.98118591,-0.17662051,-0.17662048,0.00000000
0.13701820,45,3.13272284,2.72752236,-1.59423073,-0.01907349,-1.59195804,-2.79769897,3.11021613,2.73667732,-1.59384913,-0.04309362,-1.57598581,-2.20260620,3.11021613,2.72942971,-1.59079750,-0.04348755,-1.58318424,-2.20298767,-0.00488281,0.00000000,0.00488281,0.00000000,-0.00000000,-0.01464844,-2.98156738,-0.17689515,-0.17662048,-0.02441406
0.15180230,50,3.13272284,2.72752236,-1.59423073,-0.01907349,-1.59195804,-2.79769897,3.11021613,2.73667753,-1.59384922,-0.04310200,-1.57610146,-2.20260620,3.11021613,2.72981118,-1.59079750,-0.04348755,-1.58318424,-2.20298767,-0.00488281,0.00000000,0.00488281,0.00000000,0.01464844,-0.02929688,-2.98118591,-0.17671049,-0.17662048,-0.04882812
0.16838646,55,3.13272284,2.72752236,-1.59423073,-0.01907349,-1.59233951,-2.79769897,3.11021613,2.73667760,-1.59384925,-0.04310474,-1.57624690,-2.20260620,3.11021613,2.72981118,-1.59079750,-0.04348755,-1.58318424,-2.20260620,-0.00488281,-0.00488281,0.00976562,-0.02929688,0.01464844,-0.01464844,-2.98118591,-0.17664998,-0.17700195,0.00000000
0.18129230,60,3.13272284,2.72752236,-1.59423073,-0.01907349,-1.59272098,-2.79769897,3.11021613,2.73667763,-1.59384926,-0.04310564,-1.57637085,-2.20260620,3.11021613,2.72981118,-1.59079750,-0.04348755,-1.58318424,-2.20260620,-0.00488281,-0.00488281,0.00488281,-0.01464844,0.01464844,-0.01464844,-2.98156738,-0.17692336,-0.17700195,-0.04882812
0.19682717,65,3.13272284,2.72752236,-1.59423073,-0.01907349,-1.59310245,-2.79731750,3.11021613,2.73667763,-1.59384926,-0.04310594,-1.57677780,-2.20238098,3.11021613,2.72981118,-1.59079750,-0.04348755,-1.58318424,-2.20298767,0.00000000,0.00000000,0.00488281,0.00000000,0.02929688,-0.02929688,-2.98156738,-0.17699439,-0.17700195,-0.02441406
0.20967960,70,3.13272284,2.72752236,-1.59423073,-0.01907349,-1.59386539,-2.79731750,3.11021613,2.73667764,-1.59384926,-0.04310603,-1.57742409,-2.20241704,3.11021613,2.72981118,-1.59079750,-0.04348755,-1.58280277,-2.20260620,-0.00488281,0.00000000,0.00488281,0.00000000,0.01464844,0.00000000,-2.98118591,-0.17674300,-0.17700195,-0.02441406
0.22440410,75,3.13272284,2.72752236,-1.59423073,-0.01907349,-1.59500980,-2.79731750,3.11021613,2.73667764,-1.59384926,-0.04310606,-1.57832519,-2.20228775,3.11021613,2.72981118,-1.59079750,-0.04348755,-1.58280277,-2.20260620,0.00000000,-0.00488281,0.00488281,0.00000000,0.02929688,0.00000000,-2.98118591,-0.17666063,-0.17700195,-0.07324219
0.23744631,80,3.13272284,2.72752236,-1.59423073,-0.01907349,-1.59539127,-2.79731750,3.11021613,2.73667764,-1.59384926,-0.04310607,-1.57899608,-2.20224538,3.11021613,2.72981118,-1.59079750,-0.04348755,-1.58280277,-2.20298767,-0.00488281,0.00000000,0.00488281,-0.01464844,0.01464844,0.00000000,-2.98118591,-0.17663364,-0.17662048,0.00000000
0.24918914,85,3.13272284,2.72752236,-1.59423073,-0.01907349,-1.59539127,-2.79731750,3.11021613,2.73667764,-1.59384926,-0.04310608,-1.57924716,-2.20223150,3.11021613,2.72981118,-1.59079750,-0.04348755,-1.58280277,-2.20298767,0.00000000,-0.00488281,0.00488281,-0.01464844,0.01464844,-0.01464844,-2.98118591,-0.17662479,-0.17700195,-0.02441406
0.26394796,90,3.13272284,2.72752236,-1.59423073,-0.01907349,-1.59500980,-2.79731750,3.11021613,2.73667764,-1.59384926,-0.04310608,-1.57919211,-2.20222695,3.11021613,2.72981118,-1.59079750,-0.04348755,-1.58280277,-2.20298767,0.00000000,0.00000000,0.00488281,-0.02929688,0.04394531,-0.02929688,-2.98118591,-0.17662190,-0.17700195,-0.04882812
0.27919221,95,3.13272284,2.72752236,-1.59423073,-0.01907349,-1.59462833,-2.79731750,3.11021613,2.73667764,-1.59384926,-0.04310608,-1.57886877,-2.20222546,3.11021613,2.73019265,-1.59079750,-0.04348755,-1.58280277,-2.20298767,-0.00488281,0.00000000,0.00488281,0.00000000,0.02929688,-0.01464844,-2.98118591,-0.17662095,-0.17700195,-0.02441406
0.29297638,100,3.13272284,2.72752236,-1.59423073,-0.01907349,-1.59424686,-2.79731750,3.11021613,2.73667764,-1.59384926,-0.04310608,-1.57843604,-2.20222497,3.11021613,2.73019265,-1.59079750,-0.04348755,-1.58242130,-2.20260620,-0.00488281,0.00000000,-0.00000000,-0.02929688,0.02929688,-0.01464844,-2.98118591,-0.17662064,-0.17662048,0.00000000
0.31073236,105,3.13272284,2.72752236,-1.59423073,-0.01907349,-1.59310245,-2.79731750,3.11021613,2.73667764,-1.59384926,-0.04310608,-1.57782415,-2.20222481,3.11021613,2.73019265,-1.59079750,-0.04348755,-1.58242130,-2.20260620,-0.00488281,0.00000000,0.00488281,-0.01464844,0.02929688,-0.01464844,-2.98118591,-0.17662053,-0.17700195,-0.02441406
0.32294846,110,3.13272284,2.72752236,-1.59423073,-0.01945496,-1.59233951,-2.79731750,3.11021613,2.73667764,-1.59384926,-0.04318237,-1.57711070,-2.20222476,3.11021613,2.73019265,-1.59079750,-0.04348755,-1.58203983,-2.20260620,-0.00976562,-0.00488281,0.00488281,0.00000000,0.01464844,0.00000000,-2.98118591,-0.17662050,-0.17700195,-0.02441406
0.33802176,115,3.13272284,2.72752236,-1.59423073,-0.01983643,-1.59005069,-2.79731750,3.11021613,2.73667764,-1.59384926,-0.04352488,-1.57555881,-2.20222474,3.11021613,2.73019265,-1.59079750,-0.04348755,-1.58165836,-2.20298767,-0.00976562,-0.00488281,-0.00000000,-0.01464844,0.02929688,-0.02929688,-2.98118591,-0.17662049,-0.17662048,0.00000000
0.35261273,120,3.13272284,2.72752236,-1.59423073,-0.02059937,-1.58585453,-2.79731750,3.11021613,2.73667764,-1.59384926,-0.04407974,-1.57263976,-2.20222473,3.11021613,2.73019265,-1.59079750,-0.04348755,-1.58165836,-2.20298767,-0.00488281,-0.00488281,0.00488281,-0.01464844,0.02929688,-0.02929688,-2.98118591,-0.17662049,-0.17700195,-0.02441406
0.36797643,125,3.13272284,2.72752236,-1.59423073,-0.02174377,-1.57936954,-2.79731750,3.11021613,2.73667764,-1.59384926,-0.04499971,-1.56797463,-2.20222473,3.11021613,2.73019265,-1.59079750,-0.04348755,-1.58089542,-2.20260620,-0.00488281,-0.00488281,0.00488281,-0.02929688,0.04394531,0.00000000,-2.98118591,-0.17662048,-0.17700195,-0.02441406
0.38094735,130,3.13272284,2.72752236,-1.59423073,-0.02288818,-1.57326602,-2.79731750,3.11021613,2.73667764,-1.59384926,-0.04599197,-1.56243863,-2.20222473,3.11021613,2.73057412,-1.59079750,-0.04348755,-1.58013248,-2.20298767,0.00000000,0.00000000,0.00488281,-0.01464844,0.07324219,-0.02929688,-2.98118591,-0.17662048,-0.17700195,-0.02441406
0.39535069,135,3.13272284,2.72752236,-1.59423073,-0.02441406,-1.56411075,-2.79731750,3.11021613,2.73667764,-1.59384926,-0.04724142,-1.55515585,-2.20222473,3.11021613,2.73057412,-1.59079750,-0.04348755,-1.57860660,-2.20260620,-0.00488281,0.00000000,0.00488281,-0.01464844,0.13183594,-0.02929688,-2.98118591,-0.17668298,-0.17700195,-0.02441406
0.40956998,140,3.13272284,2.72752236,-1.59423073,-0.02593994,-1.55342960,-2.79731750,3.11021613,2.73667764,-1.59384926,-0.04847897,-1.54674843,-2.20222473,3.11021613,2.73057412,-1.59079750,-0.04348755,-1.57746219,-2.20298767,-0.00488281,-0.00488281,0.00488281,-0.01464844,0.13183594,-0.01464844,-2.98118591,-0.17676303,-0.17700195,-0.02441406
0.42290545,145,3.13272284,2.72752236,-1.59423073,-0.02670288,-1.54351139,-2.79731750,3.11021613,2.73667764,-1.59384926,-0.04984567,-1.53645467,-2.20211487,3.11021613,2.73057412,-1.59079750,-0.04348755,-1.57517337,-2.20298767,-0.00488281,0.00000000,0.00488281,-0.02929688,0.13183594,-0.01464844,-2.98118591,-0.17674532,-0.17662048,-0.02441406
0.43848205,150,3.13272284,2.72752236,-1.59423073,-0.02632141,-1.53511905,-2.79693604,3.11021613,2.73667764,-1.59384926,-0.05036761,-1.52650324,-2.20193226,3.11021613,2.73057412,-1.59079750,-0.04386902,-1.57326602,-2.20260620,-0.00488281,-0.00976562,0.00488281,-0.02929688,0.16113281,-0.01464844,-2.98156738,-0.17701417,-0.17700195,0.00000000
0.45353675,155,3.13272284,2.72752236,-1.59423073,-0.02632141,-1.52977848,-2.79693604,3.11021613,2.73667764,-1.59384926,-0.05035846,-1.51892912,-2.20187243,3.11021613,2.73057412,-1.59079750,-0.04425049,-1.57021427,-2.20260620,-0.00488281,0.00000000,-0.00000000,-0.04394531,0.26367188,0.00000000,-2.98118591,-0.17687156,-0.17662048,0.00000000
0.46947694,160,3.13272284,2.72752236,-1.59423073,-0.02632141,-1.52443790,-2.79731750,3.11021613,2.73667764,-1.59384926,-0.05035546,-1.51325607,-2.20197794,3.11021613,2.73057412,-1.59079750,-0.04463196,-1.56411075,-2.20298767,-0.00976562,-0.00488281,0.00488281,-0.01464844,0.35156250,-0.01464844,-2.98118591,-0.17670276,-0.17700195,0.00000000
0.48534465,165,3.13272284,2.72752236,-1.59423073,-0.02632141,-1.51795291,-2.79731750,3.11021613,2.73667764,-1.59384926,-0.05035448,-1.50729496,-2.20214386,3.11021613,2.73095559,-1.59079750,-0.04463196,-1.55838870,-2.20298767,-0.00488281,0.00000000,-0.00000000,-0.01464844,0.41015625,-0.01464844,-2.98156738,-0.17706273,-0.17700195,-0.02441406
0.49965358,170,3.13272284,2.72752236,-1.59423073,-0.02632141,-1.51146793,-2.79731750,3.11021613,2.73667764,-1.59384926,-0.05035416,-1.50066571,-2.20219823,3.11021613,2.73095559,-1.59079750,-0.04463196,-1.55304813,-2.20260620,-0.00488281,0.00488281,-0.00000000,-0.01464844,0.35156250,-0.01464844,-2.98118591,-0.17682790,-0.17700195,-0.04882812
0.51569486,175,3.13272284,2.72752236,-1.59423073,-0.02632141,-1.50383853,-2.79731750,3.11021613,2.73667764,-1.59384926,-0.05035406,-1.49384452,-2.20221605,3.11021613,2.73095559,-1.59079750,-0.04463196,-1.54961490,-2.20260620,-0.00488281,-0.00488281,-0.00000000,-0.01464844,0.20507812,0.00000000,-2.98118591,-0.17690818,-0.17700195,-0.02441406
0.52843571,180,3.13272284,2.72752236,-1.59423073,-0.02632141,-1.49620914,-2.79731750,3.11021613,2.73667764,-1.59384926,-0.05035402,-1.48624363,-2.20222189,3.11021613,2.73095559,-1.59079750,-0.04501343,-1.54732608,-2.20260620,0.00000000,-0.00488281,0.00488281,-0.02929688,0.16113281,-0.02929688,-2.98118591,-0.17671475,-0.17700195,-0.02441406
0.54405212,185,3.13272284,2.72752236,-1.59423073,-0.02632141,-1.48552799,-2.79731750,3.11021613,2.73667764,-1.59384926,-0.05035401,-1.47729154,-2.20222380,3.11021613,2.73095559,-1.59117897,-0.04539490,-1.54427432,-2.20260620,0.00000000,0.00000000,-0.00000000,-0.04394531,0.24902344,-0.01464844,-2.98118591,-0.17665137,-0.17700195,0.00000000
0.55838704,190,3.13272284,2.72752236,-1.59423073,-0.02632141,-1.47446536,-2.79769897,3.11021613,2.73667764,-1.59384926,-0.05035401,-1.46720761,-2.20244183,3.11021613,2.73095559,-1.59117897,-0.04577637,-1.53969669,-2.20260620,-0.00488281,-0.00488281,-0.00000000,-0.05859375,0.36621094,-0.01464844,-2.98118591,-0.17672826,-0.17700195,-0.02441406
0.57415867,195,3.13272284,2.72752236,-1.59423073,-0.02593994,-1.46454715,-2.79769897,3.11021613,2.73667764,-1.59384926,-0.05009753,-1.45681126,-2.20255234,3.11021613,2.73095559,-1.59117897,-0.04653931,-1.53168582,-2.20298767,-0.00488281,-0.00488281,-0.00000000,-0.04394531,0.54199219,-0.01464844,-2.98118591,-0.17665580,-0.17700195,-0.02441406
0.58865285,200,3.13272284,2.72752236,-1.59423073,-0.02555847,-1.45157718,-2.79769897,3.11021613,2.73667764,-1.59384926,-0.04987617,-1.44483110,-2.20258855,3.11021613,2.73095559,-1.59117897,-0.04615784,-1.52443790,-2.20260620,-0.00488281,0.00000000,0.00488281,-0.01464844,0.54199219,-0.01464844,-2.98118591,-0.17663206,-0.17700195,-0.02441406
0.60209179,205,3.13272284,2.72752236,-1.59423073,-0.02555847,-1.43822574,-2.79808044,3.11021613,2.73667764,-1.59384926,-0.04968449,-1.43235772,-2.20273775,3.11021613,2.73095559,-1.59117897,-0.04615784,-1.51833438,-2.20298767,-0.00488281,0.00000000,0.00488281,0.01464844,0.39550781,-0.02929688,-2.98118591,-0.17662428,-0.17700195,-0.02441406
0.61551642,210,3.13272284,2.72752236,-1.59423073,-0.02593994,-1.42716312,-2.79808044,3.11021613,2.73667764,-1.59384926,-0.04981711,-1.42055791,-2.20290578,3.11021613,2.73095559,-1.59117897,-0.04615784,-1.51375675,-2.20260620,-0.00976562,-0.00976562,0.00488281,-0.01464844,0.42480469,-0.01464844,-2.98118591,-0.17662173,-0.17700195,-0.02441406
0.62880826,215,3.13272284,2.72752236,-1.59423073,-0.02593994,-1.41419315,-2.79808044,3.11021613,2.73667764,-1.59384926,-0.04992161,-1.40866132,-2.20296084,3.11021613,2.73095559,-1.59117897,-0.04653931,-1.50727176,-2.20260620,-0.00488281,-0.00488281,-0.00000000,-0.04394531,0.43945312,-0.01464844,-2.98156738,-0.17689555,-0.17662048,0.00000000
0.64658928,220,3.13272284,2.72752236,-1.59423073,-0.02593994,-1.39817142,-2.79846191,3.11021613,2.73667764,-1.59384926,-0.04995585,-1.39519786,-2.20305517,3.11021613,2.73133706,-1.59117897,-0.04730225,-1.49887943,-2.20298767,-0.00488281,-0.00488281,-0.00000000,-0.05859375,0.51269531,0.00000000,-2.98118591,-0.17671062,-0.17700195,-0.04882812
0.65996909,225,3.13272284,2.72752236,-1.59423073,-0.02593994,-1.38749027,-2.79884338,3.11021613,2.73667764,-1.59384926,-0.04996707,-1.38168655,-2.20345242,3.11021613,2.73133706,-1.59117897,-0.04768372,-1.49239444,-2.20298767,-0.00488281,0.00488281,-0.00000000,-0.02929688,0.60058594,-0.01464844,-2.98118591,-0.17677209,-0.17700195,-0.02441406
0.67375660,230,3.13272284,2.72752236,-1.59461220,-0.02555847,-1.37413883,-2.80075073,3.11021613,2.73667764,-1.59398659,-0.04989445,-1.36884278,-2.20442450,3.11021613,2.73133706,-1.59117897,-0.04768372,-1.48209476,-2.20298767,-0.00488281,-0.00488281,0.00488281,-0.02929688,0.68847656,-0.02929688,-2.98118591,-0.17679223,-0.17662048,0.00000000
0.68729973,235,3.13272284,2.72752236,-1.59461220,-0.02517700,-1.36307620,-2.80342102,3.11021613,2.73667764,-1.59415073,-0.04955315,-1.35653830,-2.20649780,3.11021613,2.73133706,-1.59117897,-0.04768372,-1.47332096,-2.20298767,-0.00488281,-0.00488281,0.00488281,-0.01464844,0.64453125,-0.02929688,-2.98118591,-0.17677442,-0.17662048,-0.04882812
0.69984579,240,3.13272284,2.72752236,-1.59461220,-0.02479553,-1.35277652,-2.80494690,3.11021613,2.73667764,-1.59420452,-0.04913601,-1.34600943,-2.20829241,3.11021613,2.73133706,-1.59156044,-0.04768372,-1.46569156,-2.20298767,-0.00488281,-0.00488281,-0.00000000,0.00000000,0.60058594,-0.01464844,-2.98118591,-0.17667092,-0.17700195,-0.07324219
0.71393299,245,3.13272284,2.72752236,-1.59461220,-0.02365112,-1.34362125,-2.80609131,3.11021613,2.73667764,-1.59422214,-0.04837103,-1.33542847,-2.20996140,3.11021613,2.73133706,-1.59156044,-0.04768372,-1.45691776,-2.20298767,-0.00488281,-0.00488281,0.00488281,-0.02929688,0.64453125,-0.02929688,-2.98118591,-0.17663701,-0.17700195,-0.02441406
0.72789240,250,3.13272284,2.72752236,-1.59461220,-0.02250671,-1.33255863,-2.80609131,3.11021613,2.73667764,-1.59422792,-0.04742126,-1.32492944,-2.21065869,3.11021613,2.73133706,-1.59156044,-0.04806519,-1.44890689,-2.20298767,-0.00976562,-0.00976562,-0.00000000,-0.01464844,0.57128906,-0.02929688,-2.98118591,-0.17662590,-0.17700195,0.00000000
0.74225640,255,3.13272284,2.72752236,-1.59537514,-0.02212524,-1.32149600,-2.80609131,3.11021613,2.73667764,-1.59453132,-0.04660309,-1.31385178,-2.21088717,3.11021613,2.73133706,-1.59156044,-0.04806519,-1.44280338,-2.20336914,-0.00488281,-0.00488281,0.00488281,-0.04394531,0.55664062,-0.02929688,-2.98118591,-0.17674433,-0.17700195,-0.04882812
0.75668931,260,3.13272284,2.72752236,-1.59613808,-0.02174377,-1.31043338,-2.80609131,3.11021613,2.73667764,-1.59516565,-0.04616641,-1.30298883,-2.21096204,3.11021613,2.73133706,-1.59156044,-0.04806519,-1.43059635,-2.20375061,0.00000000,-0.00488281,0.00488281,-0.02929688,0.73242188,-0.04394531,-2.98118591,-0.17678314,-0.17662048,-0.04882812
0.76963139,265,3.13272284,2.72752236,-1.59766396,-0.02136230,-1.29822635,-2.80609131,3.11021613,2.73667764,-1.59618797,-0.04582788,-1.29172906,-2.21098658,3.11021613,2.73133706,-1.59156044,-0.04806519,-1.41877078,-2.20527649,-0.00488281,-0.00488281,0.00488281,0.00000000,0.70312500,-0.13183594,-2.98118591,-0.17693648,-0.17700195,0.00000000
0.78288198,270,3.13272284,2.72752236,-1.59918984,-0.02098083,-1.28830814,-2.80609131,3.11021613,2.73667764,-1.59772901,-0.04535062,-1.28070230,-2.21099462,3.10983466,2.73133706,-1.59156044,-0.04768372,-1.41304874,-2.20718384,-0.00488281,0.00000000,-0.00000000,0.01464844,0.64453125,-0.20507812,-2.98118591,-0.17680215,-0.17700195,0.00000000
0.79781461,275,3.13272284,2.72752236,-1.60186013,-0.02021790,-1.27343082,-2.80609131,3.11021613,2.73667764,-1.59969089,-0.04482241,-1.26832257,-2.21099725,3.10983466,2.73171853,-1.59156044,-0.04768372,-1.40122318,-2.20718384,-0.00488281,0.00000000,0.00488281,0.00000000,0.74707031,0.00000000,-2.98118591,-0.17688021,-0.17662048,-0.02441406
0.81023264,280,3.13272284,2.72752236,-1.60491188,-0.01907349,-1.26046085,-2.80609131,3.11021613,2.73667764,-1.60215212,-0.04396780,-1.25536974,-2.21099811,3.10983466,2.73171853,-1.59156044,-0.04768372,-1.39321231,-2.20756531,-0.00488281,0.00000000,-0.00000000,0.00000000,0.70312500,-0.01464844,-2.98118591,-0.17670559,-0.17700195,-0.02441406
0.82343817,285,3.13272284,2.72752236,-1.60758217,-0.01869202,-1.24863529,-2.80609131,3.11021613,2.73667764,-1.60490722,-0.04325112,-1.24290722,-2.21099840,3.10983466,2.73171853,-1.59156044,-0.04768372,-1.38481998,-2.20756531,-0.00488281,0.00000000,-0.00488281,-0.01464844,0.64453125,-0.01464844,-2.98118591,-0.17664837,-0.17700195,-0.02441406
0.83709574,290,3.13272284,2.72752236,-1.61025246,-0.01792908,-1.23757266,-2.80609131,3.11021613,2.73667764,-1.60760237,-0.04256437,-1.23111683,-2.21099849,3.10983466,2.73171853,-1.59194191,-0.04768372,-1.37642765,-2.20756531,-0.00976562,0.00000000,-0.00488281,-0.01464844,0.74707031,-0.02929688,-2.98118591,-0.17662962,-0.17700195,-0.02441406
0.85307527,295,3.13272284,2.72752236,-1.61521157,-0.01792908,-1.21964359,-2.80609131,3.11021613,2.73667764,-1.61155986,-0.04215916,-1.21592243,-2.21099852,3.10983466,2.73171853,-1.59194191,-0.04768372,-1.36269473,-2.20756531,-0.00488281,-0.00488281,-0.00976562,0.00000000,0.76171875,-0.01464844,-2.98118591,-0.17679926,-0.17700195,-0.02441406
0.86684608,300,3.13272284,2.72752236,-1.61940773,-0.01792908,-1.20285892,-2.80609131,3.11021613,2.73667764,-1.61529549,-0.04202638,-1.20122233,-2.21099853,3.10983466,2.73171853,-1.59232338,-0.04768372,-1.35086917,-2.20794678,-0.00488281,0.00000000,-0.00976562,-0.01464844,0.76171875,-0.02929688,-2.98118591,-0.17696129,-0.17700195,-0.02441406
0.88014126,305,3.13272284,2.72752236,-1.62398537,-0.01792908,-1.18683719,-2.80609131,3.11021613,2.73667764,-1.61962750,-0.04198288,-1.18520936,-2.21099853,3.10983466,2.73171853,-1.59232338,-0.04730225,-1.34018802,-2.20832825,-0.00976562,-0.00488281,-0.00488281,0.01464844,0.83496094,-0.02929688,-2.98118591,-0.17673216,-0.17700195,-0.02441406
0.89517784,310,3.13272284,2.72752236,-1.62856301,-0.01792908,-1.17157840,-2.80609131,3.11021613,2.73667764,-1.62431703,-0.04196862,-1.16889778,-2.21099853,3.10983466,2.73171853,-1.59270485,-0.04768372,-1.32798099,-2.20870972,-0.00488281,-0.00488281,-0.00488281,-0.01464844,0.84960938,-0.04394531,-2.98118591,-0.17677915,-0.17700195,-0.04882812
0.90829754,315,3.13272284,2.72752236,-1.63352211,-0.01792908,-1.15441226,-2.80609131,3.11021613,2.73667764,-1.62915850,-0.04196395,-1.15223090,-2.21099853,3.10983466,2.73171853,-1.59270485,-0.04730225,-1.31768131,-2.20909119,-0.00488281,-0.00488281,-0.01953125,-0.01464844,0.80566406,-0.02929688,-2.98118591,-0.17679454,-0.17662048,0.00000000
0.92376041,320,3.13272284,2.72752236,-1.63848122,-0.01792908,-1.13610172,-2.80609131,3.11021613,2.73667764,-1.63428805,-0.04196242,-1.13401412,-2.21099854,3.10983466,2.73210000,-1.59308632,-0.04730225,-1.30585575,-2.20947266,-0.00488281,-0.00488281,-0.02441406,0.00000000,0.84960938,-0.02929688,-2.98118591,-0.17679959,-0.17700195,0.00000000
0.94022369,325,3.13272284,2.72752236,-1.64534767,-0.01792908,-1.11359500,-2.80609131,3.11021613,2.73667764,-1.63972109,-0.04196191,-1.11549713,-2.21099854,3.10983466,2.73210000,-1.59384926,-0.04768372,-1.28983402,-2.20947266,0.00000000,-0.00976562,-0.02929688,-0.02929688,0.83496094,-0.01464844,-2.98118591,-0.17674167,-0.17662048,0.00000000
0.95476437,330,3.13272284,2.72752236,-1.65145119,-0.01792908,-1.09261417,-2.80609131,3.11021613,2.73667764,-1.64576116,-0.04196175,-1.09549713,-2.21099854,3.10983466,2.73210000,-1.59423073,-0.04768372,-1.28449344,-2.20947266,-0.00488281,0.00000000,-0.03906250,-0.02929688,0.80566406,-0.01464844,-2.98118591,-0.17673832,-0.17662048,0.02441406
0.96990013,335,3.13272284,2.72752236,-1.65717324,-0.01792908,-1.07315921,-2.80609131,3.11021613,2.73667764,-1.65183644,-0.04196170,-1.07549713,-2.21099854,3.10983466,2.73210000,-1.59499367,-0.04844666,-1.26580142,-2.20985413,-0.00488281,-0.00488281,-0.05859375,-0.04394531,0.84960938,-0.02929688,-2.98118591,-0.17665910,-0.17700195,-0.02441406
0.98443890,340,3.13272284,2.72752236,-1.66289528,-0.01792908,-1.05484867,-2.80609131,3.11021613,2.73667764,-1.65785587,-0.04196168,-1.05549713,-2.21099854,3.10983466,2.73210000,-1.59575661,-0.04806519,-1.25397586,-2.20985413,0.00000000,-0.00488281,-0.05371094,-0.01464844,0.87890625,-0.01464844,-2.98118591,-0.17685286,-0.17700195,-0.04882812
1.00261712,345,3.13272284,2.72752236,-1.66976174,-0.01792908,-1.03310489,-2.80609131,3.11021613,2.73667764,-1.66402339,-0.04196167,-1.03555057,-2.21099854,3.10983466,2.73210000,-1.59728249,-0.04806519,-1.23909854,-2.20985413,-0.00488281,-0.00488281,-0.08789062,-0.02929688,0.83496094,-0.01464844,-2.98118591,-0.17669663,-0.17700195,-0.02441406
1.02031779,350,3.13272284,2.72752236,-1.67624672,-0.01792908,-1.01441287,-2.80647278,3.11021613,2.73667764,-1.67033403,-0.04196167,-1.01570232,-2.21107483,3.10983466,2.73210000,-1.59842690,-0.04806519,-1.22765445,-2.20985413,-0.00488281,0.00000000,-0.06835938,0.00000000,0.79101562,-0.01464844,-2.98118591,-0.17672356,-0.17700195,-0.02441406
1.03457642,355,3.13272284,2.72752236,-1.68196877,-0.01792908,-0.99686527,-2.80609131,3.11021613,2.73667764,-1.67673186,-0.04196167,-0.99632765,-2.21113340,3.10983466,2.73210000,-1.59995278,-0.04806519,-1.21468448,-2.20985413,-0.00488281,-0.00488281,-0.09765625,-0.01464844,0.76171875,0.00000000,-2.98118591,-0.17683883,-0.17700195,-0.02441406
1.04778028,360,3.13272284,2.72752236,-1.68730934,-0.01792908,-0.98160648,-2.80647278,3.11021613,2.73667764,-1.68233391,-0.04196167,-0.97949274,-2.21118933,3.10983466,2.73210000,-1.60186013,-0.04768372,-1.20438480,-2.20985413,-0.00488281,0.00000000,-0.12695312,0.00000000,0.77636719,-0.02929688,-2.98118591,-0.17669203,-0.17700195,-0.04882812
1.06276155,365,3.13272284,2.72752236,-1.69264992,-0.01792908,-0.96711063,-2.80685425,3.11021613,2.73667764,-1.68789836,-0.04196167,-0.96341971,-2.21139382,3.10983466,2.73210000,-1.60338600,-0.04768372,-1.19103336,-2.20985413,-0.00488281,-0.00488281,-0.11718750,-0.01464844,0.90820312,-0.02929688,-2.98118591,-0.17664393,-0.17700195,-0.02441406
1.07804084,370,3.13272284,2.72752236,-1.69722756,-0.01792908,-0.95490360,-2.80685425,3.11021613,2.73667764,-1.69303519,-0.04196167,-0.94909040,-2.21164100,3.10983466,2.73210000,-1.60529335,-0.04768372,-1.17920780,-2.20985413,-0.00976562,-0.00488281,-0.12207031,-0.01464844,0.76171875,-0.01464844,-2.98118591,-0.17662817,-0.17700195,-0.02441406
1.09428644,375,3.13272284,2.72752236,-1.70256813,-0.01831055,-0.93964481,-2.80723572,3.11021613,2.73667764,-1.69847404,-0.04214783,-0.93401753,-2.21197847,3.10983466,2.73248147,-1.60643776,-0.04768372,-1.16738223,-2.20985413,-0.00976562,0.00488281,-0.09277344,0.01464844,0.84960938,0.00000000,-2.98118591,-0.17668550,-0.17700195,0.00000000
1.10832787,380,3.13272284,2.72752236,-1.70714577,-0.01792908,-0.92705631,-2.80799866,3.11021613,2.73667764,-1.70320107,-0.04220285,-0.92091036,-2.21253168,3.10983466,2.73248147,-1.60834511,-0.04768372,-1.15708255,-2.20985413,-0.00488281,0.00000000,-0.12207031,0.00000000,0.80566406,-0.01464844,-2.98118591,-0.17664179,-0.17700195,0.00000000
1.12204957,385,3.13272284,2.72752236,-1.71134194,-0.01831055,-0.91561222,-2.80876160,3.11021613,2.73667764,-1.70759463,-0.04229717,-0.90882561,-2.21317706,3.10983466,2.73248147,-1.61025246,-0.04692078,-1.14296817,-2.21023560,0.00000000,0.00488281,-0.10253906,0.02929688,0.86425781,-0.02929688,-2.98118591,-0.17662746,-0.17700195,0.00000000
1.13854313,390,3.13272284,2.72790383,-1.71515663,-0.01831055,-0.90531253,-2.80914307,3.11021613,2.73681497,-1.71178357,-0.04232808,-0.89722908,-2.21376415,3.10983466,2.73248147,-1.61177834,-0.04615784,-1.13037967,-2.21023560,-0.00488281,0.00000000,-0.11230469,0.01464844,0.83496094,-0.02929688,-2.98118591,-0.17662277,-0.17700195,-0.04882812
1.15267634,395,3.13272284,2.72790383,-1.71935280,-0.01831055,-0.89310550,-2.80914307,3.11021613,2.73694786,-1.71577083,-0.04233820,-0.88637493,-2.21395653,3.10983466,2.73248147,-1.61406716,-0.04615784,-1.12007999,-2.21023560,-0.00488281,0.00000000,-0.10742188,0.01464844,0.84960938,-0.01464844,-2.98118591,-0.17662123,-0.17700195,0.00000000
1.16753674,400,3.13272284,2.72790383,-1.72316750,-0.01831055,-0.88280582,-2.80914307,3.11021613,2.73702265,-1.71981297,-0.04234152,-0.87510791,-2.21401957,3.10983466,2.73248147,-1.61597451,-0.04577637,-1.10939884,-2.21061707,-0.00488281,-0.00488281,-0.12207031,0.01464844,0.82031250,-0.02929688,-2.98118591,-0.17671839,-0.17700195,-0.02441406
1.18128300,405,3.13272284,2.72790383,-1.72660073,-0.01869202,-0.87365055,-2.80914307,3.11021613,2.73704716,-1.72349065,-0.04259908,-0.86507414,-2.21404023,3.10983466,2.73248147,-1.61788185,-0.04501343,-1.09604740,-2.21061707,-0.00488281,0.00000000,-0.12207031,0.01464844,0.80566406,-0.02929688,-2.98156738,-0.17680515,-0.17700195,0.00000000
1.19304466,410,3.13272284,2.72790383,-1.72965248,-0.01869202,-0.86373233,-2.80914307,3.11021613,2.73705519,-1.72664546,-0.04268348,-0.85576699,-2.21404699,3.10983466,2.73248147,-1.61978920,-0.04539490,-1.08689212,-2.21061707,-0.00488281,0.00000000,-0.14160156,-0.02929688,0.86425781,-0.01464844,-2.98156738,-0.17701815,-0.17700195,-0.02441406
1.20467496,415,3.13272284,2.72790383,-1.73232277,-0.01869202,-0.85610294,-2.80914307,3.11021613,2.73705782,-1.72961563,-0.04271113,-0.84680413,-2.21411025,3.10983466,2.73248147,-1.62169655,-0.04539490,-1.07621097,-2.21099854,-0.00488281,0.00000000,-0.16113281,-0.01464844,0.82031250,-0.04394531,-2.98118591,-0.17681329,-0.17700195,-0.02441406
1.22088790,420,3.13272284,2.72790383,-1.73613747,-0.01869202,-0.84427738,-2.80990601,3.11021613,2.73705869,-1.73287185,-0.04272019,-0.83726916,-2.21440270,3.10983466,2.73286294,-1.62360390,-0.04501343,-1.06285953,-2.21099854,-0.00488281,0.00000000,-0.12695312,0.00000000,0.83496094,-0.02929688,-2.98118591,-0.17668366,-0.17700195,0.00000000
1.23465228,425,3.13272284,2.72828530,-1.73880776,-0.01869202,-0.83626651,-2.80990601,3.11021613,2.73723536,-1.73614283,-0.04272316,-0.82730282,-2.21467871,3.10983466,2.73286294,-1.62589272,-0.04501343,-1.05294132,-2.21099854,-0.00488281,-0.00488281,-0.14648438,-0.02929688,0.76171875,-0.01464844,-2.98118591,-0.17664119,-0.17700195,-0.02441406
1.24760175,430,3.13272284,2.72828530,-1.74185952,-0.01869202,-0.82711124,-2.80990601,3.11021613,2.73737333,-1.73903742,-0.04272414,-0.81838715,-2.21476915,3.10983466,2.73286294,-1.62741860,-0.04501343,-1.04340457,-2.21138000,-0.00488281,-0.00488281,-0.12695312,-0.01464844,0.82031250,-0.02929688,-2.98118591,-0.17662727,-0.17700195,-0.02441406
1.26032352,435,3.13272284,2.72828530,-1.74491127,-0.01869202,-0.81871890,-2.80990601,3.11021613,2.73741854,-1.74215975,-0.04272445,-0.80967929,-2.21479879,3.10983466,2.73286294,-1.62970742,-0.04501343,-1.03272342,-2.21176147,-0.00488281,0.00000000,-0.14160156,-0.01464844,0.87890625,-0.02929688,-2.98118591,-0.17674478,-0.17700195,-0.02441406
1.27490115,440,3.13272284,2.72866677,-1.74796303,-0.01869202,-0.80841922,-2.80990601,3.11021613,2.73768983,-1.74518336,-0.04272456,-0.80020688,-2.21480850,3.10983466,2.73286294,-1.63161476,-0.04501343,-1.02051639,-2.21176147,-0.00488281,0.00000000,-0.14160156,0.01464844,0.79101562,-0.02929688,-2.98118591,-0.17673934,-0.17700195,0.00000000
1.28970695,445,3.13272284,2.72904824,-1.75101479,-0.01869202,-0.80117130,-2.80990601,3.11021613,2.73791605,-1.74829621,-0.04272459,-0.79147564,-2.21481168,3.10983466,2.73286294,-1.63390358,-0.04501343,-1.00602054,-2.21252441,-0.00488281,0.00000000,-0.15136719,-0.02929688,0.93750000,-0.05859375,-2.98118591,-0.17665943,-0.17700195,0.00000000
1.30323410,450,3.13272284,2.72904824,-1.75406655,-0.01869202,-0.79201602,-2.80990601,3.11021613,2.73810932,-1.75144806,-0.04272460,-0.78259017,-2.21481272,3.10983466,2.73286294,-1.63581093,-0.04501343,-0.99724674,-2.21405029,0.00000000,-0.00488281,-0.17089844,0.00000000,0.84960938,-0.16113281,-2.98156738,-0.17696161,-0.17700195,-0.02441406
1.31790519,455,3.13272284,2.72942971,-1.75788124,-0.01869202,-0.78247928,-2.80990601,3.11021613,2.73830998,-1.75470571,-0.04272461,-0.77353783,-2.21481307,3.10983466,2.73286294,-1.63809975,-0.04501343,-0.98275089,-2.21443176,-0.00488281,0.00000000,-0.15625000,-0.01464844,0.89355469,-0.01464844,-2.98118591,-0.17701449,-0.17700195,-0.02441406
1.33381653,460,3.13272284,2.72942971,-1.76055153,-0.01869202,-0.77484989,-2.81028748,3.11021613,2.73849487,-1.75792052,-0.04272461,-0.76488455,-2.21499934,3.10983466,2.73286294,-1.64038857,-0.04463196,-0.96978092,-2.21443176,0.00000000,-0.00488281,-0.16601562,0.00000000,0.89355469,0.00000000,-2.98118591,-0.17692537,-0.17700195,-0.02441406
1.34715199,465,3.13272284,2.72942971,-1.76360329,-0.01869202,-0.76760196,-2.81066895,3.11021613,2.73855546,-1.76093342,-0.04272461,-0.75733384,-2.21520698,3.10983466,2.73286294,-1.64267739,-0.04463196,-0.95871829,-2.21443176,-0.00488281,-0.00488281,-0.14160156,-0.01464844,0.83496094,-0.02929688,-2.98118591,-0.17688055,-0.17700195,0.00000000
1.36056542,470,3.13272284,2.72981118,-1.76665505,-0.01869202,-0.75920963,-2.81143188,3.11021613,2.73880053,-1.76389383,-0.04272461,-0.74950146,-2.21566882,3.10983466,2.73286294,-1.64496620,-0.04463196,-0.94612979,-2.21443176,-0.00488281,-0.00488281,-0.16601562,-0.01464844,0.86425781,-0.01464844,-2.98118591,-0.17688148,-0.17700195,-0.02441406
1.37304497,475,3.13272284,2.73057412,-1.76894387,-0.01869202,-0.75425052,-2.81257629,3.11021613,2.73930588,-1.76662245,-0.04272461,-0.74272536,-2.21662911,3.10983466,2.73286294,-1.64687355,-0.04463196,-0.93773746,-2.21443176,-0.00488281,0.00000000,-0.15136719,-0.02929688,0.82031250,-0.01464844,-2.98156738,-0.17698067,-0.17700195,-0.04882812
1.38709331,480,3.13272284,2.73095559,-1.77161415,-0.01869202,-0.74929141,-2.81410217,3.11021613,2.73981584,-1.76935872,-0.04272461,-0.73716353,-2.21797747,3.10983466,2.73286294,-1.64916237,-0.04463196,-0.92553043,-2.21443176,-0.00488281,0.00000000,-0.15625000,0.00000000,0.86425781,-0.01464844,-2.98118591,-0.17673851,-0.17700195,-0.04882812
1.40176487,485,3.13272284,2.73248147,-1.77428444,-0.01869202,-0.74433231,-2.81639099,3.11021613,2.74062161,-1.77184506,-0.04272461,-0.73219882,-2.21958019,3.10983466,2.73286294,-1.65145119,-0.04425049,-0.91408634,-2.21443176,-0.00976562,0.00000000,-0.15136719,0.00000000,0.76171875,-0.02929688,-2.98118591,-0.17678123,-0.17700195,-0.02441406
1.41313052,490,3.13272284,2.73362588,-1.77657326,-0.01869202,-0.74204349,-2.81791687,3.11021613,2.74179178,-1.77418640,-0.04272461,-0.72851705,-2.22147940,3.10983466,2.73324441,-1.65335854,-0.04425049,-0.90454959,-2.21443176,-0.00488281,0.00000000,-0.15136719,-0.01464844,0.84960938,-0.02929688,-2.98118591,-0.17689288,-0.17700195,-0.02441406
1.42633390,495,3.13272284,2.73477029,-1.77809914,-0.01869202,-0.73937320,-2.81791687,3.11021613,2.74297587,-1.77615966,-0.04272461,-0.72562518,-2.22238347,3.10983466,2.73324441,-1.65526589,-0.04425049,-0.89424991,-2.21481323,-0.00488281,-0.00488281,-0.16113281,0.00000000,0.87890625,-0.04394531,-2.98118591,-0.17685037,-0.17700195,-0.04882812
1.44059253,500,3.13272284,2.73667764,-1.78115090,-0.01869202,-0.73708438,-2.81791687,3.11021613,2.74434691,-1.77852746,-0.04272461,-0.72298983,-2.22267971,3.10983466,2.73324441,-1.65793618,-0.04425049,-0.88166141,-2.21519470,-0.00488281,0.01464844,-0.14160156,-0.01464844,0.74707031,-0.04394531,-2.98118591,-0.17669581,-0.17700195,-0.04882812
1.45492792,505,3.13272284,2.73896646,-1.78343972,-0.01869202,-0.73593997,-2.81791687,3.11021613,2.74626468,-1.78099254,-0.04272461,-0.72129437,-2.22277678,3.10983466,2.73362588,-1.65946205,-0.04425049,-0.87517642,-2.21557617,-0.00488281,0.01953125,-0.15136719,-0.01464844,0.87890625,-0.05859375,-2.98118591,-0.17684536,-0.17700195,0.00000000
1.46768475,510,3.13272284,2.74087380,-1.78572853,-0.01869202,-0.73479557,-2.81753540,3.11021613,2.74845132,-1.78337818,-0.04272461,-0.71981119,-2.22273230,3.10983466,2.73400735,-1.66213234,-0.04425049,-0.86029911,-2.21633911,-0.00488281,0.01953125,-0.15625000,0.00000000,0.84960938,-0.04394531,-2.98118591,-0.17681624,-0.17700195,-0.02441406
1.48140860,515,3.13272284,2.74278115,-1.78763588,-0.01869202,-0.73479557,-2.81791687,3.11021613,2.75054247,-1.78568347,-0.04272461,-0.71911376,-2.22279402,3.10983466,2.73438882,-1.66403969,-0.04425049,-0.85038089,-2.21710205,-0.00488281,0.02441406,-0.16113281,-0.01464844,0.87890625,-0.05859375,-2.98118591,-0.17678229,-0.17700195,0.00000000
1.50014830,520,3.13272284,2.74774026,-1.79145058,-0.01907349,-0.73365116,-2.81753540,3.11021613,2.75412187,-1.78880190,-0.04298108,-0.71841513,-2.22269888,3.10983466,2.73477029,-1.66709145,-0.04425049,-0.83741092,-2.21748352,0.00000000,0.01464844,-0.14648438,-0.01464844,0.68847656,-0.01464844,-2.98118591,-0.17667350,-0.17700195,-0.02441406
1.51304865,525,3.13272284,2.75117349,-1.79412087,-0.01907349,-0.73250675,-2.81753540,3.11021613,2.75768258,-1.79168935,-0.04306512,-0.71732890,-2.22258763,3.10983466,2.73515176,-1.66899880,-0.04425049,-0.82825565,-2.21786499,-0.00488281,0.00976562,-0.14160156,0.00000000,0.68847656,-0.01464844,-2.98118591,-0.17673551,-0.17700195,-0.02441406
1.52904916,530,3.13272284,2.75575112,-1.79831704,-0.01907349,-0.73059940,-2.81753540,3.11021613,2.76146947,-1.79499916,-0.04309266,-0.71614814,-2.22249014,3.10983466,2.73515176,-1.67128762,-0.04386902,-0.81833744,-2.21786499,-0.00488281,0.00976562,-0.17578125,-0.01464844,0.64453125,-0.01464844,-2.98118591,-0.17665818,-0.17700195,-0.02441406
1.54062080,535,3.13272284,2.75918435,-1.80060585,-0.01907349,-0.72945499,-2.81791687,3.11021613,2.76519632,-1.79787058,-0.04310168,-0.71464367,-2.22253449,3.10983466,2.73553323,-1.67395790,-0.04425049,-0.81185245,-2.21824646,-0.00488281,0.02929688,-0.16113281,-0.02929688,0.46875000,-0.04394531,-2.98118591,-0.17675490,-0.17700195,-0.02441406
1.55599904,540,3.13272284,2.76414346,-1.80403908,-0.01907349,-0.72792911,-2.81753540,3.11021613,2.76932342,-1.80092050,-0.04310464,-0.71306377,-2.22247273,3.10983466,2.73629617,-1.67624672,-0.04386902,-0.80574893,-2.21824646,-0.00488281,0.04882812,-0.16113281,0.01464844,0.54199219,-0.01464844,-2.98118591,-0.17666453,-0.17700195,0.02441406
1.56986117,545,3.13272284,2.76795815,-1.80594643,-0.01907349,-0.72754764,-2.81791687,3.11021613,2.77353785,-1.80356211,-0.04310561,-0.71206109,-2.22258982,3.10983466,2.73705911,-1.67929848,-0.04386902,-0.79735660,-2.21824646,0.00000000,0.02929688,-0.18066406,-0.01464844,0.52734375,-0.02929688,-2.98118591,-0.17663492,-0.17700195,-0.04882812
1.58328962,550,3.13272284,2.77177285,-1.80823525,-0.01907349,-0.72754764,-2.81791687,3.11021613,2.77772621,-1.80599778,-0.04304489,-0.71170128,-2.22271608,3.10983466,2.73782205,-1.68158730,-0.04386902,-0.79125308,-2.21862793,-0.00488281,0.06347656,-0.16601562,-0.04394531,0.43945312,-0.02929688,-2.98118591,-0.17674728,-0.17700195,-0.02441406
1.59659648,555,3.13272284,2.77596902,-1.81014260,-0.01907349,-0.72754764,-2.81753540,3.11021613,2.78199061,-1.80821936,-0.04308603,-0.71158338,-2.22260254,3.10983466,2.73858499,-1.68349465,-0.04386902,-0.78781986,-2.21862793,-0.00488281,0.04394531,-0.13183594,0.00000000,0.29296875,-0.02929688,-2.98118591,-0.17666203,-0.17700195,-0.04882812
1.60973358,560,3.13272284,2.78092812,-1.81204995,-0.01907349,-0.72754764,-2.81753540,3.11021613,2.78637931,-1.81007635,-0.04309951,-0.71154474,-2.22254386,3.10983466,2.73934792,-1.68540200,-0.04386902,-0.78247928,-2.21900940,-0.00976562,0.05859375,-0.15136719,-0.04394531,0.39550781,-0.01464844,-2.98118591,-0.17663410,-0.17700195,-0.02441406
1.62239170,565,3.13272284,2.78512429,-1.81357582,-0.01907349,-0.72792911,-2.81791687,3.11021613,2.79092811,-1.81184208,-0.04310393,-0.71160838,-2.22255209,3.10983466,2.73972939,-1.68730934,-0.04386902,-0.77752017,-2.21900940,-0.00488281,0.04394531,-0.18554688,0.01464844,0.54199219,-0.02929688,-2.98118591,-0.17662494,-0.17700195,-0.02441406
1.63729811,570,3.13272284,2.79084634,-1.81624611,-0.01869202,-0.72754764,-2.81753540,3.11021613,2.79604550,-1.81404409,-0.04293679,-0.71169405,-2.22247850,3.10983466,2.74087380,-1.69036110,-0.04348755,-0.76912784,-2.21939087,-0.00976562,0.05859375,-0.17089844,0.00000000,0.39550781,-0.02929688,-2.98118591,-0.17662195,-0.17700195,-0.02441406
1.65123343,575,3.13272284,2.79733132,-1.81853493,-0.01907349,-0.72792911,-2.81753540,3.11021613,2.80183528,-1.81640602,-0.04301155,-0.71165730,-2.22251542,3.10983466,2.74201821,-1.69188698,-0.04348755,-0.76569461,-2.21939087,-0.00976562,0.09765625,-0.14648438,-0.02929688,0.27832031,-0.02929688,-2.98156738,-0.17687121,-0.17700195,-0.04882812
1.66415572,580,3.13272284,2.80267190,-1.82082375,-0.01907349,-0.72792911,-2.81753540,3.11021613,2.80735820,-1.81853862,-0.04298282,-0.71172534,-2.22260759,3.10983466,2.74316262,-1.69455727,-0.04348755,-0.76226139,-2.21977234,-0.00488281,0.07812500,-0.14648438,0.00000000,0.30761719,-0.02929688,-2.98118591,-0.17670264,-0.17700195,-0.04882812
1.67558622,585,3.13272284,2.80801248,-1.82311257,-0.01869202,-0.72754764,-2.81753540,3.11021613,2.81268969,-1.82077625,-0.04292836,-0.71162251,-2.22256700,3.10983466,2.74430703,-1.69646462,-0.04348755,-0.75920963,-2.21977234,-0.00488281,0.08789062,-0.15625000,0.00000000,0.26367188,-0.02929688,-2.98118591,-0.17664740,-0.17662048,0.00000000
1.69112706,590,3.13272284,2.81526040,-1.82578286,-0.01907349,-0.72754764,-2.81753540,3.11021613,2.81879742,-1.82333455,-0.04295556,-0.71160639,-2.22248338,3.10983466,2.74545144,-1.69875344,-0.04348755,-0.75501346,-2.22015381,-0.00976562,0.08300781,-0.17089844,-0.01464844,0.33691406,-0.02929688,-2.98118591,-0.17669180,-0.17700195,0.00000000
1.70601344,595,3.13272284,2.82250833,-1.82921608,-0.01907349,-0.72754764,-2.81753540,3.11021613,2.82626695,-1.82644202,-0.04305676,-0.71173246,-2.22245598,3.10983466,2.74659585,-1.70180519,-0.04348755,-0.75119876,-2.22091675,-0.00488281,0.06835938,-0.16113281,-0.01464844,0.24902344,-0.07324219,-2.98118591,-0.17681964,-0.17700195,-0.02441406
1.72179794,600,3.13272284,2.82861184,-1.83188637,-0.01907349,-0.72792911,-2.81753540,3.11021613,2.83270675,-1.82929463,-0.04308992,-0.71177975,-2.22244700,3.10983466,2.74812173,-1.70371254,-0.04348755,-0.74852848,-2.22129822,-0.00488281,0.10742188,-0.16113281,-0.02929688,0.20507812,-0.02929688,-2.98118591,-0.17668574,-0.17700195,-0.02441406
1.73330283,605,3.13272284,2.83662271,-1.83531960,-0.01907349,-0.72792911,-2.81791687,3.11021613,2.83994548,-1.83245508,-0.04306172,-0.71186556,-2.22252035,3.10983466,2.74964761,-1.70600136,-0.04348755,-0.74547672,-2.22167969,-0.00488281,0.12207031,-0.16601562,0.00000000,0.21972656,-0.02929688,-2.98118591,-0.17686159,-0.17700195,-0.04882812
1.74691510,610,3.13272284,2.84425210,-1.83875283,-0.01907349,-0.72792911,-2.81753540,3.11021613,2.84736288,-1.83575009,-0.04309154,-0.71182336,-2.22246810,3.10983466,2.75117349,-1.70829018,-0.04348755,-0.74356937,-2.22167969,-0.00976562,0.11718750,-0.15136719,-0.01464844,0.14648438,-0.04394531,-2.98118591,-0.17684012,-0.17700195,-0.02441406
1.76197672,615,3.13272284,2.85264443,-1.84256752,-0.01907349,-0.72792911,-2.81753540,3.11021613,2.85550899,-1.83940671,-0.04310132,-0.71184860,-2.22245097,3.10983466,2.75346230,-1.71057900,-0.04348755,-0.74128055,-2.22167969,-0.00488281,0.13671875,-0.16601562,-0.01464844,0.14648438,-0.02929688,-2.98118591,-0.17679011,-0.17700195,-0.02441406
1.77683234,620,3.13272284,2.86256265,-1.84676369,-0.01907349,-0.72792911,-2.81753540,3.11021613,2.86418636,-1.84317119,-0.04310452,-0.71188812,-2.22244536,3.10983466,2.75536965,-1.71324929,-0.04348755,-0.73861026,-2.22167969,-0.00488281,0.13183594,-0.17578125,0.00000000,0.20507812,-0.01464844,-2.98118591,-0.17679814,-0.17700195,-0.04882812
1.79190588,625,3.13272284,2.87133645,-1.85019692,-0.01907349,-0.72792911,-2.81753540,3.11021613,2.87327232,-1.84702107,-0.04310557,-0.71184003,-2.22244352,3.10983466,2.75765847,-1.71553810,-0.04348755,-0.73708438,-2.22206116,0.00000000,0.14160156,-0.15136719,-0.02929688,0.11718750,-0.01464844,-2.98118591,-0.17686327,-0.17700195,-0.04882812
1.80425382,630,3.13272284,2.87972878,-1.85363015,-0.01907349,-0.72792911,-2.81753540,3.11021613,2.88212680,-1.85053760,-0.04310591,-0.71188531,-2.22244292,3.10983466,2.75918435,-1.71782692,-0.04348755,-0.73632144,-2.22206116,-0.00488281,0.14648438,-0.16601562,-0.02929688,0.07324219,-0.01464844,-2.98118591,-0.17676254,-0.17700195,0.00000000
1.81618953,635,3.13272284,2.88812112,-1.85668190,-0.01907349,-0.72792911,-2.81753540,3.11021613,2.89044059,-1.85368062,-0.04310602,-0.71190015,-2.22244272,3.10983466,2.76109170,-1.72011574,-0.04386902,-0.73479557,-2.22206116,-0.00488281,0.14160156,-0.19531250,-0.02929688,0.14648438,-0.02929688,-2.98156738,-0.17691728,-0.17700195,-0.02441406
1.82878804,640,3.13272284,2.89727639,-1.86011513,-0.01907349,-0.72831058,-2.81753540,3.11021613,2.89943194,-1.85703633,-0.04310606,-0.71209117,-2.22244266,3.10983466,2.76338052,-1.72240456,-0.04386902,-0.73250675,-2.22206116,-0.00488281,0.16601562,-0.17578125,-0.01464844,0.19042969,-0.01464844,-2.98118591,-0.17693746,-0.17700195,-0.02441406
1.84327197,645,3.13272284,2.90719460,-1.86392983,-0.01869202,-0.72831058,-2.81753540,3.11021613,2.90863678,-1.86055464,-0.04302978,-0.71222407,-2.22244264,3.10983466,2.76528787,-1.72507485,-0.04348755,-0.73059940,-2.22206116,-0.00488281,0.15625000,-0.18554688,-0.02929688,0.16113281,-0.01464844,-2.98118591,-0.17672435,-0.17700195,-0.02441406
1.86098647,650,3.13272284,2.92092751,-1.86965187,-0.01869202,-0.72831058,-2.81753540,3.11021613,2.92090302,-1.86547985,-0.04300478,-0.71226763,-2.22244263,3.10983466,2.76910256,-1.72850808,-0.04348755,-0.72831058,-2.22206116,-0.00976562,0.20019531,-0.16113281,0.00000000,0.13183594,-0.01464844,-2.98118591,-0.17677659,-0.17700195,-0.02441406
1.87560296,655,3.13272284,2.93122720,-1.87384804,-0.01907349,-0.72831058,-2.81753540,3.11021613,2.93231097,-1.87012634,-0.04304164,-0.71228190,-2.22244263,3.10983466,2.77177285,-1.73079689,-0.04348755,-0.72754764,-2.22206116,-0.00488281,0.20507812,-0.16601562,-0.01464844,0.07324219,-0.01464844,-2.98118591,-0.17684742,-0.17700195,0.00000000
1.89422202,660,3.13272284,2.94610452,-1.88033303,-0.01907349,-0.72831058,-2.81753540,3.11021613,2.94440203,-1.87527451,-0.04302393,-0.71228657,-2.22244263,3.10983466,2.77635049,-1.73423012,-0.04348755,-0.72487735,-2.22206116,-0.00976562,0.21972656,-0.17578125,0.01464844,0.17578125,-0.01464844,-2.98118591,-0.17669485,-0.17700195,-0.02441406
1.90668845,665,3.13272284,2.95640420,-1.88414772,-0.01907349,-0.72831058,-2.81753540,3.11021613,2.95687855,-1.88030399,-0.04307916,-0.71228810,-2.22244263,3.10983466,2.77863931,-1.73651894,-0.04348755,-0.72258853,-2.22206116,-0.00488281,0.21484375,-0.18066406,0.00000000,0.20507812,-0.01464844,-2.98118591,-0.17664485,-0.17700195,-0.02441406
1.91946626,670,3.13272284,2.96746682,-1.88872536,-0.01907349,-0.72869205,-2.81753540,3.11021613,2.96781757,-1.88460830,-0.04299716,-0.71251383,-2.22244263,3.10983466,2.78169106,-1.73918923,-0.04348755,-0.72106265,-2.22244263,-0.00488281,0.22949219,-0.18554688,-0.02929688,0.11718750,-0.01464844,-2.98118591,-0.17670659,-0.17700195,-0.04882812
1.93137836,675,3.13272284,2.97776650,-1.89292153,-0.01907349,-0.72907352,-2.81753540,3.11021613,2.97820175,-1.88892243,-0.04300935,-0.71284426,-2.22229370,3.10983466,2.78474282,-1.74147805,-0.04348755,-0.72029972,-2.22244263,-0.00488281,0.24414062,-0.17089844,-0.01464844,0.04394531,-0.01464844,-2.98118591,-0.17664870,-0.17662048,0.00000000
1.94868207,680,3.13272284,2.99378823,-1.90016945,-0.01907349,-0.72907352,-2.81715393,3.11021613,2.99114814,-1.89458888,-0.04307438,-0.71294472,-2.22213736,3.10983466,2.78893899,-1.74452980,-0.04348755,-0.72029972,-2.22244263,-0.00488281,0.24902344,-0.19531250,-0.02929688,0.04394531,-0.01464844,-2.98118591,-0.17662973,-0.17700195,-0.02441406
1.96229362,685,3.13272284,3.00446938,-1.90512856,-0.01907349,-0.72907352,-2.81715393,3.11021613,3.00322977,-1.89999364,-0.04309569,-0.71301671,-2.22219599,3.10983466,2.79313516,-1.74796303,-0.04348755,-0.72029972,-2.22244263,-0.00488281,0.27343750,-0.20019531,-0.01464844,0.04394531,-0.02929688,-2.98118591,-0.17662351,-0.17700195,0.00000000
1.97787714,690,3.13272284,3.01705789,-1.91046913,-0.01907349,-0.72907352,-2.81753540,3.11021613,3.01580306,-1.90558035,-0.04310268,-0.71297926,-2.22222070,3.10983466,2.79694985,-1.75063332,-0.04348755,-0.72029972,-2.22244263,-0.00488281,0.27343750,-0.20996094,-0.02929688,-0.00000000,-0.01464844,-2.98118591,-0.17671913,-0.17700195,-0.02441406
1.99327469,695,3.13272284,3.03269814,-1.91771706,-0.01907349,-0.72907352,-2.81715393,3.11021613,3.02985727,-1.91196508,-0.04310496,-0.71288691,-2.22229361,3.10983466,2.80152749,-1.75406655,-0.04348755,-0.71991825,-2.22244263,-0.00488281,0.27832031,-0.19531250,-0.01464844,0.04394531,-0.01464844,-2.98118591,-0.17665281,-0.17700195,-0.02441406
2.00926995,700,3.13272284,3.04910134,-1.92458351,-0.01907349,-0.72907352,-2.81753540,3.11021613,3.04506840,-1.91853696,-0.04310571,-0.71299776,-2.22233276,3.10983466,2.80610513,-1.75749977,-0.04348755,-0.71991825,-2.22244263,-0.00488281,0.30273438,-0.20996094,-0.01464844,0.01464844,-0.01464844,-2.98118591,-0.17675315,-0.17700195,-0.04882812
2.02427077,705,3.13272284,3.06054543,-1.92992409,-0.01907349,-0.72869205,-2.81715393,3.11021613,3.05933085,-1.92493287,-0.04310596,-0.71295779,-2.22222047,3.10983466,2.81106423,-1.76055153,-0.04348755,-0.71915531,-2.22244263,0.00000000,0.31250000,-0.20996094,-0.01464844,0.05859375,-0.02929688,-2.98118591,-0.17674208,-0.17700195,-0.07324219
2.03866768,710,3.13272284,3.07580422,-1.93640908,-0.01907349,-0.72907352,-2.81753540,3.11021613,3.07343016,-1.93106835,-0.04310604,-0.71295995,-2.22218965,3.10983466,2.81602334,-1.76360329,-0.04348755,-0.71877384,-2.22244263,-0.00488281,0.33691406,-0.20507812,-0.01464844,0.02929688,-0.01464844,-2.98118591,-0.17666033,-0.17700195,0.00000000
2.05084014,715,3.13272284,3.08724832,-1.94136818,-0.01907349,-0.72907352,-2.81753540,3.11021613,3.08630144,-1.93668442,-0.04310607,-0.71302170,-2.22229870,3.10983466,2.82021951,-1.76627358,-0.04348755,-0.71801090,-2.22244263,-0.00488281,0.36132812,-0.21484375,-0.02929688,0.07324219,-0.01464844,-2.98118591,-0.17663354,-0.17700195,-0.02441406
2.06463909,720,3.13272284,3.09869241,-1.94670876,-0.01907349,-0.72945499,-2.81753540,3.11021613,3.09862530,-1.94217240,-0.04310607,-0.71322809,-2.22235640,3.10983466,2.82517861,-1.76970681,-0.04348755,-0.71724796,-2.22244263,-0.00488281,0.33691406,-0.21484375,0.00000000,0.04394531,-0.01464844,-2.98118591,-0.17670289,-0.17700195,-0.02441406
2.07830071,725,3.13272284,3.11280679,-1.95243080,-0.01907349,-0.72945499,-2.81753540,3.11021613,3.11179847,-1.94776843,-0.04310608,-0.71336603,-2.22238312,3.10983466,2.82975625,-1.77275856,-0.04386902,-0.71724796,-2.22244263,-0.00488281,0.36132812,-0.23437500,-0.01464844,0.05859375,0.00000000,-2.98118591,-0.17700784,-0.17700195,-0.04882812
2.09511876,730,3.13272284,3.13035439,-1.96006020,-0.01907349,-0.72983646,-2.81753540,3.11021613,3.12724713,-1.95440096,-0.04310608,-0.71363645,-2.22242313,3.10983466,2.83662271,-1.77657326,-0.04348755,-0.71648502,-2.22282410,-0.00488281,0.38085938,-0.23437500,0.00000000,0.01464844,-0.02929688,-2.98118591,-0.17674741,-0.17700195,-0.02441406
2.10683322,735,3.13272284,3.14141702,-1.96501931,-0.01907349,-0.72983646,-2.81753540,3.11021613,3.14014150,-1.96011447,-0.04310608,-0.71375631,-2.22243624,3.10983466,2.84081887,-1.77924355,-0.04348755,-0.71648502,-2.22282410,-0.00976562,0.37597656,-0.23925781,-0.01464844,0.02929688,-0.02929688,-2.98118591,-0.17666208,-0.17700195,-0.02441406
2.12222505,740,3.13272284,-3.12803538,-1.97074135,-0.01907349,-0.72983646,-2.81753540,3.11021613,3.15410208,-1.96606663,-0.04310608,-0.71379559,-2.22244053,3.10983466,2.84615945,-1.78267678,-0.04348755,-0.71686649,-2.22244263,-0.00976562,0.39062500,-0.23437500,0.00000000,-0.00000000,-0.01464844,-2.98118591,-0.17669661,-0.17700195,0.00000000
2.14058375,745,3.13272284,-3.10743602,-1.97989662,-0.01907349,-0.73059940,-2.81753540,3.11021613,3.17053338,-1.97318158,-0.04310608,-0.71410997,-2.22244194,3.10983466,2.85378884,-1.78687294,-0.04386902,-0.71648502,-2.22244263,-0.00976562,0.41503906,-0.24414062,-0.02929688,0.02929688,-0.01464844,-2.98118591,-0.17664543,-0.17700195,-0.02441406
2.15497565,750,3.13272284,-3.09408457,-1.98523720,-0.01907349,-0.73212528,-2.81753540,3.11021613,3.18644627,-1.97986873,-0.04310608,-0.71508066,-2.22238137,3.10983466,2.85989236,-1.79106911,-0.04348755,-0.71648502,-2.22282410,-0.00488281,0.41503906,-0.24902344,-0.01464844,0.01464844,-0.02929688,-2.98118591,-0.17678881,-0.17700195,-0.02441406
2.16903329,755,3.13272284,-3.07882579,-1.99172219,-0.01907349,-0.73441410,-2.81753540,3.11021613,3.20149801,-1.98618411,-0.04310608,-0.71669928,-2.22238349,3.10983466,2.86675881,-1.79488381,-0.04348755,-0.71610355,-2.22282410,-0.00488281,0.43945312,-0.23925781,0.00000000,0.04394531,-0.01464844,-2.98118591,-0.17667564,-0.17700195,-0.04882812
2.18312907,760,3.13272284,-3.06509288,-1.99782570,-0.01907349,-0.73670291,-2.81753540,3.11021613,3.21573534,-1.99245764,-0.04310608,-0.71865423,-2.22242325,3.10983466,2.87362527,-1.79831704,-0.04348755,-0.71610355,-2.22282410,-0.00488281,0.43945312,-0.25390625,-0.01464844,0.02929688,-0.02929688,-2.98156738,-0.17685365,-0.17700195,-0.04882812
2.19748473,765,3.13272284,-3.05135997,-2.00354775,-0.01907349,-0.73899173,-2.81753540,3.11021613,3.22993969,-1.99853764,-0.04310608,-0.72094790,-2.22234839,3.10983466,2.87972878,-1.80213173,-0.04348755,-0.71610355,-2.22282410,-0.00488281,0.45898438,-0.23925781,0.00000000,0.01464844,-0.02929688,-2.98118591,-0.17687267,-0.17700195,-0.02441406
2.20954728,770,3.13272284,-3.03800852,-2.00926979,-0.01907349,-0.74166202,-2.81753540,3.11021613,3.24353741,-2.00433060,-0.04310608,-0.72350015,-2.22241175,3.10983466,2.88430642,-1.80442055,-0.04348755,-0.71610355,-2.22282410,-0.00976562,0.45410156,-0.25878906,-0.02929688,0.01464844,-0.01464844,-2.98156738,-0.17685571,-0.17700195,-0.02441406
2.22545242,775,3.13272284,-3.02274974,-2.01537331,-0.01907349,-0.74547672,-2.81715393,3.11021613,3.25752729,-2.01012532,-0.04310608,-0.72651396,-2.22217604,3.10983466,2.89269875,-1.80899819,-0.04348755,-0.71610355,-2.22282410,-0.00488281,0.47851562,-0.25390625,0.01464844,-0.02929688,-0.01464844,-2.98118591,-0.17679522,-0.17700195,0.00000000
2.24130726,780,3.13272284,-3.00901683,-2.02109536,-0.01945496,-0.75081729,-2.81715393,3.11021613,3.27209049,-2.01603084,-0.04318237,-0.73083868,-2.22215984,3.10983466,2.90109109,-1.81319435,-0.04348755,-0.71648502,-2.22282410,-0.00488281,0.50292969,-0.25878906,-0.04394531,-0.00000000,-0.01464844,-2.98156738,-0.17705005,-0.17700195,-0.02441406
2.25349617,785,3.13272284,-2.99452098,-2.02681740,-0.01945496,-0.75768375,-2.81715393,3.11021613,3.28735207,-2.02212307,-0.04331724,-0.73702266,-2.22209349,3.10983466,2.90681313,-1.81662758,-0.04348755,-0.71686649,-2.22282410,-0.00976562,0.49804688,-0.27343750,0.00000000,-0.02929688,-0.01464844,-2.98118591,-0.17676125,-0.17700195,-0.02441406
2.26627421,790,3.13272284,-2.98193248,-2.03139504,-0.01945496,-0.76302432,-2.81715393,3.11021613,3.30025642,-2.02717162,-0.04343174,-0.74273335,-2.22207175,3.10983466,2.91367959,-1.82044228,-0.04348755,-0.71762943,-2.22282410,0.00000000,0.50781250,-0.25878906,-0.02929688,-0.02929688,-0.01464844,-2.98156738,-0.17681920,-0.17700195,-0.02441406
2.27814841,795,3.13272284,-2.96972544,-2.03597267,-0.01945496,-0.76874637,-2.81715393,3.11021613,3.31242389,-2.03174048,-0.04346926,-0.74815724,-2.22206463,3.10983466,2.91825723,-1.82273110,-0.04348755,-0.71801090,-2.22282410,-0.00488281,0.52246094,-0.27832031,-0.01464844,-0.05859375,0.00000000,-2.98118591,-0.17678325,-0.17700195,-0.02441406
2.29256177,800,3.13272284,-2.95370372,-2.04207619,-0.01983643,-0.77599430,-2.81677246,3.11021613,3.32668656,-2.03721514,-0.04366771,-0.75460141,-2.22198600,3.10983466,2.92779397,-1.82730873,-0.04348755,-0.71991825,-2.22282410,-0.00488281,0.52246094,-0.26367188,-0.01464844,-0.08789062,-0.02929688,-2.98118591,-0.17675195,-0.17700195,-0.02441406
2.30580282,805,3.13272284,-2.93958934,-2.04779824,-0.02021790,-0.78286075,-2.81677246,3.11021613,3.34058634,-2.04260319,-0.04394038,-0.76107656,-2.22178006,3.10983466,2.93313455,-1.83074196,-0.04348755,-0.72144412,-2.22244263,-0.00488281,0.53222656,-0.27832031,-0.02929688,-0.11718750,0.00000000,-2.98156738,-0.17693822,-0.17700195,0.00000000
2.32104063,810,3.13272284,-2.92394908,-2.05390175,-0.02212524,-0.79010868,-2.81677246,3.11021613,3.35557865,-2.04839219,-0.04498151,-0.76812253,-2.22171258,3.10983466,2.94190835,-1.83531960,-0.04348755,-0.72373294,-2.22282410,-0.00976562,0.52734375,-0.27832031,0.00000000,-0.14648438,-0.01464844,-2.98156738,-0.17697484,-0.17700195,0.02441406
2.33319354,815,3.13272284,-2.91250498,-2.05886086,-0.02365112,-0.79506778,-2.81639099,3.11021613,3.36928845,-2.05407050,-0.04647746,-0.77436312,-2.22150431,3.10983466,2.94915627,-1.83913430,-0.04348755,-0.72678470,-2.22244263,-0.00488281,0.54687500,-0.28320312,-0.01464844,-0.20507812,0.00000000,-2.98118591,-0.17673660,-0.17700195,-0.02441406
2.34885097,820,3.13272284,-2.89686473,-2.06610878,-0.02593994,-0.80193424,-2.81677246,3.11021613,3.38387279,-2.06053359,-0.04835608,-0.78079304,-2.22162222,3.10983466,2.95831155,-1.84294899,-0.04386902,-0.73174381,-2.22282410,-0.00488281,0.55175781,-0.27343750,-0.01464844,-0.30761719,-0.01464844,-2.98156738,-0.17687362,-0.17700195,-0.02441406
2.36216593,825,3.13272284,-2.88313182,-2.07259377,-0.02861023,-0.80803775,-2.81677246,3.11021613,3.39842523,-2.06712028,-0.05076695,-0.78719248,-2.22166086,3.10983466,2.96479653,-1.84676369,-0.04348755,-0.73479557,-2.22282410,-0.00488281,0.56640625,-0.26855469,-0.02929688,-0.23437500,-0.01464844,-2.98118591,-0.17682550,-0.17700195,0.00000000
2.37971663,830,3.13272284,-2.86253245,-2.08136757,-0.03356934,-0.81490421,-2.81677246,3.11021613,3.41458269,-2.07436101,-0.05405121,-0.79352016,-2.22162469,3.10983466,2.97585916,-1.85248574,-0.04425049,-0.74128055,-2.22244263,-0.00488281,0.55664062,-0.28808594,-0.05859375,-0.27832031,0.00000000,-2.98118591,-0.17668766,-0.17700195,-0.04882812
2.39324045,835,3.13272284,-2.84841807,-2.08861550,-0.03585815,-0.82024478,-2.81639099,3.11021613,3.43084262,-2.08193958,-0.05747481,-0.79946056,-2.22143645,3.10983466,2.98272561,-1.85630043,-0.04386902,-0.74395084,-2.22244263,-0.00488281,0.57617188,-0.30761719,-0.01464844,-0.21972656,-0.01464844,-2.98118591,-0.17674015,-0.17700195,0.00000000
2.40752530,840,3.13272284,-2.83430369,-2.09586342,-0.03662109,-0.82558536,-2.81639099,3.11021613,3.44618739,-2.08951167,-0.05954172,-0.80516028,-2.22134351,3.10983466,2.99264382,-1.86125954,-0.04463196,-0.74814701,-2.22244263,-0.00488281,0.58593750,-0.28320312,-0.05859375,-0.21972656,-0.01464844,-2.98118591,-0.17665970,-0.17700195,0.00000000
2.42282534,845,3.13272284,-2.81942637,-2.10311135,-0.03700256,-0.83168888,-2.81639099,3.11021613,3.46076721,-2.09663828,-0.06047547,-0.81078480,-2.22131306,3.10983466,2.99951028,-1.86507424,-0.04463196,-0.75081729,-2.22244263,-0.00488281,0.60546875,-0.31250000,-0.04394531,-0.19042969,-0.01464844,-2.98118591,-0.17689603,-0.17700195,-0.02441406
2.43532276,850,3.13272284,-2.80454905,-2.11035927,-0.03852844,-0.83741092,-2.81639099,3.11021613,3.47559050,-2.10393386,-0.06154707,-0.81667216,-2.22130308,3.10983466,3.00866555,-1.86927040,-0.04501343,-0.75577640,-2.22244263,0.00000000,0.59570312,-0.29296875,-0.02929688,-0.36621094,-0.01464844,-2.98156738,-0.17702352,-0.17700195,-0.04882812
2.45060658,855,3.13272284,-2.78929026,-2.11760720,-0.04043579,-0.84237003,-2.81639099,3.11021613,3.49104301,-2.11141029,-0.06312246,-0.82223768,-2.22129981,3.10983466,3.01934670,-1.87422951,-0.04539490,-0.76149845,-2.22244263,-0.00488281,0.67382812,-0.29785156,-0.02929688,-0.32226562,0.00000000,-2.98118591,-0.17675255,-0.17700195,-0.02441406
2.46466184,860,3.13272284,-2.77593882,-2.12485512,-0.04234314,-0.84694766,-2.81639099,3.11021613,3.50553019,-2.11871160,-0.06508900,-0.82714879,-2.22129874,3.10983466,3.02773904,-1.87842568,-0.04577637,-0.76645755,-2.22244263,0.00000000,0.62011719,-0.30761719,-0.04394531,-0.32226562,-0.01464844,-2.98118591,-0.17666376,-0.17700195,-0.04882812
2.47906423,865,3.13272284,-2.75991709,-2.13401039,-0.04348755,-0.85190677,-2.81639099,3.11021613,3.52054273,-2.12699668,-0.06665319,-0.83215028,-2.22129839,3.10983466,3.03651284,-1.88224037,-0.04653931,-0.77027225,-2.22244263,-0.00488281,0.64453125,-0.32226562,-0.07324219,-0.29296875,0.00000000,-2.98118591,-0.17663466,-0.17700195,-0.02441406
2.49334097,870,3.13272284,-2.74503977,-2.14240273,-0.04348755,-0.85648441,-2.81639099,3.11021613,3.53522706,-2.13527525,-0.06718723,-0.83675694,-2.22139056,3.10983466,3.04604958,-1.88796242,-0.04806519,-0.77408695,-2.22244263,0.00000000,0.63964844,-0.32226562,-0.14648438,-0.26367188,-0.01464844,-2.98156738,-0.17677772,-0.17700195,-0.02441406
2.50873947,875,3.13272284,-2.72787364,-2.15155800,-0.04348755,-0.86144351,-2.81639099,3.11021613,3.55068591,-2.14380047,-0.06741105,-0.84135007,-2.22137730,3.10983466,3.05558633,-1.89292153,-0.04959106,-0.77828311,-2.22244263,-0.00488281,0.64453125,-0.31738281,-0.11718750,-0.27832031,-0.01464844,-2.98118591,-0.17675013,-0.17700195,-0.02441406
2.52392030,880,3.13272284,-2.71375926,-2.15918740,-0.04348755,-0.86563968,-2.81639099,3.11021613,3.56632141,-2.15219949,-0.06748440,-0.84602885,-2.22137296,3.10983466,3.06550454,-1.89788063,-0.05111694,-0.78438663,-2.22244263,-0.00488281,0.66894531,-0.33203125,-0.14648438,-0.36621094,0.00000000,-2.98156738,-0.17707825,-0.17700195,-0.02441406
2.53936410,885,3.13272284,-2.69811900,-2.16757973,-0.04348755,-0.87098026,-2.81639099,3.11021613,3.58103922,-2.16012868,-0.06744739,-0.85062669,-2.22132271,3.10983466,3.07580422,-1.90322121,-0.05378723,-0.79087161,-2.22244263,0.00000000,0.65429688,-0.34667969,-0.19042969,-0.41015625,-0.01464844,-2.98118591,-0.17700877,-0.17700195,-0.02441406
2.55422664,890,3.13272284,-2.68324168,-2.17597206,-0.04310608,-0.87746524,-2.81639099,3.11021613,3.59526075,-2.16798692,-0.06723983,-0.85586292,-2.22130624,3.10983466,3.08686685,-1.90856179,-0.05569458,-0.79544925,-2.22244263,-0.00488281,0.66894531,-0.33691406,-0.07324219,-0.26367188,-0.01464844,-2.98118591,-0.17696744,-0.17700195,-0.02441406
2.56724167,895,3.13272284,-2.67256053,-2.18169411,-0.04348755,-0.88242435,-2.81639099,3.11021613,3.60901363,-2.17549002,-0.06724811,-0.86167309,-2.22130085,3.10983466,3.09449624,-1.91275795,-0.05607605,-0.79850101,-2.22244263,-0.00488281,0.66894531,-0.32226562,-0.07324219,-0.24902344,0.00000000,-2.98118591,-0.17681230,-0.17700195,-0.02441406
2.58820057,900,3.13272284,-2.65653880,-2.19008644,-0.04348755,-0.89081668,-2.81639099,3.11021613,3.62294279,-2.18282631,-0.06731186,-0.86833552,-2.22147926,3.10983466,3.10632180,-1.91848000,-0.05683899,-0.80307865,-2.22244263,-0.00488281,0.67382812,-0.33691406,-0.05859375,-0.24902344,0.00000000,-2.98118591,-0.17668334,-0.17700195,0.00000000
2.59888244,905,3.13272284,-2.64509471,-2.19504555,-0.04310608,-0.89577579,-2.81677246,3.11021613,3.63767823,-2.19014348,-0.06719542,-0.87537083,-2.22161401,3.10983466,3.11776589,-1.92420204,-0.05683899,-0.80803775,-2.22244263,0.00000000,0.71289062,-0.34667969,-0.02929688,-0.33691406,-0.01464844,-2.98156738,-0.17701339,-0.17700195,0.00000000
2.61098504,910,3.13272284,-2.63136180,-2.20229348,-0.04348755,-0.90226078,-2.81639099,3.11021613,3.65069620,-2.19658304,-0.06732585,-0.88138527,-2.22158187,3.10983466,3.12463235,-1.92610939,-0.05722046,-0.81147098,-2.22244263,-0.00488281,0.69335938,-0.31250000,-0.02929688,-0.35156250,-0.02929688,-2.98118591,-0.17674923,-0.17700195,-0.02441406
2.62531829,915,3.13272284,-2.61915477,-2.20839699,-0.04348755,-0.90836429,-2.81677246,3.11021613,3.66239454,-2.20258280,-0.06730755,-0.88706555,-2.22161639,3.10983466,3.13683938,-1.93335732,-0.05722046,-0.81910037,-2.22244263,-0.00488281,0.71289062,-0.33203125,-0.04394531,-0.41015625,-0.01464844,-2.98118591,-0.17666267,-0.17700195,-0.04882812
2.64266920,920,3.13272284,-2.60656626,-2.21488198,-0.04310608,-0.91484928,-2.81677246,3.11021613,3.67517036,-2.20906895,-0.06734294,-0.89341576,-2.22161988,3.10983466,-3.13528331,-1.93869789,-0.05798340,-0.82444095,-2.22244263,0.00000000,0.69824219,-0.36132812,-0.08789062,-0.27832031,-0.01464844,-2.98118591,-0.17685403,-0.17700195,0.00000000
2.65652156,925,3.13272284,-2.59359629,-2.22098549,-0.04348755,-0.92095279,-2.81677246,3.11021613,3.68813579,-2.21552245,-0.06733073,-0.89987501,-2.22162884,3.10983466,-3.12498362,-1.94480141,-0.05912781,-0.82863712,-2.22244263,-0.00488281,0.67871094,-0.36621094,-0.11718750,-0.26367188,-0.01464844,-2.98118591,-0.17681908,-0.17700195,-0.02441406
2.66983819,930,3.13272284,-2.58329661,-2.22594460,-0.04348755,-0.92553043,-2.81677246,3.11021613,3.69964493,-2.22107818,-0.06730915,-0.90518836,-2.22166303,3.10983466,-3.11582835,-1.94937905,-0.06141663,-0.83359622,-2.22244263,-0.00488281,0.71289062,-0.37597656,-0.16113281,-0.39550781,-0.01464844,-2.98156738,-0.17691627,-0.17662048,-0.02441406
2.68434691,935,3.13272284,-2.57185252,-2.23090370,-0.04310608,-0.93010807,-2.81677246,3.11021613,3.71093016,-2.22622888,-0.06722578,-0.90994067,-2.22161319,3.10983466,-3.10591014,-1.95395668,-0.06370544,-0.84084415,-2.22244263,-0.00488281,0.70800781,-0.35156250,-0.19042969,-0.49804688,-0.01464844,-2.98156738,-0.17687000,-0.17700195,0.00000000
2.69809651,940,3.13272284,-2.56193431,-2.23548134,-0.04310608,-0.93544864,-2.81677246,3.11021613,3.72162102,-2.23116763,-0.06716722,-0.91497178,-2.22165790,3.10983466,-3.09561045,-1.95929726,-0.06446838,-0.84656619,-2.22244263,-0.00488281,0.70800781,-0.33203125,-0.08789062,-0.35156250,0.00000000,-2.98156738,-0.17707456,-0.17662048,0.00000000
2.71135807,945,3.13272284,-2.55277903,-2.23929604,-0.04310608,-0.94078922,-2.81677246,3.11021613,3.73139617,-2.23543318,-0.06714803,-0.92021388,-2.22167255,3.10983466,-3.08607371,-1.96463784,-0.06446838,-0.84999942,-2.22244263,-0.00976562,0.72265625,-0.36621094,-0.01464844,-0.27832031,-0.01464844,-2.98118591,-0.17689134,-0.17700195,-0.02441406
2.72573185,950,3.13272284,-2.54286082,-2.24272927,-0.04310608,-0.94574832,-2.81677246,3.11021613,3.74132024,-2.23935057,-0.06714174,-0.92554746,-2.22167735,3.10983466,-3.07653697,-1.96959694,-0.06446838,-0.85419559,-2.22244263,-0.00488281,0.70800781,-0.38085938,-0.01464844,-0.24902344,-0.01464844,-2.98156738,-0.17698390,-0.17700195,-0.02441406
2.73772264,955,3.13272284,-2.53561290,-2.24539955,-0.04310608,-0.94994449,-2.81677246,3.11021613,3.75025075,-2.24260187,-0.06707864,-0.93025744,-2.22167892,3.10983466,-3.06623728,-1.97493752,-0.06446838,-0.85877323,-2.22244263,-0.00488281,0.72753906,-0.36621094,0.01464844,-0.36621094,0.00000000,-2.98118591,-0.17673957,-0.17700195,-0.02441406
2.75303698,960,3.13272284,-2.52531321,-2.24883278,-0.04272461,-0.95490360,-2.81677246,3.11021613,3.75953050,-2.24585195,-0.06686253,-0.93495035,-2.22167944,3.10983466,-3.05784495,-1.97875222,-0.06446838,-0.86373233,-2.22244263,-0.00976562,0.69335938,-0.31738281,-0.01464844,-0.41015625,-0.02929688,-2.98156738,-0.17681209,-0.17700195,0.00000000
2.76694250,965,3.13272284,-2.51653941,-2.25150307,-0.04272461,-0.95986270,-2.81677246,3.11021613,3.76851208,-2.24875129,-0.06679172,-0.93976412,-2.22167961,3.10983466,-3.04563792,-1.98447426,-0.06446838,-0.87136173,-2.22244263,-0.00488281,0.69824219,-0.32226562,-0.04394531,-0.43945312,-0.01464844,-2.98118591,-0.17684343,-0.17700195,-0.02441406
2.78091764,970,3.13272284,-2.50852854,-2.25341042,-0.04272461,-0.96520328,-2.81677246,3.11021613,3.77676534,-2.25111650,-0.06676851,-0.94466108,-2.22167966,3.10983466,-3.03838999,-1.98828896,-0.06408691,-0.87517642,-2.22244263,-0.00976562,0.71289062,-0.36621094,-0.01464844,-0.35156250,-0.01464844,-2.98118591,-0.17669354,-0.17700195,-0.02441406
2.79485393,975,3.13272284,-2.50204356,-2.25493630,-0.04272461,-0.96901798,-2.81677246,3.11021613,3.78435759,-2.25307611,-0.06676091,-0.94926156,-2.22167968,3.10983466,-3.02656443,-1.99439247,-0.06446838,-0.87975406,-2.22244263,-0.00488281,0.69335938,-0.35644531,-0.02929688,-0.24902344,-0.02929688,-2.98156738,-0.17689467,-0.17700195,-0.02441406
2.80833530,980,3.13272284,-2.49403269,-2.25608071,-0.04234314,-0.97321414,-2.81677246,3.11021613,3.79207015,-2.25455795,-0.06668212,-0.95365076,-2.22167968,3.10983466,-3.01779063,-1.99820717,-0.06484985,-0.88318729,-2.22244263,-0.00488281,0.72265625,-0.34179688,-0.02929688,-0.27832031,-0.01464844,-2.98156738,-0.17696057,-0.17700195,-0.02441406
2.82206607,985,3.13272284,-2.48678477,-2.25722512,-0.04234314,-0.97817325,-2.81677246,3.11021613,3.79944542,-2.25594428,-0.06647613,-0.95814578,-2.22167969,3.10983466,-3.00672801,-2.00392922,-0.06484985,-0.88967227,-2.22244263,-0.00488281,0.69824219,-0.30761719,-0.04394531,-0.41015625,-0.01464844,-2.98156738,-0.17706908,-0.17700195,-0.04882812
2.83721089,990,3.13272284,-2.48068125,-2.25798806,-0.04234314,-0.98389530,-2.81677246,3.11021613,3.80642563,-2.25694274,-0.06640863,-0.96327581,-2.22167969,3.10983466,-2.99642832,-2.00850685,-0.06484985,-0.89615726,-2.22244263,-0.00488281,0.68847656,-0.34179688,0.01464844,-0.46875000,0.00000000,-2.98118591,-0.17694326,-0.17700195,-0.02441406
2.84899092,995,3.13272284,-2.47610362,-2.25836953,-0.04234314,-0.98885440,-2.81677246,3.11021613,3.81251808,-2.25764553,-0.06638651,-0.96900772,-2.22167969,3.10983466,-2.98841746,-2.01232155,-0.06484985,-0.90035343,-2.22244263,-0.00976562,0.70800781,-0.32714844,-0.01464844,-0.32226562,-0.01464844,-2.98118591,-0.17686688,-0.17700195,-0.04882812
2.86368728,1000,3.13272284,-2.46771128,-2.25836953,-0.04234314,-0.99762821,-2.81677246,3.11021613,3.81902446,-2.25787582,-0.06637926,-0.97566171,-2.22167969,3.10983466,-2.97811778,-2.01728066,-0.06484985,-0.90454959,-2.22244263,0.00000000,0.67382812,-0.32226562,0.00000000,-0.23437500,-0.01464844,-2.98118591,-0.17677935,-0.17700195,-0.02441406
2.87543631,1005,3.13272284,-2.46275218,-2.25836953,-0.04234314,-1.00258731,-2.81677246,3.11021613,3.82518248,-2.25795128,-0.06637689,-0.98207024,-2.22167969,3.10983466,-2.97048838,-2.02147683,-0.06484985,-0.90798282,-2.22244263,-0.00488281,0.69335938,-0.34179688,-0.02929688,-0.23437500,-0.01464844,-2.98118591,-0.17681316,-0.17700195,0.02441406
2.88919091,1010,3.13272284,-2.45741160,-2.25836953,-0.04234314,-1.01021671,-2.81677246,3.11021613,3.83069081,-2.25797600,-0.06631508,-0.98864528,-2.22167969,3.10983466,-2.96057017,-2.02491005,-0.06484985,-0.91332340,-2.22244263,0.00000000,0.67382812,-0.31250000,-0.01464844,-0.43945312,0.00000000,-2.98156738,-0.17691433,-0.17700195,-0.02441406
2.90121865,1015,3.13272284,-2.45283396,-2.25836953,-0.04234314,-1.01708316,-2.81677246,3.11021613,3.83559686,-2.25798411,-0.06632461,-0.99539086,-2.22167969,3.10983466,-2.95217784,-2.02910622,-0.06523132,-0.91942691,-2.22206116,-0.00488281,0.70800781,-0.29296875,-0.04394531,-0.46875000,-0.01464844,-2.98118591,-0.17671677,-0.17700195,-0.02441406
2.91366291,1020,3.13272284,-2.44749339,-2.25836953,-0.04234314,-1.02433109,-2.81677246,3.11021613,3.84054261,-2.25798676,-0.06635898,-1.00246294,-2.22167969,3.10983466,-2.94264109,-2.03292092,-0.06523132,-0.92476749,-2.22244263,-0.00488281,0.67871094,-0.28808594,-0.01464844,-0.42480469,-0.01464844,-2.98156738,-0.17680462,-0.17700195,-0.02441406
2.92866969,1025,3.13272284,-2.44253428,-2.25836953,-0.04234314,-1.03196048,-2.81677246,3.11021613,3.84567019,-2.25798763,-0.06637024,-1.00971001,-2.22167969,3.10983466,-2.93272288,-2.03749855,-0.06561279,-0.92972660,-2.22244263,-0.00488281,0.67382812,-0.29785156,-0.01464844,-0.24902344,-0.01464844,-2.98118591,-0.17668082,-0.17700195,0.00000000
2.94309998,1030,3.13272284,-2.43719371,-2.25836953,-0.04234314,-1.04149723,-2.81677246,3.11021613,3.85105816,-2.25798792,-0.06637393,-1.01836415,-2.22167969,3.10983466,-2.92433055,-2.04169472,-0.06523132,-0.93354129,-2.22206116,0.00000000,0.66894531,-0.30761719,-0.01464844,-0.30761719,-0.01464844,-2.98118591,-0.17670276,-0.17700195,0.00000000
2.95690536,1035,3.13272284,-2.43299754,-2.25836953,-0.04234314,-1.05065250,-2.81677246,3.11021613,3.85602425,-2.25798801,-0.06631411,-1.02777123,-2.22167969,3.10983466,-2.91441233,-2.04589089,-0.06523132,-0.94040775,-2.22244263,0.00000000,0.62500000,-0.28808594,-0.01464844,-0.49804688,-0.01464844,-2.98118591,-0.17680760,-0.17700195,-0.02441406
2.97097325,1040,3.13272284,-2.42880137,-2.25836953,-0.04234314,-1.06018924,-2.81677246,3.11021613,3.86026176,-2.25798804,-0.06635554,-1.03679527,-2.22167969,3.10983466,-2.90525706,-2.04970558,-0.06561279,-0.94803714,-2.22206116,0.00000000,0.64941406,-0.25390625,-0.05859375,-0.54199219,-0.01464844,-2.98118591,-0.17690152,-0.17700195,-0.04882812
2.98762679,1045,3.13272284,-2.42307933,-2.25836953,-0.04234314,-1.07315921,-2.81677246,3.11021613,3.86522441,-2.25802711,-0.06636912,-1.04787311,-2.22167969,3.10983466,-2.89457591,-2.05466469,-0.06637573,-0.95604801,-2.22244263,-0.00976562,0.62500000,-0.30273438,-0.05859375,-0.42480469,-0.01464844,-2.98118591,-0.17679070,-0.17700195,-0.02441406
3.00174308,1050,3.13272284,-2.41888316,-2.25836953,-0.04234314,-1.08231449,-2.81677246,3.11021613,3.86980748,-2.25800085,-0.06637356,-1.05796550,-2.22167969,3.10983466,-2.88580210,-2.05847939,-0.06637573,-0.96062564,-2.22206116,-0.00488281,0.63964844,-0.28808594,-0.01464844,-0.38085938,-0.01464844,-2.98118591,-0.17677392,-0.17700195,0.00000000
3.01783013,1055,3.13272284,-2.41583140,-2.25836953,-0.04234314,-1.08994388,-2.81677246,3.11021613,3.87378387,-2.25799225,-0.06637502,-1.06713684,-2.22167969,3.10983466,-2.87473948,-2.06305703,-0.06637573,-0.97092533,-2.22244263,-0.00488281,0.64453125,-0.24902344,-0.02929688,-0.58593750,0.00000000,-2.98118591,-0.17681139,-0.17700195,0.00000000
3.03248882,1060,3.13272284,-2.41316111,-2.25836953,-0.04234314,-1.09795474,-2.81677246,3.11021613,3.87698370,-2.25798943,-0.06637550,-1.07569007,-2.22167969,3.10983466,-2.86482127,-2.06687172,-0.06713867,-0.98046207,-2.22206116,-0.00976562,0.63476562,-0.25390625,-0.05859375,-0.54199219,-0.02929688,-2.98118591,-0.17668304,-0.17700195,-0.04882812
3.04876947,1065,3.13272284,-2.41010936,-2.25836953,-0.04234314,-1.10558414,-2.81677246,3.11021613,3.87994824,-2.25798851,-0.06633659,-1.08367834,-2.22167969,3.10983466,-2.85604747,-2.07068642,-0.06713867,-0.98618411,-2.22244263,-0.00488281,0.61523438,-0.25390625,0.00000000,-0.38085938,0.00000000,-2.98118591,-0.17664098,-0.17700195,-0.02441406
3.06213212,1070,3.13272284,-2.40820201,-2.25836953,-0.04196167,-1.10939884,-2.81677246,3.11021613,3.88233336,-2.25798820,-0.06624755,-1.08942265,-2.22167969,3.10983466,-2.84765513,-2.07450112,-0.06713867,-0.99076175,-2.22206116,-0.00488281,0.59082031,-0.24414062,-0.02929688,-0.38085938,-0.01464844,-2.98118591,-0.17672486,-0.17700195,-0.04882812
3.07705593,1075,3.13272284,-2.40743907,-2.25836953,-0.04196167,-1.11168765,-2.81677246,3.11021613,3.88384855,-2.25798810,-0.06607726,-1.09319581,-2.22167969,3.10983466,-2.83773692,-2.07793434,-0.06713867,-1.00144290,-2.22244263,-0.00976562,0.58593750,-0.21484375,-0.01464844,-0.64453125,-0.01464844,-2.98118591,-0.17683047,-0.17700195,-0.02441406
3.09167385,1080,3.13272284,-2.40705760,-2.25836953,-0.04196167,-1.11283206,-2.81677246,3.11021613,3.88474264,-2.25798807,-0.06602146,-1.09547554,-2.22167969,3.10983466,-2.83087046,-2.08022316,-0.06713867,-1.00830936,-2.22206116,0.00000000,0.59570312,-0.21484375,-0.02929688,-0.57128906,-0.01464844,-2.98118591,-0.17687386,-0.17700195,0.00000000
3.10533166,1085,3.13272284,-2.40667613,-2.25836953,-0.04196167,-1.11359500,-2.81677246,3.11021613,3.88536239,-2.25798806,-0.06600317,-1.09685464,-2.22167969,3.10983466,-2.82209666,-2.08403786,-0.06713867,-1.01212406,-2.22206116,-0.00488281,0.57617188,-0.25878906,0.00000000,-0.32226562,-0.01464844,-2.98156738,-0.17685610,-0.17700195,-0.02441406
3.11939907,1090,3.13272284,-2.40667613,-2.25836953,-0.04196167,-1.11397647,-2.81677246,3.11021613,3.88556547,-2.25798806,-0.06599718,-1.09759426,-2.22167969,3.10983466,-2.81408580,-2.08785256,-0.06713867,-1.01822757,-2.22206116,-0.00488281,0.54687500,-0.23437500,-0.04394531,-0.39550781,0.00000000,-2.98118591,-0.17669769,-0.17700195,0.00000000
3.13246465,1095,3.13272284,-2.40705760,-2.25836953,-0.04196167,-1.11359500,-2.81677246,3.11021613,3.88545563,-2.25798806,-0.06599522,-1.09765046,-2.22167969,3.10983466,-2.80569346,-2.09128579,-0.06713867,-1.02700138,-2.22206116,-0.00488281,0.56152344,-0.22460938,0.00000000,-0.61523438,0.00000000,-2.98156738,-0.17693900,-0.17700195,-0.02441406
3.14663863,1100,3.13272284,-2.40705760,-2.25836953,-0.04196167,-1.11359500,-2.81677246,3.11021613,3.88533956,-2.25798806,-0.06599458,-1.09759857,-2.22167969,3.10983466,-2.79806407,-2.09433754,-0.06713867,-1.03310489,-2.22206116,-0.00488281,0.55664062,-0.22949219,-0.02929688,-0.46875000,-0.01464844,-2.98118591,-0.17702270,-0.17700195,-0.02441406
3.15980339,1105,3.13272284,-2.40705760,-2.25836953,-0.04196167,-1.11397647,-2.81677246,3.11021613,3.88530152,-2.25798806,-0.06599437,-1.09783803,-2.22167969,3.10983466,-2.79157908,-2.09700783,-0.06675720,-1.03653812,-2.22206116,-0.00488281,0.53710938,-0.23437500,0.00000000,-0.24902344,-0.01464844,-2.98118591,-0.17689291,-0.17700195,-0.02441406
3.17671275,1110,3.13272284,-2.40705760,-2.25836953,-0.04196167,-1.11435794,-2.81677246,3.11021613,3.88528906,-2.25798806,-0.06599430,-1.09799279,-2.22167969,3.10983466,-2.78394969,-2.10044106,-0.06713867,-1.03920841,-2.22206116,-0.00488281,0.50781250,-0.22949219,-0.02929688,-0.19042969,-0.01464844,-2.98118591,-0.17677225,-0.17700195,-0.02441406
3.19105434,1115,3.13272284,-2.40705760,-2.25836953,-0.04196167,-1.11512088,-2.81677246,3.11021613,3.88528497,-2.25798806,-0.06599427,-1.09854717,-2.22167969,3.10983466,-2.77593882,-2.10349282,-0.06713867,-1.04454898,-2.22206116,-0.00488281,0.52734375,-0.19531250,-0.02929688,-0.36621094,-0.02929688,-2.98118591,-0.17674834,-0.17700195,0.00000000
3.20625901,1120,3.13272284,-2.40705760,-2.25836953,-0.04196167,-1.11550235,-2.81677246,3.11021613,3.88528364,-2.25798806,-0.06599427,-1.09905561,-2.22167969,3.10983466,-2.76830943,-2.10616310,-0.06713867,-1.05065250,-2.22206116,-0.00488281,0.49804688,-0.17089844,-0.02929688,-0.39550781,-0.01464844,-2.98118591,-0.17672488,-0.17700195,-0.02441406
3.21871042,1125,3.13272284,-2.40705760,-2.25836953,-0.04196167,-1.11550235,-2.81677246,3.11021613,3.88528320,-2.25798806,-0.06599426,-1.09934135,-2.22167969,3.10983466,-2.76144297,-2.10883339,-0.06713867,-1.05484867,-2.22206116,-0.00488281,0.50781250,-0.18066406,0.00000000,-0.32226562,-0.01464844,-2.98118591,-0.17695254,-0.17700195,-0.02441406
3.23396468,1130,3.13272284,-2.40705760,-2.25836953,-0.04196167,-1.11550235,-2.81677246,3.11021613,3.88528305,-2.25798806,-0.06599426,-1.09943499,-2.22167969,3.10983466,-2.75381358,-2.11226662,-0.06675720,-1.05751895,-2.22206116,-0.00488281,0.49316406,-0.21484375,-0.01464844,-0.14648438,-0.02929688,-2.98118591,-0.17692949,-0.17700195,-0.02441406
3.24602509,1135,3.13272284,-2.40705760,-2.25836953,-0.04196167,-1.11550235,-2.81677246,3.11021613,3.88528301,-2.25798806,-0.06599426,-1.09946567,-2.22167969,3.10983466,-2.74809153,-2.11455544,-0.06675720,-1.05904483,-2.22206116,-0.00976562,0.46386719,-0.19531250,-0.01464844,-0.16113281,-0.01464844,-2.98156738,-0.17693683,-0.17700195,-0.02441406
3.26028585,1140,3.13272284,-2.40705760,-2.25836953,-0.04196167,-1.11550235,-2.81677246,3.11021613,3.88528299,-2.25798806,-0.06599426,-1.09947572,-2.22167969,3.10983466,-2.74084361,-2.11684426,-0.06675720,-1.06285953,-2.22206116,-0.00488281,0.48828125,-0.19042969,-0.02929688,-0.21972656,-0.02929688,-2.98118591,-0.17672414,-0.17700195,-0.02441406
3.27644897,1145,3.13272284,-2.40705760,-2.25836953,-0.04196167,-1.11550235,-2.81677246,3.11021613,3.88528299,-2.25798806,-0.06599426,-1.09947902,-2.22167969,3.10983466,-2.73397715,-2.12027748,-0.06713867,-1.06400394,-2.22206116,-0.00488281,0.45410156,-0.18554688,-0.01464844,-0.05859375,-0.01464844,-2.98118591,-0.17665445,-0.17700195,-0.02441406
3.29011178,1150,3.13272284,-2.40705760,-2.25836953,-0.04196167,-1.11550235,-2.81677246,3.11021613,3.88528298,-2.25798806,-0.06599426,-1.09948010,-2.22167969,3.10983466,-2.72825511,-2.12256630,-0.06713867,-1.06552982,-2.22206116,-0.00488281,0.45410156,-0.18066406,0.00000000,-0.13183594,-0.01464844,-2.98156738,-0.17678420,-0.17700195,0.00000000
3.30479360,1155,3.13272284,-2.40705760,-2.25836953,-0.04196167,-1.11512088,-2.81677246,3.11021613,3.88528298,-2.25798806,-0.06599426,-1.09934312,-2.22167969,3.10983466,-2.72062571,-2.12561806,-0.06713867,-1.07048892,-2.22206116,-0.00976562,0.44921875,-0.16601562,-0.02929688,-0.27832031,-0.01464844,-2.98118591,-0.17677179,-0.17700195,-0.04882812
3.31898594,1160,3.13272284,-2.40705760,-2.25836953,-0.04196167,-1.11512088,-2.81677246,3.11021613,3.88528298,-2.25798806,-0.06599426,-1.09917910,-2.22167969,3.10983466,-2.71528514,-2.12752541,-0.06675720,-1.07277774,-2.22206116,-0.00488281,0.42968750,-0.16601562,0.00000000,-0.16113281,-0.01464844,-2.98118591,-0.17679213,-0.17700195,-0.04882812
3.33305860,1165,3.13272284,-2.40705760,-2.25836953,-0.04196167,-1.11512088,-2.81677246,3.11021613,3.88528298,-2.25798806,-0.06599426,-1.09912535,-2.22167969,3.10983466,-2.70841868,-2.13019570,-0.06675720,-1.07506656,-2.22206116,-0.00488281,0.43457031,-0.18554688,-0.01464844,-0.11718750,-0.01464844,-2.98118591,-0.17679880,-0.17700195,-0.02441406
3.34687209,1170,3.13272284,-2.40705760,-2.25836953,-0.04196167,-1.11512088,-2.81677246,3.11021613,3.88528298,-2.25798806,-0.06599426,-1.09910774,-2.22167969,3.10983466,-2.70345957,-2.13286599,-0.06675720,-1.07697391,-2.22206116,0.00000000,0.40527344,-0.17578125,-0.02929688,-0.16113281,-0.01464844,-2.98118591,-0.17667891,-0.17700195,0.00000000
3.36245036,1175,3.13272284,-2.40705760,-2.25836953,-0.04196167,-1.11512088,-2.81677246,3.11021613,3.88528298,-2.25798806,-0.06599426,-1.09910197,-2.22167969,3.10983466,-2.69621165,-2.13553627,-0.06675720,-1.08002567,-2.22206116,-0.00488281,0.40527344,-0.17089844,-0.01464844,-0.11718750,-0.01464844,-2.98118591,-0.17670213,-0.17700195,0.00000000
3.37734461,1180,3.13272284,-2.40705760,-2.25836953,-0.04196167,-1.11473941,-2.81677246,3.11021613,3.88528298,-2.25798806,-0.06599426,-1.09891392,-2.22167969,3.10983466,-2.69010813,-2.13820656,-0.06675720,-1.08117008,-2.22206116,-0.00488281,0.39550781,-0.16113281,-0.01464844,-0.07324219,-0.01464844,-2.98156738,-0.17679983,-0.17700195,0.00000000
3.39313078,1185,3.13272284,-2.40705760,-2.25836953,-0.04196167,-1.11473941,-2.81677246,3.11021613,3.88528298,-2.25798806,-0.06599426,-1.09878199,-2.22167969,3.10983466,-2.68476756,-2.14049538,-0.06713867,-1.08231449,-2.22206116,0.00000000,0.36621094,-0.15625000,-0.01464844,-0.02929688,-0.01464844,-2.98118591,-0.17667925,-0.17700195,-0.02441406
3.40509081,1190,3.13272284,-2.40705760,-2.25798806,-0.04196167,-1.11473941,-2.81677246,3.11021613,3.88528298,-2.25773159,-0.06599426,-1.09873875,-2.22167969,3.10983466,-2.68018992,-2.14240273,-0.06675720,-1.08269596,-2.22244263,-0.00976562,0.36621094,-0.15136719,-0.02929688,-0.05859375,-0.01464844,-2.98118591,-0.17663974,-0.17700195,-0.04882812
3.41934943,1195,3.13272284,-2.40705760,-2.25798806,-0.04196167,-1.11473941,-2.81677246,3.11021613,3.88528298,-2.25764755,-0.06599426,-1.09872459,-2.22167969,3.10983466,-2.67484935,-2.14431008,-0.06713867,-1.08422183,-2.22206116,-0.00488281,0.38085938,-0.14648438,-0.01464844,-0.07324219,-0.01464844,-2.98118591,-0.17674886,-0.17700195,-0.04882812
3.43698859,1200,3.13272284,-2.40705760,-2.25798806,-0.04196167,-1.11473941,-2.81677246,3.11021613,3.88528298,-2.25762001,-0.06599426,-1.09871995,-2.22167969,3.10983466,-2.66912730,-2.14659890,-0.06713867,-1.08498477,-2.22206116,-0.00488281,0.37597656,-0.13671875,0.00000000,-0.02929688,-0.01464844,-2.98118591,-0.17666255,-0.17700195,-0.02441406
3.44954920,1205,3.13272284,-2.40705760,-2.25798806,-0.04196167,-1.11473941,-2.81677246,3.11021613,3.88528298,-2.25761098,-0.06599426,-1.09871843,-2.22167969,3.10983466,-2.66302378,-2.14888771,-0.06675720,-1.08536624,-2.22206116,-0.00488281,0.37597656,-0.14648438,0.00000000,-0.02929688,-0.02929688,-2.98118591,-0.17663427,-0.17700195,0.00000000
3.46546006,1210,3.13272284,-2.40705760,-2.25798806,-0.04196167,-1.11473941,-2.81677246,3.11021613,3.88528298,-2.25760803,-0.06599426,-1.09871793,-2.22167969,3.10983466,-2.65806468,-2.15117653,-0.06675720,-1.08612918,-2.22206116,-0.00976562,0.35644531,-0.14160156,-0.01464844,-0.01464844,-0.01464844,-2.98118591,-0.17662500,-0.17700195,-0.02441406
3.47838616,1215,3.13272284,-2.40705760,-2.25760659,-0.04196167,-1.11473941,-2.81677246,3.11021613,3.88528298,-2.25742090,-0.06599426,-1.09871776,-2.22167969,3.10983466,-2.65310557,-2.15270241,-0.06675720,-1.08651065,-2.22206116,-0.00488281,0.34179688,-0.12207031,-0.01464844,-0.02929688,-0.01464844,-2.98156738,-0.17683705,-0.17700195,-0.04882812
3.49474955,1220,3.13272284,-2.40705760,-2.25646218,-0.04196167,-1.11473941,-2.81677246,3.11021613,3.88528298,-2.25677035,-0.06599426,-1.09871771,-2.22167969,3.10983466,-2.64738352,-2.15499123,-0.06675720,-1.08765506,-2.22206116,0.00000000,0.32226562,-0.12695312,-0.01464844,-0.07324219,-0.01464844,-2.98156738,-0.17701982,-0.17700195,-0.04882812
3.50822639,1225,3.13272284,-2.40705760,-2.25608071,-0.04196167,-1.11473941,-2.81677246,3.11021613,3.88528298,-2.25608147,-0.06599426,-1.09871769,-2.22167969,3.10983466,-2.64318736,-2.15651711,-0.06713867,-1.08841800,-2.22206116,-0.00488281,0.33203125,-0.11718750,-0.02929688,-0.01464844,-0.01464844,-2.98156738,-0.17718615,-0.17700195,-0.02441406
3.52219510,1230,3.13272284,-2.40705760,-2.25455483,-0.04196167,-1.11435794,-2.81677246,3.11021613,3.88528298,-2.25508035,-0.06599426,-1.09850028,-2.22167969,3.10983466,-2.63746531,-2.15918740,-0.06675720,-1.08841800,-2.22206116,-0.00488281,0.30761719,-0.15136719,-0.01464844,-0.00000000,-0.01464844,-2.98118591,-0.17680584,-0.17700195,-0.04882812
3.53836608,1235,3.13272284,-2.40705760,-2.25302895,-0.04196167,-1.11473941,-2.81677246,3.11021613,3.88528298,-2.25377525,-0.06599426,-1.09861520,-2.22167969,3.10983466,-2.63326915,-2.16109474,-0.06675720,-1.08918094,-2.22206116,-0.00488281,0.32226562,-0.13671875,-0.01464844,-0.04394531,-0.01464844,-2.98118591,-0.17677888,-0.17700195,0.02441406
3.55245233,1240,3.13272284,-2.40705760,-2.25188454,-0.04196167,-1.11435794,-2.81677246,3.11021613,3.88528298,-2.25239801,-0.06599426,-1.09845888,-2.22167969,3.10983466,-2.62831004,-2.16262062,-0.06675720,-1.08994388,-2.22206116,-0.00488281,0.29296875,-0.13183594,0.00000000,-0.04394531,-0.01464844,-2.98118591,-0.17667239,-0.17700195,-0.02441406
3.56734109,1245,3.13272284,-2.40705760,-2.24959572,-0.04196167,-1.11473941,-2.81677246,3.11021613,3.88528298,-2.25057049,-0.06599426,-1.09856257,-2.22167969,3.10983466,-2.62411387,-2.16490944,-0.06675720,-1.09032535,-2.22206116,-0.00488281,0.29785156,-0.14160156,0.00000000,-0.00000000,-0.01464844,-2.98118591,-0.17663749,-0.17700195,-0.04882812
3.58034205,1250,3.13272284,-2.40705760,-2.24768837,-0.04196167,-1.11435794,-2.81677246,3.11021613,3.88528298,-2.24867710,-0.06599426,-1.09844164,-2.22167969,3.10983466,-2.62029917,-2.16605385,-0.06675720,-1.09108829,-2.22206116,-0.00488281,0.29296875,-0.10742188,-0.01464844,-0.05859375,-0.01464844,-2.98118591,-0.17668856,-0.17700195,-0.02441406
3.59504843,1255,3.13272284,-2.40705760,-2.24539955,-0.04196167,-1.11435794,-2.81677246,3.11021613,3.88528298,-2.24661795,-0.06599426,-1.09840982,-2.22167969,3.10983466,-2.61572154,-2.16796120,-0.06675720,-1.09223270,-2.22206116,-0.00488281,0.27343750,-0.09277344,-0.01464844,-0.07324219,-0.01464844,-2.98118591,-0.17664279,-0.17700195,-0.02441406
3.60827279,1260,3.13272284,-2.40705760,-2.24311074,-0.04196167,-1.11473941,-2.81677246,3.11021613,3.88528298,-2.24429453,-0.06599426,-1.09858555,-2.22167969,3.10983466,-2.61190684,-2.16910561,-0.06675720,-1.09299564,-2.22206116,-0.00976562,0.30761719,-0.08789062,-0.04394531,-0.01464844,-0.01464844,-2.98118591,-0.17669029,-0.17700195,-0.02441406
3.62414527,1265,3.13272284,-2.40705760,-2.24005898,-0.04196167,-1.11473941,-2.81677246,3.11021613,3.88528298,-2.24184178,-0.06599426,-1.09863533,-2.22167969,3.10983466,-2.60694773,-2.17101296,-0.06675720,-1.09299564,-2.22206116,-0.00488281,0.29296875,-0.09277344,-0.01464844,-0.00000000,-0.01464844,-2.98118591,-0.17670586,-0.17700195,0.00000000
3.63845205,1270,3.13272284,-2.40705760,-2.23624428,-0.04196167,-1.11473941,-2.81677246,3.11021613,3.88528298,-2.23870237,-0.06599426,-1.09855935,-2.22167969,3.10983466,-2.60313304,-2.17253884,-0.06675720,-1.09337711,-2.22206116,0.00000000,0.26855469,-0.10253906,-0.01464844,-0.02929688,0.00000000,-2.98118591,-0.17664846,-0.17700195,0.00000000
3.65260553,1275,3.13272284,-2.40705760,-2.23281105,-0.04196167,-1.11473941,-2.81677246,3.11021613,3.88528298,-2.23508466,-0.06599426,-1.09866580,-2.22167969,3.10983466,-2.59893687,-2.17368325,-0.06675720,-1.09414005,-2.22206116,-0.00488281,0.28808594,-0.08300781,0.00000000,-0.04394531,0.00000000,-2.98118591,-0.17684938,-0.17700195,0.00000000
3.66944814,1280,3.13272284,-2.40705760,-2.22823342,-0.04196167,-1.11473941,-2.81677246,3.11021613,3.88528298,-2.23119413,-0.06599426,-1.09870068,-2.22167969,3.10983466,-2.59435923,-2.17444619,-0.06713867,-1.09490299,-2.22206116,-0.00488281,0.26855469,-0.04882812,-0.02929688,-0.01464844,-0.01464844,-2.98118591,-0.17681756,-0.17700195,0.00000000
3.68181562,1285,3.13272284,-2.40705760,-2.22441872,-0.04196167,-1.11473941,-2.81677246,3.11021613,3.88528298,-2.22728623,-0.06599426,-1.09871211,-2.22167969,3.10983466,-2.59054454,-2.17597206,-0.06675720,-1.09528446,-2.22206116,-0.00488281,0.26367188,-0.08789062,0.00000000,-0.00000000,0.00000000,-2.98156738,-0.17693530,-0.17700195,-0.04882812
3.69783068,1290,3.13272284,-2.40705760,-2.21945961,-0.04196167,-1.11473941,-2.81677246,3.11021613,3.88528298,-2.22305195,-0.06599426,-1.09871586,-2.22167969,3.10983466,-2.58672984,-2.17673500,-0.06675720,-1.09528446,-2.22206116,-0.00488281,0.26855469,-0.06835938,0.00000000,-0.01464844,-0.01464844,-2.98118591,-0.17672364,-0.17700195,-0.02441406
3.71181583,1295,3.13272284,-2.40705760,-2.21411904,-0.04196167,-1.11473941,-2.81677246,3.11021613,3.88528298,-2.21813687,-0.06599426,-1.09871709,-2.22167969,3.10983466,-2.58329661,-2.17787941,-0.06675720,-1.09566593,-2.22206116,0.00000000,0.24414062,-0.05859375,-0.02929688,-0.00000000,0.00000000,-2.98156738,-0.17692895,-0.17700195,-0.02441406
3.72501779,1300,3.13272284,-2.40705760,-2.20992287,-0.04196167,-1.11473941,-2.81677246,3.11021613,3.88528298,-2.21331011,-0.06599426,-1.09871749,-2.22167969,3.10983466,-2.58138926,-2.17826088,-0.06675720,-1.09566593,-2.22206116,-0.00976562,0.23925781,-0.03906250,0.00000000,-0.00000000,0.00000000,-2.98118591,-0.17681922,-0.17700195,-0.02441406
3.73941016,1305,3.13272284,-2.40705760,-2.20496376,-0.04196167,-1.11473941,-2.81677246,3.11021613,3.88528298,-2.20826254,-0.06599426,-1.09871762,-2.22167969,3.10983466,-2.57681163,-2.17902382,-0.06675720,-1.09642887,-2.22206116,-0.00976562,0.23925781,-0.03906250,-0.02929688,-0.00000000,0.00000000,-2.98118591,-0.17686139,-0.17700195,-0.04882812
3.75428462,1310,3.13272284,-2.40705760,-2.19809731,-0.04196167,-1.11512088,-2.81677246,3.11021613,3.88528298,-2.20233536,-0.06599426,-1.09879396,-2.22167969,3.10983466,-2.57337840,-2.17978676,-0.06675720,-1.09642887,-2.22206116,-0.00488281,0.23437500,-0.02441406,-0.01464844,-0.00000000,-0.02929688,-2.98118591,-0.17669942,-0.17700195,0.00000000
3.76718068,1315,3.13272284,-2.40705760,-2.19275673,-0.04158020,-1.11588382,-2.81677246,3.11021613,3.88528298,-2.19697736,-0.06591797,-1.09932263,-2.22167969,3.10983466,-2.57032664,-2.18016823,-0.06675720,-1.09642887,-2.22206116,-0.00488281,0.21484375,-0.00976562,-0.01464844,-0.00000000,0.00000000,-2.98118591,-0.17664635,-0.17700195,-0.02441406
3.78190827,1320,3.13272284,-2.40705760,-2.18665322,-0.04196167,-1.11855411,-2.81677246,3.11021613,3.88528298,-2.19091599,-0.06588137,-1.10093911,-2.22167969,3.10983466,-2.56651194,-2.18054970,-0.06675720,-1.09642887,-2.22206116,-0.00488281,0.22949219,-0.01953125,-0.01464844,0.01464844,-0.01464844,-2.98118591,-0.17662896,-0.17700195,-0.02441406
3.79431558,1325,3.13272284,-2.40705760,-2.18207558,-0.04158020,-1.12236881,-2.81677246,3.11021613,3.88528298,-2.18549719,-0.06570080,-1.10385624,-2.22167969,3.10983466,-2.56384165,-2.18054970,-0.06675720,-1.09642887,-2.22206116,-0.00488281,0.23437500,-0.00976562,0.00000000,0.02929688,-0.01464844,-2.98118591,-0.17670139,-0.17700195,-0.02441406
3.80840421,1330,3.13272284,-2.40705760,-2.17635353,-0.04119873,-1.12999820,-2.81677246,3.11021613,3.88528298,-2.18002099,-0.06541641,-1.10931262,-2.22167969,3.10983466,-2.56040843,-2.18093117,-0.06675720,-1.09681034,-2.22206116,-0.00488281,0.23437500,-0.00976562,-0.01464844,-0.00000000,-0.01464844,-2.98156738,-0.17692165,-0.17700195,-0.02441406
3.82190967,1335,3.13272284,-2.40705760,-2.17101296,-0.04043579,-1.13991641,-2.81677246,3.11021613,3.88528298,-2.17477758,-0.06495921,-1.11702659,-2.22167969,3.10983466,-2.55811961,-2.18093117,-0.06675720,-1.09681034,-2.22206116,-0.00488281,0.21972656,-0.00000000,-0.01464844,-0.00000000,-0.01464844,-2.98118591,-0.17671917,-0.17700195,0.00000000
3.83501077,1340,3.13272284,-2.40705760,-2.16643532,-0.04043579,-1.14830875,-2.81677246,3.11021613,3.88528298,-2.16958041,-0.06466828,-1.12597398,-2.22167969,3.10983466,-2.55506785,-2.18093117,-0.06675720,-1.09757328,-2.22206116,-0.00488281,0.22460938,-0.00000000,-0.01464844,-0.04394531,0.00000000,-2.98118591,-0.17665282,-0.17700195,-0.02441406
3.84851217,1345,3.13272284,-2.40705760,-2.16033181,-0.04081726,-1.16127872,-2.81677246,3.11021613,3.88528298,-2.16427047,-0.06475911,-1.13639781,-2.22167969,3.10983466,-2.55201609,-2.18093117,-0.06675720,-1.09871768,-2.22206116,-0.00488281,0.20019531,0.00976562,-0.01464844,-0.10253906,-0.01464844,-2.98118591,-0.17663108,-0.17738342,-0.02441406
3.86508060,1350,3.13272284,-2.40705760,-2.15308388,-0.04081726,-1.17691898,-2.81677246,3.11021613,3.88528298,-2.15831725,-0.06482012,-1.14904896,-2.22167969,3.10983466,-2.54896434,-2.18093117,-0.06675720,-1.10138797,-2.22206116,-0.00488281,0.20507812,0.00488281,-0.01464844,-0.16113281,-0.01464844,-2.98118591,-0.17662396,-0.17700195,-0.02441406
3.88138819,1355,3.13272284,-2.40705760,-2.14621743,-0.04119873,-1.19255924,-2.81677246,3.11021613,3.88528298,-2.15178862,-0.06491640,-1.16350516,-2.22167969,3.10983466,-2.54476817,-2.18093117,-0.06675720,-1.10672855,-2.22206116,-0.00488281,0.20507812,0.00976562,0.00000000,-0.29296875,-0.01464844,-2.98118591,-0.17662162,-0.17700195,-0.02441406
3.89660168,1360,3.13272284,-2.40705760,-2.14011391,-0.04119873,-1.20667362,-2.81677246,3.11021613,3.88528298,-2.14515762,-0.06509688,-1.17848496,-2.22167969,3.10983466,-2.54209788,-2.18054970,-0.06675720,-1.11130619,-2.22206116,-0.00488281,0.19042969,0.01464844,-0.02929688,-0.27832031,0.00000000,-2.98118591,-0.17662086,-0.17700195,-0.02441406
3.91052914,1365,3.13272284,-2.40705760,-2.13477333,-0.04119873,-1.21735477,-2.81677246,3.11021613,3.88528298,-2.13934341,-0.06518727,-1.19119628,-2.22167969,3.10983466,-2.53980906,-2.18054970,-0.06637573,-1.11473941,-2.22206116,-0.00488281,0.17089844,0.01953125,0.00000000,-0.29296875,-0.01464844,-2.98118591,-0.17662061,-0.17700195,-0.02441406
3.92348933,1370,3.13272284,-2.40705760,-2.12752541,-0.04119873,-1.23146915,-2.81677246,3.11021613,3.88528298,-2.13256969,-0.06521689,-1.20466780,-2.22167969,3.10983466,-2.53713877,-2.17978676,-0.06675720,-1.12007999,-2.22206116,-0.00488281,0.16113281,0.05371094,-0.02929688,-0.35156250,-0.01464844,-2.98118591,-0.17662052,-0.17700195,-0.02441406
3.93802214,1375,3.13272284,-2.40705760,-2.12218483,-0.04119873,-1.24176883,-2.81677246,3.11021613,3.88528298,-2.12643186,-0.06522659,-1.21672656,-2.22167969,3.10983466,-2.53523143,-2.17940529,-0.06675720,-1.12656497,-2.22206116,0.00000000,0.16601562,0.05859375,-0.02929688,-0.46875000,-0.01464844,-2.98118591,-0.17662050,-0.17700195,-0.04882812
3.95310521,1380,3.13272284,-2.40705760,-2.11569985,-0.04119873,-1.25206851,-2.81677246,3.11021613,3.88528298,-2.12004940,-0.06522977,-1.22794250,-2.22167969,3.10983466,-2.53179820,-2.17787941,-0.06675720,-1.13572025,-2.22206116,-0.00488281,0.18066406,0.07324219,-0.01464844,-0.52734375,-0.01464844,-2.98118591,-0.17662049,-0.17700195,-0.02441406
3.96702433,1385,3.13272284,-2.40705760,-2.10845192,-0.04119873,-1.26465702,-2.81677246,3.11021613,3.88528298,-2.11348009,-0.06523082,-1.23924774,-2.22167969,3.10983466,-2.52912791,-2.17711647,-0.06637573,-1.14258670,-2.22206116,-0.00488281,0.18066406,0.05859375,0.00000000,-0.42480469,-0.01464844,-2.98118591,-0.17662048,-0.17700195,0.00000000
3.97979069,1390,3.13272284,-2.40705760,-2.10425576,-0.04119873,-1.27266788,-2.81677246,3.11021613,3.88528298,-2.10785053,-0.06523116,-1.24933664,-2.22167969,3.10983466,-2.52722056,-2.17635353,-0.06637573,-1.14640140,-2.22206116,-0.00976562,0.19042969,0.06347656,0.00000000,-0.38085938,-0.01464844,-2.98118591,-0.17662048,-0.17700195,0.00000000
3.99301481,1395,3.13272284,-2.40705760,-2.09929665,-0.04119873,-1.28220462,-2.81677246,3.11021613,3.88528298,-2.10256577,-0.06523127,-1.25916857,-2.22167969,3.10983466,-2.52455027,-2.17520912,-0.06599426,-1.15403079,-2.22206116,-0.00488281,0.18554688,0.06835938,0.00000000,-0.55664062,-0.01464844,-2.98118591,-0.17662048,-0.17700195,-0.04882812
4.00576544,1400,3.13272284,-2.40705760,-2.09357460,-0.04119873,-1.29326724,-2.81677246,3.11021613,3.88528298,-2.09728682,-0.06523131,-1.26922831,-2.22167969,3.10983466,-2.52226145,-2.17368325,-0.06637573,-1.16280460,-2.22206116,-0.00488281,0.18066406,0.14160156,-0.04394531,-0.58593750,-0.01464844,-2.98118591,-0.17662048,-0.17700195,-0.02441406
4.01902747,1405,3.13272284,-2.40705760,-2.08899697,-0.04119873,-1.30242252,-2.81677246,3.11021613,3.88528298,-2.09269715,-0.06523132,-1.27847342,-2.22167969,3.10983466,-2.52035411,-2.17215737,-0.06637573,-1.16890811,-2.22206116,-0.00488281,0.15625000,0.12695312,-0.01464844,-0.45410156,-0.01464844,-2.98118591,-0.17662048,-0.17700195,-0.02441406
4.03061080,1410,3.13272284,-2.40705760,-2.08518227,-0.04119873,-1.30967044,-2.81677246,3.11021613,3.88528298,-2.08827011,-0.06523132,-1.28704912,-2.22167969,3.10983466,-2.51844676,-2.17101296,-0.06599426,-1.17463016,-2.22206116,-0.00488281,0.16113281,0.10253906,0.00000000,-0.43945312,-0.01464844,-2.98118591,-0.17662048,-0.17700195,0.00000000
4.04608440,1415,3.13272284,-2.40705760,-2.07984169,-0.04081726,-1.31997013,-2.81677246,3.11021613,3.88528298,-2.08330847,-0.06509399,-1.29642696,-2.22167969,3.10983466,-2.51577647,-2.16948708,-0.06599426,-1.18264102,-2.22206116,-0.00488281,0.16113281,0.10742188,0.00000000,-0.60058594,-0.01464844,-2.98156738,-0.17693323,-0.17700195,-0.02441406
4.06086135,1420,3.13272284,-2.40705760,-2.07564553,-0.04081726,-1.32912540,-2.81677246,3.11021613,3.88528298,-2.07877993,-0.06499089,-1.30547010,-2.22167969,3.10983466,-2.51348765,-2.16757973,-0.06599426,-1.19294071,-2.22206116,-0.00976562,0.15625000,0.11718750,0.00000000,-0.68847656,-0.01464844,-2.98156738,-0.17709528,-0.17700195,-0.04882812
4.07497621,1425,3.13272284,-2.40705760,-2.07183083,-0.04081726,-1.33637332,-2.81677246,3.11021613,3.88528298,-2.07466248,-0.06489607,-1.31400208,-2.22167969,3.10983466,-2.51119883,-2.16643532,-0.06599426,-1.19942569,-2.22206116,-0.00488281,0.16113281,0.12695312,-0.01464844,-0.58593750,-0.01464844,-2.98118591,-0.17695185,-0.17700195,-0.02441406
4.08780169,1430,3.13272284,-2.40705760,-2.06916054,-0.04081726,-1.34209537,-2.81677246,3.11021613,3.88528298,-2.07125822,-0.06486500,-1.32084752,-2.22167969,3.10983466,-2.50891001,-2.16452797,-0.06561279,-1.20972537,-2.22206116,-0.00488281,0.13671875,0.13183594,-0.02929688,-0.60058594,-0.01464844,-2.98118591,-0.17680719,-0.17700195,-0.04882812
4.10200143,1435,3.13272284,-2.40705760,-2.06725319,-0.04081726,-1.34705448,-2.81677246,3.11021613,3.88528298,-2.06867872,-0.06485482,-1.32668646,-2.22167969,3.10983466,-2.50738414,-2.16300209,-0.06599426,-1.21735477,-2.22206116,-0.00488281,0.13671875,0.13183594,-0.02929688,-0.62988281,-0.01464844,-2.98156738,-0.17695632,-0.17700195,-0.04882812
4.11486483,1440,3.13272284,-2.40705760,-2.06572731,-0.04081726,-1.35125064,-2.81677246,3.11021613,3.88528298,-2.06676853,-0.06485148,-1.33167924,-2.22167969,3.10983466,-2.50509532,-2.16109474,-0.06599426,-1.22574710,-2.22206116,-0.00488281,0.13183594,0.13671875,0.02929688,-0.52734375,-0.01464844,-2.98118591,-0.17696881,-0.17700195,-0.02441406
4.12922478,1445,3.13272284,-2.40705760,-2.06496437,-0.04081726,-1.35544681,-2.81677246,3.11021613,3.88528298,-2.06536940,-0.06485039,-1.33635763,-2.22167969,3.10983466,-2.50356944,-2.15918740,-0.06599426,-1.23261356,-2.22206116,-0.00488281,0.12695312,0.13183594,0.00000000,-0.58593750,-0.01464844,-2.98156738,-0.17707178,-0.17700195,-0.02441406
