MingxuanLei/DMarm_date_collection/data/episode_02/trajectory/teach_record_20260627_222029.csv
time_s,loop_count,master_q1,master_q2,master_q3,master_q4,master_q5,master_q6,slave_target_q1,slave_target_q2,slave_target_q3,slave_target_q4,slave_target_q5,slave_target_q6,slave_actual_q1,slave_actual_q2,slave_actual_q3,slave_actual_q4,slave_actual_q5,slave_actual_q6,slave_actual_v1,slave_actual_v2,slave_actual_v3,slave_actual_v4,slave_actual_v5,slave_actual_v6,master_tool,slave_tool_target,slave_tool_actual,slave_tool_actual_vel
0.02443981,5,3.02400397,-2.31474192,-2.55553444,0.03738403,-1.59195804,-2.70004272,3.04749152,2.74942971,-1.61156044,0.02267029,-1.57753543,-2.03361511,3.06749152,2.72904824,-1.59156044,0.00228882,-1.58356571,-2.03361511,-0.00488281,-0.00488281,0.00488281,-0.01464844,0.02929688,0.00000000,-2.97584534,-0.18272400,-0.18272400,-0.04882812
0.03924251,10,3.02400397,-2.31474192,-2.55553444,0.03738403,-1.59195804,-2.70004272,3.02749152,2.76942971,-1.63156044,0.04260920,-1.57543443,-2.03361511,3.06711005,2.72904824,-1.59156044,0.00267029,-1.58356571,-2.03361511,-0.01953125,0.00000000,0.00488281,0.00000000,-0.00000000,-0.01464844,-2.97546387,-0.18241125,-0.18272400,0.00000000
0.05207419,15,3.02400397,-2.31474192,-2.55553444,0.03738403,-1.59195804,-2.70004272,3.00749152,2.78942971,-1.65156044,0.05320205,-1.57474598,-2.03361511,3.06711005,2.72942971,-1.59156044,0.00305176,-1.58356571,-2.03361511,-0.03906250,0.01464844,-0.00000000,0.01464844,0.02929688,-0.02929688,-2.97584534,-0.18238324,-0.18272400,0.00000000
0.06474257,20,3.02400397,-2.31474192,-2.55553444,0.03738403,-1.59195804,-2.70004272,2.98749152,2.80942971,-1.67156044,0.05667312,-1.57452038,-2.03361511,3.06634711,2.72981118,-1.59194191,0.00381470,-1.58356571,-2.03361511,-0.06347656,0.02929688,-0.02441406,0.05859375,0.01464844,0.00000000,-2.97584534,-0.18253421,-0.18272400,-0.02441406
0.08082032,25,3.02400397,-2.31474192,-2.55553444,0.03738403,-1.59195804,-2.70004272,2.97142844,2.82942971,-1.69156044,0.05781052,-1.57444646,-2.03361511,3.06482123,2.73057412,-1.59270485,0.00534058,-1.58356571,-2.03361511,-0.10253906,0.03417969,-0.03417969,0.07324219,0.02929688,0.00000000,-2.97546387,-0.18250922,-0.18272400,-0.02441406
0.09548163,30,3.02400397,-2.31474192,-2.55553444,0.03776550,-1.59195804,-2.70004272,2.96574086,2.84942971,-1.71156044,0.05836937,-1.57442224,-2.03361511,3.06291388,2.73133706,-1.59384926,0.00801086,-1.58356571,-2.03361511,-0.12695312,0.04394531,-0.07324219,0.20507812,0.01464844,-0.01464844,-2.97546387,-0.18228131,-0.18272400,-0.02441406
0.10974455,35,3.02400397,-2.31474192,-2.55553444,0.03738403,-1.59195804,-2.70004272,2.96387716,2.86942971,-1.73156044,0.05849769,-1.57441430,-2.03361511,3.06100653,2.73210000,-1.59499367,0.01296997,-1.58318424,-2.03361511,-0.14160156,0.06835938,-0.08300781,0.38085938,0.02929688,-0.01464844,-2.97546387,-0.18230428,-0.18272400,-0.02441406
0.12354040,40,3.02400397,-2.31474192,-2.55553444,0.03776550,-1.59195804,-2.70004272,2.96326646,2.88942971,-1.75156044,0.05848469,-1.57441170,-2.03361511,3.05871772,2.73324441,-1.59651955,0.01983643,-1.58318424,-2.03361511,-0.13671875,0.06835938,-0.10253906,0.42480469,0.01464844,-0.01464844,-2.97584534,-0.18258647,-0.18234253,0.00000000
0.13626456,45,3.02400397,-2.31474192,-2.55553444,0.03738403,-1.59195804,-2.70004272,2.96306635,2.90942971,-1.77156044,0.05843538,-1.57441085,-2.03361511,3.05719184,2.73515176,-1.59842690,0.02517700,-1.58318424,-2.03399658,-0.14160156,0.15136719,-0.16113281,0.38085938,0.01464844,-0.01464844,-2.97546387,-0.18252634,-0.18234253,-0.02441406
0.15163207,50,3.02400397,-2.31474192,-2.55553444,0.03738403,-1.59195804,-2.70004272,2.96300077,2.92942971,-1.79156044,0.05841922,-1.57441057,-2.03361511,3.05528449,2.73744058,-1.60147866,0.02861023,-1.58318424,-2.03361511,-0.14160156,0.19042969,-0.21484375,0.24902344,0.01464844,-0.01464844,-2.97584534,-0.18265923,-0.18272400,-0.02441406
0.16675758,55,3.02400397,-2.31474192,-2.55553444,0.03738403,-1.59195804,-2.70004272,2.96297929,2.94942971,-1.81156044,0.05849254,-1.57441048,-2.03361511,3.05337714,2.74239968,-1.60605629,0.03356934,-1.58318424,-2.03399658,-0.12695312,0.29785156,-0.27832031,0.27832031,0.01464844,-0.02929688,-2.97584534,-0.18270278,-0.18272400,-0.02441406
0.18000555,60,3.02400397,-2.31474192,-2.55553444,0.03776550,-1.59195804,-2.70004272,2.96297225,2.96942971,-1.83156044,0.05860214,-1.57441045,-2.03361511,3.05185126,2.74621438,-1.61025246,0.03509521,-1.58280277,-2.03399658,-0.11718750,0.31250000,-0.31250000,0.07324219,0.02929688,0.00000000,-2.97584534,-0.18259497,-0.18272400,-0.02441406
0.19354033,65,3.02400397,-2.31474192,-2.55553444,0.03738403,-1.59195804,-2.70004272,2.96296994,2.98942971,-1.85156044,0.05848168,-1.57441044,-2.03361511,3.04994391,2.75079202,-1.61444863,0.03471375,-1.58280277,-2.03361511,-0.12207031,0.31738281,-0.31738281,-0.05859375,0.01464844,-0.01464844,-2.97584534,-0.18268172,-0.18272400,-0.04882812
0.20752764,70,3.02400397,-2.31474192,-2.55553444,0.03776550,-1.59195804,-2.70004272,2.96296918,3.00942971,-1.87156044,0.05858930,-1.57441043,-2.03361511,3.04841803,2.75536965,-1.61826332,0.03471375,-1.58242130,-2.03399658,-0.13183594,0.30761719,-0.27343750,0.00000000,0.04394531,-0.01464844,-2.97584534,-0.18258807,-0.18272400,-0.04882812
0.22439551,75,3.02400397,-2.31474192,-2.55553444,0.03776550,-1.59195804,-2.70004272,2.96296894,3.02942971,-1.89156044,0.05864605,-1.57441043,-2.03361511,3.04651068,2.76032876,-1.62360390,0.03509521,-1.58203983,-2.03361511,-0.11718750,0.30273438,-0.30273438,-0.01464844,0.05859375,-0.01464844,-2.97584534,-0.18244118,-0.18272400,0.00000000
0.23988605,80,3.02400397,-2.31512339,-2.55553444,0.03776550,-1.59195804,-2.70004272,2.96296885,3.04942971,-1.91156044,0.05859434,-1.57441043,-2.03361511,3.04498481,2.76566934,-1.62932595,0.03547668,-1.58203983,-2.03399658,-0.12207031,0.34179688,-0.35156250,0.04394531,0.02929688,-0.01464844,-2.97584534,-0.18255320,-0.18234253,0.00000000
0.25586200,85,3.02400397,-2.31550486,-2.55553444,0.03776550,-1.59195804,-2.70004272,2.96296883,3.06942971,-1.93156044,0.05860864,-1.57441043,-2.03361511,3.04307746,2.77177285,-1.63504799,0.03890991,-1.58165836,-2.03361511,-0.11718750,0.37597656,-0.39062500,0.19042969,0.01464844,-0.01464844,-2.97546387,-0.18233966,-0.18272400,-0.02441406
0.26963735,90,3.02400397,-2.31550486,-2.55553444,0.03738403,-1.59195804,-2.70004272,2.96296882,3.08942971,-1.95156044,0.05851506,-1.57441043,-2.03361511,3.04155158,2.77749490,-1.64115151,0.04158020,-1.58127689,-2.03361511,-0.10253906,0.41015625,-0.41503906,0.17578125,0.07324219,0.00000000,-2.97584534,-0.18233536,-0.18272400,-0.02441406
0.28552008,95,3.02400397,-2.31550486,-2.55553444,0.03776550,-1.59195804,-2.70004272,2.96296882,3.10942971,-1.97156044,0.05849038,-1.57441043,-2.03361511,3.03964423,2.78436135,-1.64763649,0.04272461,-1.57975101,-2.03361511,-0.11230469,0.41992188,-0.42480469,0.04394531,0.10253906,0.00000000,-2.97584534,-0.18237692,-0.18272400,-0.04882812
0.29953790,100,3.02400397,-2.31588633,-2.55553444,0.03738403,-1.59195804,-2.70004272,2.96296881,3.12942971,-1.99156044,0.05848607,-1.57441043,-2.03361511,3.03849982,2.79008340,-1.65335854,0.04463196,-1.57898807,-2.03399658,-0.10253906,0.43945312,-0.41503906,0.11718750,0.07324219,-0.01464844,-2.97584534,-0.18261027,-0.18272400,-0.02441406
0.31548810,105,3.02400397,-2.31626780,-2.55553444,0.03738403,-1.59195804,-2.70004272,2.96296881,3.14942971,-2.01156044,0.05849687,-1.57441043,-2.03361511,3.03697394,2.79694985,-1.65946205,0.04653931,-1.57860660,-2.03361511,-0.09765625,0.44433594,-0.41992188,0.05859375,0.04394531,0.00000000,-2.97584534,-0.18251095,-0.18272400,-0.02441406
0.32924223,110,3.02400397,-2.31626780,-2.55553444,0.03738403,-1.59195804,-2.70004272,2.96296881,3.16942971,-2.03156044,0.05854924,-1.57441043,-2.03361511,3.03544806,2.80343484,-1.66670998,0.04730225,-1.57860660,-2.03399658,-0.10742188,0.46875000,-0.44433594,0.02929688,0.02929688,-0.01464844,-2.97584534,-0.18253212,-0.18272400,0.00000000
0.34671402,115,3.02400397,-2.31664927,-2.55553444,0.03738403,-1.59195804,-2.70004272,2.96296881,3.18942971,-2.05156044,0.05850536,-1.57441043,-2.03361511,3.03392218,2.81106423,-1.67395790,0.04920959,-1.57860660,-2.03399658,-0.11230469,0.47851562,-0.49316406,0.08789062,0.01464844,-0.02929688,-2.97584534,-0.18266112,-0.18272400,-0.04882812
0.35960722,120,3.02400397,-2.31703074,-2.55553444,0.03776550,-1.59195804,-2.70004272,2.96296881,3.20942971,-2.07156044,0.05856728,-1.57441043,-2.03361511,3.03277777,2.81793069,-1.68158730,0.05035400,-1.57860660,-2.03361511,-0.08300781,0.48828125,-0.52734375,0.13183594,0.01464844,0.00000000,-2.97584534,-0.18246511,-0.18272400,-0.02441406
0.37242317,125,3.02400397,-2.31741221,-2.55553444,0.03776550,-1.59195804,-2.70004272,2.96296881,3.22942971,-2.09156044,0.05868766,-1.57441043,-2.03361511,3.03163337,2.82441567,-1.68769081,0.05073547,-1.57822513,-2.03361511,-0.10742188,0.52734375,-0.53710938,-0.01464844,-0.00000000,-0.01464844,-2.97546387,-0.18226685,-0.18272400,-0.02441406
0.38709092,130,3.02400397,-2.31779368,-2.55553444,0.03738403,-1.59195804,-2.70004272,2.96296881,3.24942971,-2.11156044,0.05860199,-1.57441043,-2.03361511,3.02972602,2.83357095,-1.69684609,0.05073547,-1.57860660,-2.03361511,-0.11718750,0.54199219,-0.52734375,0.00000000,-0.00000000,-0.01464844,-2.97584534,-0.18251170,-0.18272400,0.00000000
0.40135312,135,3.02400397,-2.31817515,-2.55553444,0.03738403,-1.59195804,-2.70004272,2.96296881,3.26942971,-2.13156044,0.05844257,-1.57441043,-2.03361511,3.02858161,2.84120034,-1.70409401,0.05073547,-1.57784366,-2.03399658,-0.08300781,0.54687500,-0.52734375,-0.01464844,0.05859375,-0.01464844,-2.97546387,-0.18231728,-0.18272400,-0.02441406
0.41758966,140,3.02400397,-2.31855662,-2.55553444,0.03738403,-1.59195804,-2.70004272,2.96296881,3.28942971,-2.15156044,0.05839033,-1.57441043,-2.03361511,3.02743720,2.84844827,-1.71134194,0.05073547,-1.57746219,-2.03361511,-0.09765625,0.56152344,-0.54687500,-0.02929688,0.05859375,0.00000000,-2.97546387,-0.18243814,-0.18272400,0.00000000
0.42887974,145,3.02400397,-2.31855662,-2.55553444,0.03738403,-1.59195804,-2.70004272,2.96296881,3.30942971,-2.17156044,0.05852214,-1.57441043,-2.03361511,3.02629279,2.85645913,-1.71935280,0.05073547,-1.57708072,-2.03399658,-0.07812500,0.58105469,-0.55175781,0.00000000,0.02929688,-0.01464844,-2.97584534,-0.18263033,-0.18234253,0.00000000
0.44323301,150,3.02400397,-2.31855662,-2.55553444,0.03738403,-1.59195804,-2.70004272,2.96296881,3.32942971,-2.19156044,0.05845546,-1.57441043,-2.03361511,3.02476691,2.86523293,-1.72812661,0.05111694,-1.57708072,-2.03399658,-0.11230469,0.59082031,-0.61523438,0.00000000,0.02929688,-0.01464844,-2.97546387,-0.18246259,-0.18272400,-0.02441406
0.45899534,155,3.02400397,-2.31931956,-2.55553444,0.03738403,-1.59195804,-2.70004272,2.96296881,3.34942971,-2.21156044,0.05839455,-1.57441043,-2.03361511,3.02362250,2.87476968,-1.73804482,0.05187988,-1.57669925,-2.03361511,-0.08300781,0.61035156,-0.60546875,0.01464844,0.01464844,-0.01464844,-2.97584534,-0.18245377,-0.18234253,-0.02441406
0.47216582,160,3.02400397,-2.31970103,-2.55553444,0.03738403,-1.59195804,-2.70004272,2.96296881,3.36942971,-2.23156044,0.05837460,-1.57441043,-2.03361511,3.02247809,2.88316201,-1.74643715,0.05302429,-1.57669925,-2.03399658,-0.09765625,0.61523438,-0.62988281,0.02929688,0.02929688,0.00000000,-2.97546387,-0.18228267,-0.18272400,-0.04882812
0.48868442,165,3.02400397,-2.32046397,-2.55553444,0.03738403,-1.59195804,-2.70004272,2.96296881,3.38942971,-2.25156044,0.05836806,-1.57441043,-2.03361511,3.02095221,2.89498757,-1.75826271,0.05340576,-1.57669925,-2.03399658,-0.09277344,0.63476562,-0.65429688,0.00000000,0.01464844,-0.01464844,-2.97584534,-0.18257938,-0.18234253,0.00000000
0.50293159,170,3.02400397,-2.32122691,-2.55553444,0.03738403,-1.59233951,-2.70004272,2.96296881,3.40942971,-2.26810098,0.05836591,-1.57448673,-2.03361511,3.02018927,2.90261697,-1.76589211,0.05340576,-1.57669925,-2.03399658,-0.08300781,0.67382812,-0.64453125,-0.01464844,0.02929688,-0.01464844,-2.97546387,-0.18240195,-0.18272400,0.00000000
0.51644731,175,3.02400397,-2.32237132,-2.55553444,0.03738403,-1.59195804,-2.70004272,2.96296881,3.42942971,-2.27412534,0.05836521,-1.57452332,-2.03361511,3.01904486,2.91291665,-1.77581032,0.05378723,-1.57669925,-2.03399658,-0.08300781,0.65917969,-0.65917969,0.00000000,0.01464844,-0.01464844,-2.97546387,-0.18234381,-0.18272400,-0.02441406
0.53173757,180,3.02400397,-2.32427867,-2.55553444,0.03662109,-1.59195804,-2.70004272,2.96296881,3.44942971,-2.27609941,0.05788329,-1.57453971,-2.03361511,3.01790045,2.92321633,-1.78572853,0.05378723,-1.57631778,-2.03399658,-0.06835938,0.68359375,-0.64941406,-0.01464844,0.05859375,-0.01464844,-2.97546387,-0.18232476,-0.18272400,-0.04882812
0.54846001,185,3.02400397,-2.32580455,-2.55553444,0.03662109,-1.59195804,-2.70004272,2.96296881,3.46942971,-2.27674627,0.05769413,-1.57451383,-2.03361511,3.01675605,2.93313455,-1.79526528,0.05378723,-1.57593631,-2.03399658,-0.08789062,0.70312500,-0.65917969,-0.01464844,0.04394531,-0.01464844,-2.97584534,-0.18247111,-0.18272400,-0.04882812
0.56321597,190,3.02400397,-2.32694895,-2.55553444,0.03662109,-1.59195804,-2.70004272,2.96296881,3.48942971,-2.27695823,0.05763214,-1.57449314,-2.03361511,3.01561164,2.94610452,-1.80747231,0.05378723,-1.57593631,-2.03399658,-0.06835938,0.69335938,-0.66406250,-0.01464844,0.01464844,-0.01464844,-2.97584534,-0.18254347,-0.18272400,-0.04882812
0.57893634,195,3.02400397,-2.32847483,-2.55553444,0.03547668,-1.59233951,-2.70004272,2.96296881,3.50942971,-2.27702769,0.05717299,-1.57451383,-2.03361511,3.01446723,2.95640420,-1.81624611,0.05416870,-1.57593631,-2.03361511,-0.08789062,0.71777344,-0.60546875,0.00000000,0.02929688,0.01464844,-2.97546387,-0.18229253,-0.18272400,-0.04882812
0.59459066,200,3.02400397,-2.33000071,-2.55553444,0.03356934,-1.59195804,-2.70004272,2.96296881,3.52942971,-2.27705045,0.05571040,-1.57444431,-2.03361511,3.01370429,2.96594094,-1.82463845,0.05416870,-1.57593631,-2.03399658,-0.06835938,0.71289062,-0.60546875,-0.01464844,0.01464844,-0.01464844,-2.97584534,-0.18244199,-0.18272400,0.00000000
0.60626960,205,3.02400397,-2.33190806,-2.55553444,0.02899170,-1.59195804,-2.70004272,2.96296881,3.54942971,-2.27705791,0.05286688,-1.57442154,-2.03361511,3.01255988,2.97585916,-1.83264931,0.05455017,-1.57593631,-2.03399658,-0.07812500,0.72265625,-0.60058594,-0.01464844,0.02929688,-0.02929688,-2.97546387,-0.18224072,-0.18272400,-0.02441406
0.61892271,210,3.02400397,-2.33305247,-2.55553444,0.02365112,-1.59195804,-2.70004272,2.96296881,3.56942971,-2.27706035,0.04845879,-1.57441407,-2.03361511,3.01141547,2.98730325,-1.84142311,0.05455017,-1.57593631,-2.03399658,-0.07324219,0.77636719,-0.59570312,0.00000000,0.01464844,-0.02929688,-2.97546387,-0.18222848,-0.18272400,-0.02441406
0.63241506,215,3.02400397,-2.33419688,-2.55553444,0.01602173,-1.59195804,-2.70004272,2.96296881,3.58942971,-2.27706115,0.04222285,-1.57441163,-2.03361511,3.01065253,2.99645852,-1.84828957,0.05493164,-1.57555484,-2.03399658,-0.05859375,0.75683594,-0.56640625,-0.01464844,0.02929688,-0.02929688,-2.97546387,-0.18234654,-0.18272400,-0.02441406
0.64676929,220,3.02400397,-2.33534129,-2.55553444,0.00877380,-1.59195804,-2.70004272,2.96296881,3.60942971,-2.27706141,0.03500233,-1.57441082,-2.03361511,3.00988959,3.00675820,-1.85591896,0.05493164,-1.57555484,-2.03399658,-0.09277344,0.81542969,-0.56640625,-0.01464844,0.04394531,0.00000000,-2.97584534,-0.18260031,-0.18272400,-0.04882812
0.65953350,225,3.02400397,-2.33724864,-2.55553444,-0.00305176,-1.59195804,-2.70004272,2.96296881,3.62942971,-2.27706150,0.02630147,-1.57441056,-2.03361511,3.00912665,3.01972817,-1.86507424,0.05455017,-1.57555484,-2.03399658,-0.04394531,0.83984375,-0.57617188,-0.02929688,0.01464844,-0.02929688,-2.97584534,-0.18250769,-0.18272400,-0.02441406
0.67468452,230,3.02400397,-2.33877452,-2.55553444,-0.01602173,-1.59195804,-2.70004272,2.96296881,3.64942971,-2.27706153,0.01425140,-1.57441048,-2.03361511,3.00836371,3.02850198,-1.87117775,0.05416870,-1.57517337,-2.03399658,-0.07812500,0.79589844,-0.56152344,-0.07324219,0.02929688,-0.01464844,-2.97584534,-0.18265312,-0.18272400,-0.02441406
0.68736959,235,3.02400397,-2.33991893,-2.55553444,-0.03204346,-1.59195804,-2.70004272,2.96296881,3.66942971,-2.27706154,-0.00017104,-1.57441045,-2.03361511,3.00721930,3.04147195,-1.87957009,0.05302429,-1.57479190,-2.03361511,-0.05859375,0.79101562,-0.52246094,-0.10253906,0.02929688,0.01464844,-2.97584534,-0.18256015,-0.18272400,0.00000000
0.70230722,240,3.02400397,-2.34144480,-2.55553444,-0.04844666,-1.59195804,-2.70004272,2.96296881,3.68942971,-2.27706154,-0.01448036,-1.57441044,-2.03361511,3.00645636,3.05291604,-1.88719948,0.05073547,-1.57479190,-2.03361511,-0.05859375,0.81054688,-0.51269531,-0.17578125,0.01464844,0.00000000,-2.97584534,-0.18254824,-0.18272400,0.00000000
0.71507668,245,3.02400397,-2.34297068,-2.55553444,-0.06599426,-1.59195804,-2.70004272,2.96296881,3.70942971,-2.27706154,-0.03135015,-1.57441043,-2.03361511,3.00569342,3.06436013,-1.89444741,0.04653931,-1.57441043,-2.03361511,-0.07812500,0.78613281,-0.50292969,-0.30761719,0.02929688,0.00000000,-2.97546387,-0.18251382,-0.18272400,-0.02441406
0.73107338,250,3.02400397,-2.34449656,-2.55553444,-0.08125305,-1.59195804,-2.70004272,2.96296881,3.72942971,-2.27706154,-0.04830019,-1.57441043,-2.03361511,3.00493048,3.07618569,-1.90245827,0.04081726,-1.57441043,-2.03399658,-0.04882812,0.77148438,-0.51757812,-0.41015625,0.02929688,-0.02929688,-2.97546387,-0.18238047,-0.18272400,-0.02441406
0.74425387,255,3.02400397,-2.34564097,-2.55553444,-0.10070801,-1.59195804,-2.70004272,2.96296881,3.74942971,-2.27706154,-0.06615184,-1.57441043,-2.03361511,3.00416754,3.08801125,-1.90970620,0.03395081,-1.57441043,-2.03399658,-0.04882812,0.79589844,-0.50292969,-0.52734375,0.01464844,-0.01464844,-2.97584534,-0.18241124,-0.18272400,-0.02441406
0.76032114,260,3.02400397,-2.34754832,-2.55553444,-0.12397766,-1.59195804,-2.70004272,2.96296881,3.76942971,-2.27706154,-0.08489486,-1.57441043,-2.03361511,3.00340461,3.09869241,-1.91657265,0.02708435,-1.57479190,-2.03399658,-0.05859375,0.79589844,-0.49804688,-0.57128906,0.01464844,-0.02929688,-2.97584534,-0.18238323,-0.18272400,-0.02441406
0.77369332,265,3.02400397,-2.34907420,-2.55553444,-0.13999939,-1.59195804,-2.70004272,2.96296881,3.78942971,-2.27706154,-0.10381612,-1.57441043,-2.03361511,3.00226020,3.11128091,-1.92420204,0.01869202,-1.57441043,-2.03399658,-0.05859375,0.78613281,-0.49316406,-0.60058594,0.01464844,0.00000000,-2.97546387,-0.18245975,-0.18272400,-0.02441406
0.78791595,270,3.02400397,-2.35060008,-2.55553444,-0.15563965,-1.59195804,-2.70004272,2.96296881,3.80942971,-2.27706154,-0.12098392,-1.57441043,-2.03361511,3.00149726,3.12348794,-1.93106850,0.00724792,-1.57441043,-2.03399658,-0.07812500,0.80078125,-0.46875000,-0.73242188,0.01464844,0.00000000,-2.97584534,-0.18257491,-0.18272400,-0.04882812
0.80250907,275,3.02400397,-2.35174449,-2.55553444,-0.17089844,-1.59195804,-2.70004272,2.96296881,3.82942971,-2.27706154,-0.13768320,-1.57441043,-2.03361511,3.00073432,3.13340615,-1.93679055,-0.00152588,-1.57441043,-2.03399658,-0.06347656,0.81054688,-0.47851562,-0.73242188,0.01464844,-0.01464844,-2.97546387,-0.18232236,-0.18272400,-0.04882812
0.81540394,280,3.02400397,-2.35288890,-2.55553444,-0.18348694,-1.59195804,-2.70004272,2.96296881,3.84942971,-2.27706154,-0.15181207,-1.57441043,-2.03361511,3.00035285,-3.13947947,-1.94289406,-0.01068115,-1.57441043,-2.03399658,-0.04882812,0.77636719,-0.46386719,-0.73242188,0.02929688,-0.01464844,-2.97584534,-0.18252989,-0.18272400,-0.02441406
0.82820058,285,3.02400397,-2.35403331,-2.55553444,-0.19607544,-1.59195804,-2.70004272,2.96296881,3.86942971,-2.27706154,-0.16500591,-1.57441043,-2.03361511,2.99958991,-3.12803538,-1.94937905,-0.02174377,-1.57441043,-2.03399658,-0.05859375,0.79589844,-0.45410156,-0.79101562,0.01464844,-0.01464844,-2.97546387,-0.18220995,-0.18272400,-0.02441406
0.84141493,290,3.02400397,-2.35517771,-2.55553444,-0.20446777,-1.59195804,-2.70004272,2.96296881,3.88942971,-2.27706154,-0.17568303,-1.57441043,-2.03361511,2.99882697,-3.11888011,-1.95395668,-0.02899170,-1.57441043,-2.03399658,-0.06835938,0.79589844,-0.42968750,-0.77636719,0.01464844,0.00000000,-2.97584534,-0.18245790,-0.18272400,0.00000000
0.85717678,295,3.02400397,-2.35632212,-2.55553444,-0.21476746,-1.59195804,-2.70004272,2.96296881,3.90942971,-2.27706154,-0.18606049,-1.57441043,-2.03361511,2.99806403,-3.10591014,-1.96120461,-0.04158020,-1.57441043,-2.03399658,-0.04882812,0.80566406,-0.40527344,-0.77636719,0.01464844,0.00000000,-2.97584534,-0.18263680,-0.18272400,-0.02441406
0.87174582,300,3.02400397,-2.35784800,-2.55553444,-0.22354126,-1.59195804,-2.70004272,2.96296881,3.92447668,-2.27706154,-0.19575724,-1.57441043,-2.03361511,2.99730109,-3.09408457,-1.96730812,-0.05264282,-1.57402896,-2.03399658,-0.05859375,0.79101562,-0.40527344,-0.77636719,0.01464844,-0.01464844,-2.97584534,-0.18249523,-0.18272400,-0.02441406
0.88644981,305,3.02400397,-2.35899241,-2.55553444,-0.23078918,-1.59195804,-2.70004272,2.96296881,3.92886657,-2.27706154,-0.20390477,-1.57441043,-2.03361511,2.99653815,-3.08264048,-1.97341164,-0.06484985,-1.57402896,-2.03399658,-0.05859375,0.81054688,-0.39550781,-0.80566406,0.01464844,-0.01464844,-2.97546387,-0.18249645,-0.18272400,-0.02441406
0.90111113,310,3.02400397,-2.36013682,-2.55553444,-0.23803711,-1.59195804,-2.70004272,2.96296881,3.92956543,-2.27706154,-0.21127169,-1.57441043,-2.03361511,2.99615668,-3.06928904,-1.97951516,-0.07743835,-1.57364749,-2.03399658,-0.02441406,0.80078125,-0.39062500,-0.77636719,0.04394531,-0.01464844,-2.97584534,-0.18258694,-0.18272400,-0.02441406
0.91347337,315,3.02400397,-2.36051829,-2.55553444,-0.24261475,-1.59195804,-2.70004272,2.96296881,3.92940661,-2.27706154,-0.21734731,-1.57441043,-2.03361511,2.99539374,-3.06089671,-1.98447426,-0.08506775,-1.57364749,-2.03399658,-0.04394531,0.77148438,-0.39550781,-0.73242188,-0.00000000,-0.01464844,-2.97546387,-0.18238587,-0.18234253,0.00000000
0.92798305,320,3.02400397,-2.36166270,-2.55553444,-0.24757385,-1.59195804,-2.70004272,2.96296881,3.92871651,-2.27706154,-0.22289834,-1.57441043,-2.03361511,2.99463080,-3.04907115,-1.99019631,-0.09651184,-1.57364749,-2.03399658,-0.05859375,0.81054688,-0.39550781,-0.73242188,0.01464844,-0.01464844,-2.97546387,-0.18238249,-0.18272400,-0.02441406
0.94276023,325,3.02400397,-2.36204417,-2.55553444,-0.25062561,-1.59195804,-2.70004272,2.96296881,3.92801467,-2.27706154,-0.22688284,-1.57441043,-2.03361511,2.99424933,-3.03686412,-1.99553688,-0.10795593,-1.57364749,-2.03399658,-0.03417969,0.80566406,-0.39550781,-0.70312500,-0.00000000,0.00000000,-2.97584534,-0.18261209,-0.18272400,-0.02441406
0.95539761,330,3.02400397,-2.36280711,-2.55553444,-0.25215149,-1.59233951,-2.70004272,2.96296881,3.92739089,-2.27706154,-0.22951367,-1.57454776,-2.03361511,2.99386786,-3.02923472,-1.99973305,-0.11405945,-1.57364749,-2.03399658,-0.02929688,0.79589844,-0.36132812,-0.68847656,0.02929688,-0.01464844,-2.97584534,-0.18258967,-0.18272400,-0.02441406
0.96873283,335,3.02400397,-2.36395152,-2.55553444,-0.25405884,-1.59195804,-2.70004272,2.96296881,3.92654843,-2.27706154,-0.23162830,-1.57445543,-2.03361511,2.99310492,-3.01626475,-2.00545510,-0.12321472,-1.57364749,-2.03399658,-0.05859375,0.82519531,-0.33203125,-0.65917969,0.04394531,-0.01464844,-2.97584534,-0.18261748,-0.18272400,-0.02441406
0.98335743,340,3.02400397,-2.36433299,-2.55553444,-0.25482178,-1.59195804,-2.70004272,2.96296881,3.92591434,-2.27706154,-0.23286542,-1.57442518,-2.03361511,2.99234198,-3.00291331,-2.01155861,-0.13275146,-1.57326602,-2.03399658,-0.04882812,0.82031250,-0.33203125,-0.65917969,0.02929688,-0.01464844,-2.97546387,-0.18247401,-0.18272400,-0.02441406
0.99867773,345,3.02400397,-2.36509593,-2.55553444,-0.25596619,-1.59195804,-2.70004272,2.96296881,3.92526394,-2.27706154,-0.23404020,-1.57441527,-2.03361511,2.99157904,-2.99185069,-2.01651772,-0.14190674,-1.57326602,-2.03399658,-0.04882812,0.78613281,-0.33691406,-0.57128906,0.01464844,-0.01464844,-2.97584534,-0.18264208,-0.18272400,-0.02441406
1.01202440,350,3.02400397,-2.36585887,-2.55553444,-0.25672913,-1.59195804,-2.70004272,2.96296881,3.92449881,-2.27706154,-0.23503819,-1.57441202,-2.03361511,2.99119757,-2.98078807,-2.02147683,-0.14915466,-1.57288455,-2.03399658,-0.03906250,0.78613281,-0.36132812,-0.52734375,-0.00000000,-0.01464844,-2.97584534,-0.18269716,-0.18272400,-0.04882812
1.02537799,355,3.02400397,-2.36585887,-2.55553444,-0.25787354,-1.59195804,-2.70004272,2.96296881,3.92403667,-2.27706154,-0.23595445,-1.57441095,-2.03361511,2.99043463,-2.97163279,-2.02491005,-0.15373230,-1.57250308,-2.03399658,-0.06835938,0.80566406,-0.33203125,-0.46875000,0.02929688,0.00000000,-2.97584534,-0.18257458,-0.18272400,-0.02441406
1.04047346,360,3.02400397,-2.36624034,-2.55553444,-0.26092529,-1.59195804,-2.70004272,2.96296881,3.92366001,-2.27706154,-0.23778643,-1.57441060,-2.03361511,2.99005316,-2.95789988,-2.03063210,-0.16098022,-1.57212161,-2.03399658,-0.04882812,0.80078125,-0.31738281,-0.42480469,0.02929688,-0.01464844,-2.97584534,-0.18267504,-0.18234253,-0.04882812
1.05416322,365,3.02400397,-2.36700328,-2.55553444,-0.26473999,-1.59195804,-2.70004272,2.96296881,3.92317258,-2.27706154,-0.24086891,-1.57441049,-2.03361511,2.98967170,-2.94836314,-2.03482827,-0.16593933,-1.57212161,-2.03399658,-0.02929688,0.81542969,-0.33691406,-0.39550781,0.02929688,-0.02929688,-2.97584534,-0.18244526,-0.18272400,-0.04882812
1.06820464,370,3.02400397,-2.36700328,-2.55553444,-0.27008057,-1.59195804,-2.70004272,2.96296881,3.92283268,-2.27706154,-0.24518390,-1.57441045,-2.03361511,2.98929023,-2.93768199,-2.03902443,-0.17166138,-1.57174015,-2.03399658,-0.03417969,0.80566406,-0.31250000,-0.41015625,0.02929688,-0.01464844,-2.97546387,-0.18235800,-0.18272400,-0.02441406
1.08047962,375,3.02400397,-2.36700328,-2.55515297,-0.27580261,-1.59195804,-2.70004272,2.96296881,3.92272130,-2.27684413,-0.25023200,-1.57441044,-2.03361511,2.98852729,-2.92738230,-2.04322060,-0.17700195,-1.57135868,-2.03399658,-0.05371094,0.76660156,-0.28808594,-0.43945312,0.04394531,0.00000000,-2.97546387,-0.18225129,-0.18272400,-0.02441406
1.09351254,380,3.02400397,-2.36700328,-2.55515297,-0.28152466,-1.59195804,-2.70004272,2.96296881,3.92268480,-2.27673383,-0.25590410,-1.57441044,-2.03361511,2.98814582,-2.91746409,-2.04741677,-0.18119812,-1.57135868,-2.03399658,-0.03417969,0.77636719,-0.32714844,-0.35156250,0.01464844,-0.01464844,-2.97584534,-0.18256910,-0.18272400,-0.04882812
1.10742950,385,3.02400397,-2.36700328,-2.55515297,-0.28877258,-1.59195804,-2.70004272,2.96296881,3.92267285,-2.27669769,-0.26245353,-1.57441043,-2.03361511,2.98776435,-2.90754588,-2.05123146,-0.18615723,-1.57097721,-2.03399658,-0.04394531,0.74218750,-0.29296875,-0.39550781,0.04394531,0.00000000,-2.97546387,-0.18252065,-0.18272400,-0.02441406
1.12367606,390,3.02400397,-2.36738475,-2.55515297,-0.30021667,-1.59195804,-2.70004272,2.96296881,3.92259263,-2.27668584,-0.27140312,-1.57441043,-2.03361511,2.98738288,-2.89610179,-2.05580910,-0.19264221,-1.57097721,-2.03399658,-0.02929688,0.72753906,-0.27832031,-0.45410156,-0.00000000,-0.02929688,-2.97584534,-0.18265737,-0.18272400,0.00000000
1.13898611,395,3.02400397,-2.36738475,-2.55515297,-0.31089783,-1.59195804,-2.70004272,2.96296881,3.92246625,-2.27668196,-0.28129080,-1.57441043,-2.03361511,2.98661994,-2.88351329,-2.06114968,-0.19912720,-1.57097721,-2.03399658,-0.03906250,0.71289062,-0.29296875,-0.42480469,0.01464844,-0.01464844,-2.97584534,-0.18251759,-0.18272400,0.00000000
1.15324473,400,3.02400397,-2.36738475,-2.55515297,-0.32043457,-1.59195804,-2.70004272,2.96296881,3.92234476,-2.27668069,-0.29208999,-1.57441043,-2.03361511,2.98623847,-2.87321360,-2.06534584,-0.20599365,-1.57135868,-2.03399658,-0.04394531,0.70800781,-0.28320312,-0.42480469,-0.01464844,-0.01464844,-2.97546387,-0.18238171,-0.18272400,-0.04882812
1.16739702,405,3.02400397,-2.36738475,-2.55515297,-0.33111572,-1.59195804,-2.70004272,2.96296881,3.92230495,-2.27668028,-0.30245582,-1.57441043,-2.03361511,2.98585700,-2.86558421,-2.06839760,-0.21095276,-1.57135868,-2.03399658,-0.04394531,0.68847656,-0.27343750,-0.46875000,0.01464844,-0.02929688,-2.97584534,-0.18251418,-0.18272400,-0.02441406
1.17994761,410,3.02400397,-2.36738475,-2.55515297,-0.33988953,-1.59195804,-2.70004272,2.96296881,3.92233097,-2.27668014,-0.31105062,-1.57441043,-2.03361511,2.98547553,-2.85528453,-2.07297524,-0.21781921,-1.57135868,-2.03399658,-0.03417969,0.68359375,-0.28320312,-0.49804688,-0.01464844,-0.01464844,-2.97546387,-0.18222043,-0.18272400,-0.04882812
1.19405913,415,3.02400397,-2.36738475,-2.55515297,-0.35057068,-1.59195804,-2.70004272,2.96296881,3.92230043,-2.27668009,-0.32092946,-1.57441043,-2.03361511,2.98509406,-2.84612925,-2.07640847,-0.22468567,-1.57135868,-2.03399658,-0.02929688,0.65917969,-0.25390625,-0.51269531,0.01464844,-0.01464844,-2.97584534,-0.18243692,-0.18234253,0.00000000
1.20737648,420,3.02400397,-2.36738475,-2.55515297,-0.35820007,-1.59195804,-2.70004272,2.96296881,3.92229042,-2.27668008,-0.33003326,-1.57441043,-2.03361511,2.98471259,-2.83659251,-2.07984169,-0.23193359,-1.57135868,-2.03399658,-0.02441406,0.63476562,-0.25390625,-0.49804688,0.01464844,-0.01464844,-2.97546387,-0.18247734,-0.18272400,0.00000000
1.22272992,425,3.02400397,-2.36738475,-2.55515297,-0.36582947,-1.59195804,-2.70004272,2.96296881,3.92228714,-2.27668007,-0.33841532,-1.57441043,-2.03361511,2.98433112,-2.82629283,-2.08441933,-0.24070740,-1.57135868,-2.03399658,-0.04394531,0.62500000,-0.25878906,-0.55664062,0.01464844,0.00000000,-2.97584534,-0.18264317,-0.18272400,0.00000000
1.23600411,430,3.02400397,-2.36738475,-2.55515297,-0.37307739,-1.59195804,-2.70004272,2.96296881,3.92228607,-2.27668007,-0.34641281,-1.57441043,-2.03361511,2.98394965,-2.81942637,-2.08747109,-0.24719238,-1.57135868,-2.03399658,-0.03417969,0.62500000,-0.25878906,-0.62988281,-0.00000000,-0.01464844,-2.97546387,-0.18254493,-0.18272400,0.00000000
1.25097346,435,3.02400397,-2.36738475,-2.55515297,-0.37879944,-1.59195804,-2.70004272,2.96296881,3.92228572,-2.27668007,-0.35310996,-1.57441043,-2.03361511,2.98318671,-2.80988963,-2.09128579,-0.25482178,-1.57135868,-2.03399658,-0.03417969,0.61523438,-0.25390625,-0.55664062,-0.00000000,0.00000000,-2.97584534,-0.18260282,-0.18272400,0.00000000
1.26673269,440,3.02400397,-2.36738475,-2.55515297,-0.38452148,-1.59195804,-2.70004272,2.96296881,3.92228560,-2.27668007,-0.35918815,-1.57441043,-2.03361511,2.98318671,-2.79997142,-2.09510048,-0.26321411,-1.57135868,-2.03399658,-0.02441406,0.60058594,-0.23925781,-0.54199219,0.01464844,-0.01464844,-2.97584534,-0.18262179,-0.18272400,-0.02441406
1.28106332,445,3.02400397,-2.36738475,-2.55515297,-0.38681030,-1.59195804,-2.70004272,2.96296881,3.92228557,-2.27668007,-0.36322111,-1.57441043,-2.03361511,2.98280524,-2.79157908,-2.09853371,-0.26893616,-1.57174015,-2.03399658,-0.02929688,0.61523438,-0.24902344,-0.54199219,-0.00000000,-0.01464844,-2.97584534,-0.18269051,-0.18272400,-0.02441406
1.29582000,450,3.02400397,-2.36738475,-2.55515297,-0.38833618,-1.59195804,-2.70004272,2.96296881,3.92228555,-2.27668007,-0.36571890,-1.57441043,-2.03361511,2.98204230,-2.78166087,-2.10196694,-0.27999878,-1.57135868,-2.03399658,-0.03417969,0.57128906,-0.22949219,-0.54199219,0.02929688,0.00000000,-2.97584534,-0.18265052,-0.18272400,-0.02441406
1.31088042,455,3.02400397,-2.36738475,-2.55515297,-0.38909912,-1.59195804,-2.70004272,2.96296881,3.92228555,-2.27668007,-0.36712063,-1.57441043,-2.03361511,2.98166083,-2.77441294,-2.10540016,-0.28572083,-1.57135868,-2.03399658,-0.03906250,0.56640625,-0.21972656,-0.48339844,0.01464844,-0.01464844,-2.97584534,-0.18257785,-0.18272400,0.00000000
1.32468057,460,3.02400397,-2.36738475,-2.55515297,-0.38909912,-1.59233951,-2.70004272,2.96296881,3.92228555,-2.27668007,-0.36779137,-1.57448673,-2.03361511,2.98127936,-2.76563914,-2.10921486,-0.29258728,-1.57135868,-2.03399658,-0.02441406,0.53710938,-0.20996094,-0.42480469,0.01464844,-0.01464844,-2.97584534,-0.18257845,-0.18272400,0.00000000
1.33907938,465,3.02400397,-2.36738475,-2.55515297,-0.38909912,-1.59195804,-2.70004272,2.96296881,3.92228555,-2.27668007,-0.36801116,-1.57443543,-2.03361511,2.98127936,-2.75915415,-2.11150368,-0.29754639,-1.57174015,-2.03399658,-0.01464844,0.54199219,-0.21484375,-0.41015625,0.01464844,0.00000000,-2.97546387,-0.18252372,-0.18272400,-0.02441406
1.35157847,470,3.02400397,-2.36738475,-2.55515297,-0.38909912,-1.59195804,-2.70004272,2.96296881,3.92228555,-2.27668007,-0.36808318,-1.57441863,-2.03361511,2.98089789,-2.75152476,-2.11493691,-0.30326843,-1.57174015,-2.03399658,-0.02441406,0.52246094,-0.21484375,-0.43945312,0.02929688,-0.02929688,-2.97584534,-0.18243864,-0.18272400,-0.02441406
1.36775756,475,3.02400397,-2.36738475,-2.55515297,-0.38909912,-1.59195804,-2.70004272,2.96296881,3.92228555,-2.27668007,-0.36805796,-1.57441312,-2.03361511,2.98051642,-2.74351390,-2.11875161,-0.30860901,-1.57174015,-2.03399658,-0.03906250,0.52246094,-0.23437500,-0.35156250,-0.00000000,-0.01464844,-2.97584534,-0.18247034,-0.18272400,-0.04882812
1.38252544,480,3.02400397,-2.36738475,-2.55515297,-0.38909912,-1.59195804,-2.70004272,2.96296881,3.92228555,-2.27668007,-0.36809852,-1.57441131,-2.03361511,2.98013495,-2.73588450,-2.12142189,-0.31318665,-1.57174015,-2.03399658,-0.03906250,0.50781250,-0.19531250,-0.32226562,0.01464844,-0.02929688,-2.97584534,-0.18254322,-0.18272400,-0.02441406
1.39794588,485,3.02400397,-2.36738475,-2.55515297,-0.38909912,-1.59195804,-2.70004272,2.96296881,3.92228555,-2.27668007,-0.36803173,-1.57441072,-2.03361511,2.97937201,-2.72787364,-2.12485512,-0.31738281,-1.57212161,-2.03399658,-0.04882812,0.51757812,-0.19531250,-0.32226562,0.01464844,-0.01464844,-2.97546387,-0.18244967,-0.18234253,-0.02441406
1.41257000,490,3.02400397,-2.36738475,-2.55515297,-0.38909912,-1.59195804,-2.70004272,2.96296881,3.92228555,-2.27668007,-0.36808992,-1.57441053,-2.03361511,2.97937201,-2.72100718,-2.12752541,-0.32157898,-1.57212161,-2.03399658,-0.00976562,0.49316406,-0.19042969,-0.29296875,-0.00000000,-0.01464844,-2.97584534,-0.18235188,-0.18272400,-0.04882812
1.42692542,495,3.02400397,-2.36738475,-2.55515297,-0.38909912,-1.59195804,-2.70004272,2.96296881,3.92228555,-2.27668007,-0.36810899,-1.57441046,-2.03361511,2.97899054,-2.71414073,-2.13019570,-0.32501221,-1.57212161,-2.03399658,-0.02441406,0.48339844,-0.19531250,-0.29296875,0.01464844,-0.01464844,-2.97584534,-0.18246144,-0.18272400,-0.04882812
1.44214344,500,3.02400397,-2.36738475,-2.55515297,-0.38909912,-1.59195804,-2.70004272,2.96296881,3.92228555,-2.27668007,-0.36811524,-1.57441044,-2.03361511,2.97860907,-2.70651133,-2.13362892,-0.32920837,-1.57174015,-2.03399658,-0.01953125,0.47363281,-0.19531250,-0.27832031,0.01464844,-0.02929688,-2.97584534,-0.18257546,-0.18272400,-0.02441406
1.45581126,505,3.02400397,-2.36738475,-2.55515297,-0.38909912,-1.59195804,-2.70004272,2.96296881,3.92228555,-2.27668007,-0.36811729,-1.57441044,-2.03361511,2.97822760,-2.70002635,-2.13591774,-0.33187866,-1.57212161,-2.03399658,-0.01953125,0.46386719,-0.19042969,-0.23437500,-0.00000000,-0.01464844,-2.97546387,-0.18244461,-0.18272400,-0.02441406
1.46790910,510,3.02400397,-2.36738475,-2.55515297,-0.38909912,-1.59195804,-2.70004272,2.96296881,3.92228555,-2.27668007,-0.36811796,-1.57441043,-2.03361511,2.97784613,-2.69392283,-2.13858803,-0.33378601,-1.57174015,-2.03399658,-0.03417969,0.46386719,-0.20019531,-0.20507812,0.02929688,-0.01464844,-2.97584534,-0.18253479,-0.18272400,-0.02441406
1.48419428,515,3.02400397,-2.36738475,-2.55515297,-0.38909912,-1.59195804,-2.70004272,2.96296881,3.92228555,-2.27668007,-0.36811818,-1.57441043,-2.03361511,2.97746466,-2.68781932,-2.14125832,-0.33721924,-1.57212161,-2.03399658,-0.04394531,0.43457031,-0.17089844,-0.21972656,-0.01464844,0.00000000,-2.97584534,-0.18250184,-0.18272400,-0.02441406
1.49600101,520,3.02400397,-2.36738475,-2.55515297,-0.38909912,-1.59195804,-2.70004272,2.96296881,3.92228555,-2.27668007,-0.36805722,-1.57441043,-2.03361511,2.97746466,-2.68247874,-2.14354714,-0.33874512,-1.57212161,-2.03399658,-0.01464844,0.42968750,-0.17089844,-0.13183594,-0.00000000,-0.01464844,-2.97584534,-0.18255355,-0.18272400,-0.02441406
1.51197696,525,3.02400397,-2.36738475,-2.55515297,-0.38909912,-1.59195804,-2.70004272,2.96296881,3.92228555,-2.27668007,-0.36809827,-1.57441043,-2.03361511,2.97708319,-2.67446788,-2.14659890,-0.34217834,-1.57212161,-2.03399658,-0.03417969,0.42480469,-0.17089844,-0.23437500,-0.00000000,0.00000000,-2.97546387,-0.18229583,-0.18272400,0.00000000
1.52756667,530,3.02400397,-2.36738475,-2.55515297,-0.38909912,-1.59195804,-2.70004272,2.96296881,3.92228555,-2.27668007,-0.36811173,-1.57441043,-2.03361511,2.97670172,-2.66912730,-2.14888771,-0.34408569,-1.57250308,-2.03399658,-0.00976562,0.41503906,-0.17578125,-0.16113281,-0.02929688,0.00000000,-2.97584534,-0.18258370,-0.18272400,0.00000000
1.54138803,535,3.02400397,-2.36738475,-2.55515297,-0.38909912,-1.59195804,-2.70004272,2.96296881,3.92228555,-2.27668007,-0.36811614,-1.57441043,-2.03361511,2.97670172,-2.66302378,-2.15155800,-0.34561157,-1.57250308,-2.03399658,-0.01464844,0.41992188,-0.17089844,-0.08789062,-0.00000000,-0.01464844,-2.97546387,-0.18244731,-0.18272400,-0.02441406
1.55776668,540,3.02400397,-2.36738475,-2.55515297,-0.38909912,-1.59195804,-2.70004272,2.96296881,3.92228555,-2.27668007,-0.36811758,-1.57441043,-2.03361511,2.97632025,-2.65615733,-2.15422829,-0.34675598,-1.57250308,-2.03399658,-0.01953125,0.41015625,-0.15625000,-0.11718750,0.01464844,-0.02929688,-2.97546387,-0.18238309,-0.18272400,-0.04882812
1.57225609,545,3.02400397,-2.36738475,-2.55515297,-0.38871765,-1.59195804,-2.70004272,2.96296881,3.92228555,-2.27668007,-0.36804176,-1.57441043,-2.03361511,2.97593879,-2.65005381,-2.15651711,-0.34904480,-1.57288455,-2.03399658,-0.02929688,0.40039062,-0.14648438,-0.17578125,-0.00000000,0.00000000,-2.97584534,-0.18245213,-0.18272400,-0.02441406
1.58779359,550,3.02400397,-2.36738475,-2.55515297,-0.38909912,-1.59195804,-2.70004272,2.96296881,3.92234658,-2.27668007,-0.36809321,-1.57441043,-2.03361511,2.97555732,-2.64356883,-2.15918740,-0.35209656,-1.57250308,-2.03399658,-0.02441406,0.40039062,-0.15625000,-0.17578125,0.02929688,-0.01464844,-2.97584534,-0.18245913,-0.18272400,-0.02441406
1.60134244,555,3.02400397,-2.36738475,-2.55515297,-0.38909912,-1.59195804,-2.70004272,2.96296881,3.92230555,-2.27668007,-0.36806124,-1.57441043,-2.03361511,2.97555732,-2.63937266,-2.16071328,-0.35285950,-1.57250308,-2.03399658,-0.01953125,0.38085938,-0.14648438,-0.07324219,0.02929688,-0.01464844,-2.97584534,-0.18241748,-0.18272400,-0.02441406
1.61325860,560,3.02400397,-2.36738475,-2.55515297,-0.38909912,-1.59195804,-2.70004272,2.96296881,3.92229210,-2.27668007,-0.36809959,-1.57441043,-2.03361511,2.97517585,-2.63403208,-2.16300209,-0.35324097,-1.57250308,-2.03399658,-0.01464844,0.36132812,-0.14648438,-0.04394531,-0.00000000,-0.01464844,-2.97584534,-0.18262356,-0.18272400,-0.02441406
1.62576985,565,3.02400397,-2.36738475,-2.55515297,-0.38909912,-1.59195804,-2.70004272,2.96296881,3.92228769,-2.27668007,-0.36808091,-1.57441043,-2.03361511,2.97479438,-2.62907298,-2.16452797,-0.35438538,-1.57250308,-2.03399658,-0.04394531,0.37109375,-0.17089844,-0.14648438,0.02929688,-0.02929688,-2.97584534,-0.18269109,-0.18272400,0.00000000
1.64066172,570,3.02400397,-2.36738475,-2.55515297,-0.38909912,-1.59195804,-2.70004272,2.96296881,3.92236633,-2.27668007,-0.36804500,-1.57441043,-2.03361511,2.97479438,-2.62525828,-2.16719826,-0.35591125,-1.57250308,-2.03399658,-0.01953125,0.36132812,-0.16113281,-0.10253906,0.01464844,-0.01464844,-2.97546387,-0.18256063,-0.18272400,-0.02441406
1.65402555,575,3.02400397,-2.36738475,-2.55515297,-0.38909912,-1.59195804,-2.70004272,2.96296881,3.92231202,-2.27668007,-0.36809427,-1.57441043,-2.03361511,2.97479438,-2.61953623,-2.16948708,-0.35667419,-1.57250308,-2.03399658,-0.01464844,0.34667969,-0.14160156,-0.04394531,0.01464844,-0.01464844,-2.97584534,-0.18267047,-0.18272400,-0.04882812
1.66766739,580,3.02400397,-2.36738475,-2.55515297,-0.38909912,-1.59195804,-2.70004272,2.96296881,3.92229422,-2.27668007,-0.36811042,-1.57441043,-2.03361511,2.97441291,-2.61457713,-2.17139443,-0.35743713,-1.57288455,-2.03399658,-0.01953125,0.32714844,-0.14160156,-0.07324219,-0.00000000,-0.01464844,-2.97584534,-0.18250626,-0.18234253,-0.02441406
1.68420339,585,3.02400397,-2.36738475,-2.55515297,-0.38909912,-1.59195804,-2.70004272,2.96296881,3.92231964,-2.27668007,-0.36811571,-1.57441043,-2.03361511,2.97403144,-2.60885508,-2.17368325,-0.35896301,-1.57288455,-2.03399658,-0.02929688,0.32714844,-0.13183594,-0.14648438,-0.00000000,-0.01464844,-2.97584534,-0.18265265,-0.18272400,0.02441406
1.69701242,590,3.02400397,-2.36700328,-2.55515297,-0.38909912,-1.59195804,-2.70004272,2.96296881,3.92237301,-2.27668007,-0.36811744,-1.57441043,-2.03361511,2.97403144,-2.60504039,-2.17520912,-0.35972595,-1.57326602,-2.03399658,-0.01953125,0.32714844,-0.12207031,-0.04394531,-0.01464844,-0.02929688,-2.97584534,-0.18254046,-0.18272400,0.00000000
1.70896602,595,3.02400397,-2.36738475,-2.55515297,-0.38871765,-1.59195804,-2.70004272,2.96296881,3.92231421,-2.27668007,-0.36789279,-1.57441043,-2.03361511,2.97364997,-2.60122569,-2.17673500,-0.36010742,-1.57364749,-2.03399658,-0.01953125,0.31738281,-0.11718750,-0.05859375,0.01464844,-0.02929688,-2.97584534,-0.18260136,-0.18272400,-0.02441406
1.72542167,600,3.02400397,-2.36738475,-2.55515297,-0.38871765,-1.59195804,-2.70004272,2.96296881,3.92229494,-2.27668007,-0.36790707,-1.57441043,-2.03361511,2.97364997,-2.59626658,-2.17864235,-0.36048889,-1.57364749,-2.03399658,-0.02441406,0.33203125,-0.12207031,-0.05859375,0.01464844,-0.01464844,-2.97584534,-0.18268381,-0.18272400,-0.04882812
1.73887897,605,3.02400397,-2.36738475,-2.55515297,-0.38871765,-1.59195804,-2.70004272,2.96296881,3.92228862,-2.27668007,-0.36779260,-1.57441043,-2.03361511,2.97288703,-2.59092601,-2.18093117,-0.36087036,-1.57364749,-2.03399658,-0.04394531,0.31250000,-0.12207031,-0.04394531,-0.01464844,-0.01464844,-2.97584534,-0.18257021,-0.18272400,0.00000000
1.75233912,610,3.02400397,-2.36738475,-2.55515297,-0.38871765,-1.59195804,-2.70004272,2.96296881,3.92228656,-2.27668007,-0.36775510,-1.57441043,-2.03361511,2.97288703,-2.58634837,-2.18283852,-0.36125183,-1.57364749,-2.03399658,-0.00488281,0.31250000,-0.11718750,-0.04394531,0.01464844,-0.01464844,-2.97546387,-0.18252102,-0.18272400,-0.02441406
1.76706290,615,3.02400397,-2.36738475,-2.55515297,-0.38833618,-1.59195804,-2.70004272,2.96296881,3.92228588,-2.27668007,-0.36751759,-1.57441043,-2.03361511,2.97288703,-2.58253367,-2.18436440,-0.36163330,-1.57364749,-2.03399658,-0.01953125,0.29785156,-0.11230469,-0.04394531,0.01464844,-0.02929688,-2.97584534,-0.18243776,-0.18272400,0.00000000
1.78088188,620,3.02400397,-2.36776622,-2.55439003,-0.38833618,-1.59195804,-2.70004272,2.96296881,3.92206044,-2.27637856,-0.36740851,-1.57441043,-2.03361511,2.97250556,-2.57795603,-2.18627175,-0.36201477,-1.57364749,-2.03399658,-0.01464844,0.29785156,-0.10742188,-0.05859375,0.01464844,-0.02929688,-2.97584534,-0.18243001,-0.18272400,-0.04882812
1.79476523,625,3.02400397,-2.36814769,-2.55324562,-0.38757324,-1.59195804,-2.70004272,2.96296881,3.92173009,-2.27566855,-0.36711032,-1.57441043,-2.03361511,2.97250556,-2.57452281,-2.18779763,-0.36239624,-1.57402896,-2.03399658,-0.01464844,0.28320312,-0.11230469,-0.02929688,-0.00000000,-0.02929688,-2.97584534,-0.18250559,-0.18272400,-0.04882812
1.80950952,630,3.02400397,-2.36814769,-2.55133828,-0.38490295,-1.59195804,-2.70004272,2.96296881,3.92159060,-2.27436497,-0.36573734,-1.57441043,-2.03361511,2.97212409,-2.56994517,-2.18932350,-0.36315918,-1.57402896,-2.03399658,-0.01464844,0.26855469,-0.10253906,-0.07324219,-0.00000000,-0.01464844,-2.97584534,-0.18265243,-0.18272400,-0.02441406
1.82380176,635,3.02400397,-2.36891062,-2.54866799,-0.38070679,-1.59195804,-2.70004272,2.96296881,3.92115109,-2.27231489,-0.36266988,-1.57441043,-2.03361511,2.97212409,-2.56613047,-2.19084938,-0.36354065,-1.57402896,-2.03399658,-0.01464844,0.28320312,-0.12695312,-0.02929688,0.01464844,-0.01464844,-2.97584534,-0.18270055,-0.18272400,-0.04882812
1.83676505,640,3.02400397,-2.37081797,-2.54523476,-0.37345886,-1.59195804,-2.70004272,2.96296881,3.92015538,-2.26953216,-0.35763117,-1.57441043,-2.03361511,2.97174262,-2.56231578,-2.19275673,-0.36354065,-1.57402896,-2.03399658,-0.01464844,0.26855469,-0.11718750,0.00000000,0.01464844,-0.01464844,-2.97584534,-0.18271631,-0.18272400,-0.02441406
1.85151553,645,3.02400397,-2.37196238,-2.54103859,-0.36582947,-1.59195804,-2.70004272,2.96296881,3.91883070,-2.26602229,-0.35113487,-1.57441043,-2.03361511,2.97174262,-2.55850108,-2.19390114,-0.36354065,-1.57402896,-2.03399658,-0.00976562,0.24902344,-0.10253906,-0.01464844,-0.00000000,0.00000000,-2.97584534,-0.18265898,-0.18272400,-0.02441406
1.86488438,650,3.02400397,-2.37386973,-2.53531655,-0.35629272,-1.59195804,-2.70004272,2.96296881,3.91729445,-2.26157396,-0.34340155,-1.57441043,-2.03361511,2.97174262,-2.55468638,-2.19542702,-0.36315918,-1.57402896,-2.03399658,-0.02441406,0.24902344,-0.07812500,-0.01464844,0.01464844,-0.01464844,-2.97584534,-0.18234234,-0.18272400,-0.02441406
1.87980223,655,3.02400397,-2.37692149,-2.53035744,-0.34675598,-1.59195804,-2.70004272,2.96296881,3.91500883,-2.25630127,-0.33392499,-1.57441043,-2.03361511,2.97097968,-2.55125315,-2.19695290,-0.36277771,-1.57441043,-2.03399658,-0.02929688,0.24414062,-0.08300781,0.01464844,-0.00000000,-0.01464844,-2.97584534,-0.18252081,-0.18272400,-0.02441406
1.89465570,660,3.02400397,-2.38073619,-2.52310952,-0.33645630,-1.59195804,-2.70004272,2.96296881,3.91187536,-2.25027237,-0.32416602,-1.57441043,-2.03361511,2.97097968,-2.54743846,-2.19809731,-0.36163330,-1.57402896,-2.03399658,-0.01464844,0.25878906,-0.09277344,0.08789062,0.01464844,-0.02929688,-2.97584534,-0.18259492,-0.18272400,-0.02441406
1.90651417,665,3.02400397,-2.38378794,-2.51586159,-0.32615662,-1.59195804,-2.70004272,2.96296881,3.90837543,-2.24297272,-0.31329011,-1.57441043,-2.03361511,2.97097968,-2.54514964,-2.19886025,-0.35972595,-1.57441043,-2.03399658,-0.00976562,0.23925781,-0.05371094,0.13183594,-0.00000000,-0.02929688,-2.97584534,-0.18268170,-0.18272400,-0.04882812
1.91982651,670,3.02400397,-2.38874705,-2.50632485,-0.31394958,-1.59195804,-2.70004272,2.96296881,3.90447406,-2.23494637,-0.30215841,-1.57441043,-2.03361511,2.97059821,-2.54133494,-2.20000466,-0.35667419,-1.57402896,-2.03399658,-0.01464844,0.22949219,-0.05371094,0.17578125,0.02929688,-0.02929688,-2.97546387,-0.18255755,-0.18272400,0.00000000
1.93527579,675,3.02400397,-2.39561351,-2.49297341,-0.29830933,-1.59195804,-2.70004272,2.96296881,3.89874766,-2.22371583,-0.28833244,-1.57441043,-2.03361511,2.97059821,-2.53828318,-2.20038613,-0.35285950,-1.57402896,-2.03399658,-0.01464844,0.21484375,-0.02929688,0.29296875,0.01464844,-0.01464844,-2.97584534,-0.18257180,-0.18272400,0.00000000
1.94933105,680,3.02400397,-2.40095408,-2.48191079,-0.28610229,-1.59195804,-2.70004272,2.96296881,3.89317373,-2.21255473,-0.27538885,-1.57441043,-2.03361511,2.97021674,-2.53523143,-2.20076760,-0.34828186,-1.57402896,-2.03399658,-0.01464844,0.19042969,-0.01464844,0.30761719,0.02929688,-0.01464844,-2.97584534,-0.18255206,-0.18272400,-0.02441406
1.96439004,685,3.02400397,-2.40782054,-2.46894081,-0.27465820,-1.59195804,-2.70004272,2.96296881,3.88672250,-2.19984009,-0.26265702,-1.57441043,-2.03361511,2.97021674,-2.53217967,-2.20114907,-0.34217834,-1.57402896,-2.03399658,-0.01464844,0.19042969,-0.01464844,0.36621094,0.01464844,0.00000000,-2.97546387,-0.18239300,-0.18272400,-0.02441406
1.97783279,690,3.02400397,-2.41583140,-2.45444496,-0.26245117,-1.59195804,-2.70004272,2.96296881,3.87943511,-2.18636052,-0.25042109,-1.57441043,-2.03361511,2.97021674,-2.52950938,-2.20114907,-0.33607483,-1.57402896,-2.03399658,-0.00488281,0.17578125,-0.00488281,0.45410156,0.01464844,-0.01464844,-2.97584534,-0.18247491,-0.18272400,-0.04882812
1.99103451,695,3.02400397,-2.42384227,-2.43956765,-0.25215149,-1.59195804,-2.70004272,2.96296881,3.87166277,-2.17176397,-0.23920666,-1.57441043,-2.03361511,2.97021674,-2.52722056,-2.20114907,-0.33035278,-1.57402896,-2.03399658,-0.00976562,0.17578125,-0.00000000,0.45410156,-0.00000000,-0.02929688,-2.97584534,-0.18246660,-0.18272400,-0.02441406
2.00527549,700,3.02400397,-2.43452342,-2.42125710,-0.24147034,-1.59195804,-2.70004272,2.96296881,3.86264865,-2.15577199,-0.22862469,-1.57441043,-2.03361511,2.97021674,-2.52493174,-2.20114907,-0.32348633,-1.57402896,-2.03399658,-0.00976562,0.15625000,0.00488281,0.46875000,0.01464844,-0.01464844,-2.97584534,-0.18245508,-0.18272400,-0.02441406
2.02183223,705,3.02400397,-2.44596751,-2.40294655,-0.23307800,-1.59195804,-2.70004272,2.96296881,3.85225520,-2.13854590,-0.21917453,-1.57441043,-2.03361511,2.96983527,-2.52302439,-2.20114907,-0.31623840,-1.57402896,-2.03399658,-0.00976562,0.13183594,0.01953125,0.52734375,0.02929688,-0.01464844,-2.97584534,-0.18255776,-0.18272400,-0.02441406
2.03471375,710,3.02400397,-2.45664866,-2.38539894,-0.22659302,-1.59195804,-2.70004272,2.96296881,3.84169030,-2.12121790,-0.21144057,-1.57441043,-2.03361511,2.96983527,-2.52111705,-2.20038613,-0.30822754,-1.57364749,-2.03399658,-0.01464844,0.12207031,0.06347656,0.57128906,-0.00000000,-0.01464844,-2.97546387,-0.18231674,-0.18234253,-0.02441406
2.05077338,715,3.02400397,-2.46923716,-2.36632546,-0.21934509,-1.59195804,-2.70004272,2.96296881,3.83010229,-2.10281550,-0.20400653,-1.57441043,-2.03361511,2.96983527,-2.51959117,-2.19924172,-0.30136108,-1.57402896,-2.03399658,-0.01464844,0.10742188,0.08300781,0.54199219,-0.00000000,-0.01464844,-2.97584534,-0.18259055,-0.18272400,-0.04882812
2.06379604,720,3.02400397,-2.47991831,-2.34954079,-0.21514893,-1.59195804,-2.70004272,2.96296881,3.81867574,-2.08491821,-0.19809507,-1.57441043,-2.03361511,2.96945380,-2.51844676,-2.19733437,-0.29296875,-1.57441043,-2.03399658,-0.01953125,0.06835938,0.11230469,0.49804688,0.01464844,-0.01464844,-2.97584534,-0.18239804,-0.18272400,-0.02441406
2.07970595,725,3.02400397,-2.49326976,-2.32970436,-0.21247864,-1.59195804,-2.70004272,2.96296881,3.80606784,-2.06579406,-0.19409173,-1.57441043,-2.03361511,2.96945380,-2.51730235,-2.19504555,-0.28495789,-1.57402896,-2.03399658,-0.03417969,0.04882812,0.15625000,0.48339844,0.01464844,-0.01464844,-2.97584534,-0.18237891,-0.18272400,-0.02441406
2.09355164,730,3.02400397,-2.50700267,-2.31024941,-0.21057129,-1.59195804,-2.70004272,2.96296881,3.79259371,-2.04635482,-0.19124707,-1.57445926,-2.03361511,2.96907233,-2.51653941,-2.19313820,-0.27923584,-1.57402896,-2.03399658,-0.01953125,0.05859375,0.17089844,0.48339844,0.01464844,0.00000000,-2.97584534,-0.18253279,-0.18272400,-0.04882812
2.10879898,735,3.02400397,-2.52340586,-2.28812416,-0.20942688,-1.59195804,-2.70004272,2.96296881,3.77775529,-2.02648439,-0.18961437,-1.57442643,-2.03361511,2.96907233,-2.51577647,-2.18970497,-0.27122498,-1.57402896,-2.03399658,-0.01464844,0.02441406,0.19042969,0.45410156,0.02929688,-0.01464844,-2.97584534,-0.18259885,-0.18272400,-0.02441406
2.12538147,740,3.02400397,-2.54133494,-2.26409157,-0.20942688,-1.59195804,-2.70004272,2.96296881,3.76195468,-2.00650742,-0.18882888,-1.57441568,-2.03361511,2.96869086,-2.51539500,-2.18665322,-0.26435852,-1.57402896,-2.03399658,-0.00976562,0.03417969,0.22460938,0.43945312,0.01464844,-0.01464844,-2.97546387,-0.18253040,-0.18272400,-0.02441406
2.14028525,745,3.02400397,-2.55506785,-2.24654396,-0.20942688,-1.59195804,-2.70004272,2.96296881,3.74640409,-1.98650742,-0.18857149,-1.57441215,-2.03361511,2.96869086,-2.51501353,-2.18321999,-0.25825500,-1.57402896,-2.03399658,-0.01464844,0.00488281,0.23925781,0.42480469,-0.00000000,-0.01464844,-2.97546387,-0.18230778,-0.18272400,-0.02441406
2.15317988,750,3.02400397,-2.57185252,-2.22594460,-0.20942688,-1.59195804,-2.70004272,2.96296881,3.73106140,-1.96650742,-0.18848715,-1.57441100,-2.03361511,2.96830939,-2.51501353,-2.17902382,-0.25253296,-1.57402896,-2.03399658,-0.01464844,-0.00976562,0.28808594,0.33691406,0.01464844,-0.01464844,-2.97584534,-0.18246554,-0.18272400,-0.02441406
2.16872907,755,3.02400397,-2.58749278,-2.20763405,-0.20942688,-1.59195804,-2.70004272,2.96296881,3.71536436,-1.94658475,-0.18845951,-1.57444187,-2.03361511,2.96830939,-2.51539500,-2.17559059,-0.24833679,-1.57364749,-2.03399658,-0.00488281,-0.02929688,0.27343750,0.33691406,-0.00000000,-0.01464844,-2.97584534,-0.18237661,-0.18272400,-0.02441406
2.18252683,760,3.02400397,-2.60275157,-2.18970497,-0.20942688,-1.59195804,-2.70004272,2.96296881,3.69977202,-1.92732674,-0.18845046,-1.57442073,-2.03361511,2.96830939,-2.51615794,-2.17063149,-0.24414062,-1.57364749,-2.03399658,-0.00976562,-0.06835938,0.31250000,0.27832031,0.01464844,-0.01464844,-2.97546387,-0.18233551,-0.18272400,0.02441406
2.19547486,765,3.02400397,-2.61915477,-2.17139443,-0.20942688,-1.59195804,-2.70004272,2.96296881,3.68271557,-1.90784156,-0.18844749,-1.57441381,-2.03361511,2.96830939,-2.51692088,-2.16681679,-0.23956299,-1.57364749,-2.03399658,-0.00976562,-0.07812500,0.32714844,0.27832031,0.01464844,0.00000000,-2.97584534,-0.18259670,-0.18272400,-0.02441406
2.21031141,770,3.02400397,-2.63708384,-2.15117653,-0.20866394,-1.59233951,-2.70004272,2.96296881,3.66619061,-1.88852169,-0.18805272,-1.57448783,-2.03361511,2.96830939,-2.51882823,-2.16147621,-0.23498535,-1.57364749,-2.03399658,-0.00976562,-0.11718750,0.33203125,0.27832031,0.02929688,0.00000000,-2.97546387,-0.18236954,-0.18272400,-0.02441406
2.22438240,775,3.02400397,-2.65692027,-2.13019570,-0.20790100,-1.59233951,-2.70004272,2.96296881,3.64761008,-1.86869096,-0.18741042,-1.57466102,-2.03361511,2.96830939,-2.52035411,-2.15613564,-0.23155212,-1.57288455,-2.03399658,-0.00976562,-0.13671875,0.35644531,0.23437500,0.07324219,-0.01464844,-2.97546387,-0.18233319,-0.18272400,-0.04882812
2.24060535,780,3.02400397,-2.67523081,-2.11112221,-0.20751953,-1.59233951,-2.70004272,2.96296881,3.62931907,-1.84887445,-0.18700452,-1.57474901,-2.03361511,2.96830939,-2.52302439,-2.15079506,-0.22850037,-1.57212161,-2.03399658,-0.00976562,-0.17089844,0.40039062,0.23437500,0.05859375,0.00000000,-2.97584534,-0.18237621,-0.18272400,-0.02441406
2.25327992,785,3.02400397,-2.69315989,-2.09281166,-0.20675659,-1.59233951,-2.70004272,2.96296881,3.61115617,-1.82975201,-0.18642889,-1.57477785,-2.03361511,2.96792792,-2.52455027,-2.14659890,-0.22621155,-1.57212161,-2.03399658,-0.00488281,-0.17578125,0.41015625,0.21972656,0.02929688,-0.01464844,-2.97584534,-0.18224968,-0.18272400,0.00000000
2.26895857,790,3.02400397,-2.71299632,-2.07335671,-0.20523071,-1.59233951,-2.70004272,2.96296881,3.59356485,-1.81170757,-0.18536477,-1.57478730,-2.03361511,2.96792792,-2.52874644,-2.13820656,-0.22239685,-1.57212161,-2.03399658,-0.00976562,-0.20996094,0.44433594,0.13183594,0.01464844,0.00000000,-2.97584534,-0.18249045,-0.18272400,0.00000000
2.28176332,795,3.02400397,-2.73168833,-2.05580910,-0.20370483,-1.59233951,-2.70004272,2.96296881,3.57433101,-1.79281886,-0.18403904,-1.57479039,-2.03361511,2.96792792,-2.53103526,-2.13324745,-0.22010803,-1.57212161,-2.03399658,-0.00976562,-0.21484375,0.43457031,0.16113281,-0.00000000,-0.01464844,-2.97584534,-0.18264747,-0.18272400,-0.02441406
2.29710293,800,3.02400397,-2.74694712,-2.04207619,-0.20256042,-1.59233951,-2.70004272,2.96296881,3.55670250,-1.77644667,-0.18270630,-1.57479141,-2.03361511,2.96792792,-2.53408702,-2.12714394,-0.21743774,-1.57212161,-2.03399658,-0.00976562,-0.22949219,0.43945312,0.17578125,0.01464844,-0.01464844,-2.97584534,-0.18269892,-0.18272400,-0.04882812
2.31024933,805,3.02400397,-2.76602061,-2.02567299,-0.19950867,-1.59233951,-2.70004272,2.96296881,3.53799600,-1.75969767,-0.18054840,-1.57479174,-2.03361511,2.96754645,-2.53752024,-2.12065895,-0.21553040,-1.57212161,-2.03399658,-0.01464844,-0.25878906,0.46875000,0.16113281,0.02929688,0.00000000,-2.97584534,-0.18263766,-0.18272400,-0.02441406
2.32637978,810,3.02400397,-2.78433116,-2.01003273,-0.19607544,-1.59233951,-2.70004272,2.96296881,3.51965440,-1.74384303,-0.17752526,-1.57479185,-2.03361511,2.96754645,-2.54171641,-2.11341103,-0.21209717,-1.57212161,-2.03399658,-0.00976562,-0.27832031,0.48339844,0.20507812,-0.00000000,-0.01464844,-2.97584534,-0.18269571,-0.18272400,0.00000000
2.33884263,815,3.02400397,-2.80264170,-1.99515541,-0.19226074,-1.59233951,-2.70004272,2.96296881,3.50063798,-1.72769819,-0.17393869,-1.57479189,-2.03361511,2.96754645,-2.54591258,-2.10616310,-0.20942688,-1.57174015,-2.03399658,-0.01464844,-0.30761719,0.49804688,0.17578125,0.02929688,-0.01464844,-2.97584534,-0.18245203,-0.18272400,-0.02441406
2.35142064,820,3.02400397,-2.82057078,-1.98142250,-0.18806458,-1.59233951,-2.70004272,2.96296881,3.48265327,-1.71355922,-0.17000038,-1.57479190,-2.03361511,2.96716498,-2.55049021,-2.09891518,-0.20675659,-1.57174015,-2.03399658,-0.01464844,-0.32226562,0.51757812,0.16113281,0.02929688,-0.01464844,-2.97584534,-0.18253722,-0.18272400,-0.04882812
2.36800718,825,3.02400397,-2.84040721,-1.96616371,-0.18348694,-1.59233951,-2.70004272,2.96296881,3.46329111,-1.69819472,-0.16555362,-1.57479190,-2.03361511,2.96716498,-2.55544932,-2.09128579,-0.20332336,-1.57174015,-2.03399658,-0.00976562,-0.35156250,0.54199219,0.23437500,0.02929688,-0.01464844,-2.97584534,-0.18260030,-0.18272400,-0.02441406
2.38260341,830,3.02400397,-2.86176951,-1.95052346,-0.17814636,-1.59233951,-2.70004272,2.96296881,3.44461897,-1.68409306,-0.16111971,-1.57479190,-2.03361511,2.96716498,-2.56078990,-2.08327492,-0.20065308,-1.57135868,-2.03399658,-0.01464844,-0.36621094,0.52246094,0.16113281,0.01464844,-0.01464844,-2.97584534,-0.18268346,-0.18272400,-0.02441406
2.39802670,835,3.02400397,-2.88275035,-1.93602761,-0.17356873,-1.59233951,-2.70004272,2.96296881,3.42538127,-1.66968097,-0.15654278,-1.57479190,-2.03361511,2.96678351,-2.56689341,-2.07564553,-0.19836426,-1.57174015,-2.03399658,-0.01953125,-0.38574219,0.52734375,0.13183594,-0.00000000,-0.01464844,-2.97584534,-0.18264822,-0.18272400,-0.07324219
2.41208410,840,3.02400397,-2.90106089,-1.92343911,-0.16899109,-1.59233951,-2.70004272,2.96296881,3.40557348,-1.65590800,-0.15196781,-1.57479190,-2.03361511,2.96678351,-2.57223399,-2.06725319,-0.19531250,-1.57174015,-2.03399658,-0.02441406,-0.40039062,0.56152344,0.23437500,-0.00000000,-0.01464844,-2.97584534,-0.18262104,-0.18272400,-0.04882812
2.42654490,845,3.02400397,-2.91937144,-1.91161354,-0.16365051,-1.59195804,-2.70004272,2.96296881,3.38698574,-1.64382957,-0.14723602,-1.57471561,-2.03361511,2.96640204,-2.57795603,-2.05924233,-0.19187927,-1.57212161,-2.03399658,-0.00976562,-0.41992188,0.56640625,0.17578125,-0.00000000,-0.01464844,-2.97584534,-0.18261214,-0.18272400,-0.02441406
2.43849611,850,3.02400397,-2.93463023,-1.90131386,-0.15983582,-1.59233951,-2.70004272,2.96296881,3.36914914,-1.63214917,-0.14259103,-1.57476690,-2.03361511,2.96640204,-2.58291514,-2.05275734,-0.18997192,-1.57174015,-2.03399658,-0.01464844,-0.41503906,0.57617188,0.14648438,0.02929688,-0.01464844,-2.97584534,-0.18238949,-0.18272400,0.00000000
2.45268035,855,3.02400397,-2.95217784,-1.89063271,-0.15563965,-1.59233951,-2.70004272,2.96296881,3.35275244,-1.62166402,-0.13842015,-1.57478371,-2.03361511,2.96640204,-2.58901866,-2.04512795,-0.18539429,-1.57174015,-2.03399658,-0.00488281,-0.43457031,0.57128906,0.29296875,0.01464844,0.00000000,-2.97584534,-0.18261439,-0.18272400,0.00000000
2.46965599,860,3.02400397,-2.97125132,-1.87995156,-0.15144348,-1.59233951,-2.70004272,2.96296881,3.33404106,-1.61039720,-0.13386362,-1.57472818,-2.03361511,2.96640204,-2.59741099,-2.03597267,-0.18043518,-1.57174015,-2.03399658,-0.00976562,-0.46386719,0.56152344,0.24902344,0.01464844,0.00000000,-2.97584534,-0.18260996,-0.18272400,0.00000000
2.48210716,865,3.02400397,-2.99032481,-1.86965187,-0.14724731,-1.59195804,-2.70004272,2.96296881,3.31517090,-1.59993392,-0.12975982,-1.57454580,-2.03361511,2.96640204,-2.60198863,-2.02948769,-0.17814636,-1.57212161,-2.03399658,-0.00488281,-0.48339844,0.56640625,0.20507812,-0.01464844,-0.02929688,-2.97584534,-0.18268663,-0.18272400,0.00000000
2.49599624,870,3.02400397,-3.00329478,-1.86278542,-0.14419556,-1.59195804,-2.70004272,2.96296881,3.29910660,-1.59119355,-0.12609086,-1.57445479,-2.03361511,2.96640204,-2.60923655,-2.02071389,-0.17433167,-1.57212161,-2.03399658,-0.00976562,-0.49316406,0.59082031,0.20507812,0.01464844,-0.01464844,-2.97546387,-0.18255917,-0.18272400,-0.02441406
2.50739884,875,3.02400397,-3.01664622,-1.85591896,-0.14076233,-1.59195804,-2.70004272,2.96296881,3.28392529,-1.58312808,-0.12238264,-1.57442497,-2.03361511,2.96640204,-2.61534007,-2.01384743,-0.17166138,-1.57212161,-2.03399658,0.00000000,-0.51269531,0.59570312,0.26367188,-0.01464844,-0.02929688,-2.97546387,-0.18233283,-0.18272400,-0.04882812
2.51981258,880,3.02400397,-3.03343089,-1.84714516,-0.13542175,-1.59195804,-2.70004272,2.96296881,3.26862694,-1.57512643,-0.11807793,-1.57441520,-2.03361511,2.96640204,-2.62182505,-2.00659951,-0.16860962,-1.57212161,-2.03399658,-0.00976562,-0.52246094,0.60058594,0.23437500,0.02929688,0.00000000,-2.97584534,-0.18259582,-0.18310547,-0.02441406
2.53363156,885,3.02400397,-3.04907115,-1.83989724,-0.13122559,-1.59195804,-2.70004272,2.96296881,3.25286435,-1.56729412,-0.11355225,-1.57441199,-2.03361511,2.96640204,-2.62907298,-1.99858864,-0.16517639,-1.57212161,-2.03399658,0.00000000,-0.54199219,0.55664062,0.23437500,-0.00000000,0.00000000,-2.97584534,-0.18268200,-0.18272400,-0.02441406
2.54750586,890,3.02400397,-3.06471141,-1.83188637,-0.12664795,-1.59157657,-2.70004272,2.96296881,3.23729875,-1.55960592,-0.10920306,-1.57427362,-2.03361511,2.96640204,-2.63632090,-1.99248513,-0.16174316,-1.57250308,-2.03399658,-0.00976562,-0.54687500,0.55175781,0.21972656,-0.01464844,-0.01464844,-2.97546387,-0.18249515,-0.18272400,-0.02441406
2.56125569,895,3.02400397,-3.08035166,-1.82501992,-0.12245178,-1.59195804,-2.70004272,2.96296881,3.22189145,-1.55228856,-0.10502560,-1.57436560,-2.03361511,2.96602057,-2.64433177,-1.98561867,-0.15754700,-1.57288455,-2.03399658,-0.00976562,-0.55664062,0.53710938,0.30761719,-0.01464844,0.00000000,-2.97584534,-0.18257088,-0.18272400,-0.02441406
2.57617235,900,3.02400397,-3.09637339,-1.81739052,-0.11711121,-1.59195804,-2.70004272,2.96296881,3.20649440,-1.54508758,-0.10044067,-1.57433471,-2.03361511,2.96602057,-2.64967234,-1.97875222,-0.15487671,-1.57326602,-2.03399658,-0.00488281,-0.55664062,0.52246094,0.24902344,-0.01464844,-0.01464844,-2.97546387,-0.18252124,-0.18272400,-0.02441406
2.58996034,905,3.02400397,-3.11239512,-1.81052407,-0.11100769,-1.59195804,-2.70004272,2.96296881,3.18976373,-1.53758319,-0.09462920,-1.57435437,-2.03361511,2.96602057,-2.65997203,-1.96921547,-0.14915466,-1.57364749,-2.03399658,-0.00976562,-0.56640625,0.51269531,0.29296875,-0.01464844,0.00000000,-2.97546387,-0.18250497,-0.18272400,0.00000000
2.60385156,910,3.02400397,-3.12956126,-1.80365761,-0.10375977,-1.59157657,-2.70004272,2.96296881,3.17420861,-1.53102967,-0.08859318,-1.57417465,-2.03361511,2.96602057,-2.66912730,-1.96120461,-0.14457703,-1.57364749,-2.03399658,-0.00976562,-0.58105469,0.52246094,0.26367188,0.01464844,-0.01464844,-2.97584534,-0.18265223,-0.18272400,-0.04882812
2.62004113,915,3.02400397,3.13989114,-1.79831704,-0.09841919,-1.59157657,-2.70004272,2.96296881,3.15915447,-1.52489222,-0.08265656,-1.57407670,-2.03361511,2.96563910,-2.67790110,-1.95357521,-0.14038086,-1.57364749,-2.03399658,-0.01464844,-0.60058594,0.50781250,0.26367188,0.01464844,-0.01464844,-2.97584534,-0.18260282,-0.18272400,-0.02441406
2.63520265,920,3.02400397,3.12615823,-1.79297646,-0.09231567,-1.59157657,-2.70004272,2.96296881,3.14362779,-1.51877002,-0.07620636,-1.57404461,-2.03361511,2.96563910,-2.68629344,-1.94670876,-0.13694763,-1.57364749,-2.03399658,-0.00976562,-0.61523438,0.50292969,0.26367188,0.02929688,-0.02929688,-2.97584534,-0.18268429,-0.18272400,-0.02441406
2.64868283,925,3.02400397,3.10899209,-1.78649147,-0.08430481,-1.59157657,-2.70004272,2.96296881,3.12827279,-1.51294200,-0.06934654,-1.57403409,-2.03361511,2.96563910,-2.69621165,-1.93907936,-0.13198853,-1.57364749,-2.03399658,-0.00488281,-0.62988281,0.48339844,0.29296875,0.01464844,-0.01464844,-2.97584534,-0.18263286,-0.18272400,-0.02441406
2.66200805,930,3.02400397,3.09716653,-1.78229531,-0.07896423,-1.59157657,-2.70004272,2.96296881,3.11442547,-1.50781169,-0.06298959,-1.57403064,-2.03361511,2.96563910,-2.70384104,-1.93335732,-0.12779236,-1.57402896,-2.03399658,-0.00976562,-0.63476562,0.46386719,0.33691406,0.01464844,-0.01464844,-2.97584534,-0.18257207,-0.18272400,-0.02441406
2.67642879,935,3.02400397,3.08572244,-1.77886208,-0.07438660,-1.59119510,-2.70004272,2.96296881,3.10106010,-1.50327647,-0.05715166,-1.57389218,-2.03361511,2.96563910,-2.71223338,-1.92877968,-0.12283325,-1.57441043,-2.03399658,-0.01464844,-0.63964844,0.47363281,0.33691406,-0.01464844,-0.01464844,-2.97546387,-0.18239956,-0.18272400,-0.04882812
2.69001627,940,3.02400397,3.06970071,-1.77275856,-0.06752014,-1.59081363,-2.70004272,2.96296881,3.08744103,-1.49844271,-0.05143913,-1.57359035,-2.03361511,2.96563910,-2.72138865,-1.92115029,-0.11711121,-1.57517337,-2.03399658,-0.00976562,-0.62500000,0.46875000,0.36621094,-0.04394531,0.00000000,-2.97546387,-0.18240260,-0.18272400,0.00000000
2.70454359,945,3.02400397,3.05520486,-1.76779946,-0.06217957,-1.59043216,-2.70004272,2.96296881,3.07373444,-1.49351637,-0.04587608,-1.57318614,-2.03361511,2.96563910,-2.73016246,-1.91504677,-0.11253357,-1.57593631,-2.03399658,-0.00488281,-0.64453125,0.45410156,0.29296875,-0.01464844,-0.01464844,-2.97584534,-0.18261868,-0.18272400,-0.02441406
2.71951914,950,3.02400397,3.04299783,-1.76360329,-0.05798340,-1.58966922,-2.70004272,2.96296881,3.06074648,-1.48908632,-0.04103035,-1.57262083,-2.03361511,2.96563910,-2.74008067,-1.90779885,-0.10719299,-1.57555484,-2.03399658,-0.00976562,-0.63476562,0.44921875,0.32226562,0.04394531,0.00000000,-2.97584534,-0.18246976,-0.18272400,-0.02441406
2.73298478,955,3.02400397,3.03384255,-1.76055153,-0.05607605,-1.58890628,-2.70004272,2.96296881,3.04909166,-1.48502628,-0.03744092,-1.57192265,-2.03361511,2.96525763,-2.74771006,-1.90245827,-0.10337830,-1.57517337,-2.03399658,-0.00976562,-0.63964844,0.45410156,0.33691406,-0.00000000,-0.01464844,-2.97584534,-0.18256257,-0.18272400,-0.02441406
2.74674988,960,3.02400397,3.02430581,-1.75749977,-0.05455017,-1.58852481,-2.70004272,2.96296881,3.03831106,-1.48150057,-0.03507626,-1.57140615,-2.03361511,2.96525763,-2.75648387,-1.89749916,-0.09841919,-1.57517337,-2.03399658,-0.00976562,-0.64941406,0.41503906,0.35156250,0.01464844,-0.02929688,-2.97584534,-0.18267110,-0.18272400,-0.07324219
2.75967765,965,3.02400397,3.01133584,-1.75292214,-0.05340576,-1.58852481,-2.70004272,2.96296881,3.02705655,-1.47752251,-0.03350514,-1.57111776,-2.03361511,2.96525763,-2.76525767,-1.89177712,-0.09384155,-1.57479190,-2.03399658,-0.00976562,-0.66894531,0.40527344,0.32226562,0.02929688,-0.01464844,-2.97584534,-0.18254651,-0.18272400,-0.02441406
2.77197671,970,3.02400397,3.00332498,-1.74948891,-0.05264282,-1.58814334,-2.70004272,2.96296881,3.01764443,-1.47404992,-0.03251644,-1.57086689,-2.03361511,2.96525763,-2.77479441,-1.88567360,-0.08888245,-1.57517337,-2.03399658,-0.00488281,-0.67871094,0.39062500,0.33691406,-0.00000000,0.00000000,-2.97546387,-0.18232868,-0.18272400,-0.04882812
2.78652215,975,3.02400397,2.99416970,-1.74605568,-0.05149841,-1.58814334,-2.70004272,2.96296881,3.00829269,-1.47052127,-0.03150313,-1.57072365,-2.03361511,2.96525763,-2.78394969,-1.88071450,-0.08468628,-1.57517337,-2.03399658,-0.00976562,-0.68359375,0.37597656,0.29296875,0.01464844,-0.01464844,-2.97546387,-0.18244187,-0.18272400,0.00000000
2.80102420,980,3.02400397,2.98463296,-1.74224099,-0.05035400,-1.58814334,-2.70004272,2.96296881,2.99928141,-1.46707276,-0.03040168,-1.57063765,-2.03361511,2.96525763,-2.79463084,-1.87461098,-0.08010864,-1.57517337,-2.03399658,-0.01464844,-0.69824219,0.37597656,0.23437500,0.01464844,-0.02929688,-2.97546387,-0.18238131,-0.18272400,-0.02441406
2.81746459,985,3.02400397,2.97547769,-1.73880776,-0.04882812,-1.58814334,-2.70004272,2.96296881,2.98984031,-1.46348365,-0.02911498,-1.57060947,-2.03361511,2.96525763,-2.80378611,-1.86927040,-0.07667542,-1.57555484,-2.03399658,-0.01464844,-0.66406250,0.39550781,0.24902344,0.01464844,-0.02929688,-2.97584534,-0.18234901,-0.18272400,0.00000000
2.83089638,990,3.02400397,2.96822976,-1.73613747,-0.04730225,-1.58814334,-2.70004272,2.96296881,2.98101191,-1.45994246,-0.02750634,-1.57060024,-2.03361511,2.96525763,-2.81294139,-1.86469277,-0.07286072,-1.57555484,-2.03399658,-0.01953125,-0.63964844,0.38085938,0.23437500,0.01464844,-0.01464844,-2.97546387,-0.18224834,-0.18272400,-0.02441406
2.84495234,995,3.02400397,2.95983743,-1.73270424,-0.04425049,-1.58814334,-2.70004272,2.96296881,2.97298548,-1.45687327,-0.02535813,-1.57059721,-2.03361511,2.96487616,-2.82285960,-1.85820778,-0.06942749,-1.57517337,-2.03399658,-0.02441406,-0.64453125,0.37109375,0.20507812,0.02929688,-0.01464844,-2.97584534,-0.18247048,-0.18272400,-0.02441406
2.85817480,1000,3.02400397,2.95373391,-1.73041542,-0.04081726,-1.58814334,-2.70004272,2.96296881,2.96555606,-1.45399036,-0.02232839,-1.57059622,-2.03361511,2.96449469,-2.82934458,-1.85477455,-0.06713867,-1.57517337,-2.03399658,-0.02929688,-0.65917969,0.34179688,0.23437500,0.01464844,0.00000000,-2.97584534,-0.18251886,-0.18272400,-0.02441406
2.87077045,1005,3.02400397,2.94648599,-1.72812661,-0.03623962,-1.58776187,-2.70004272,2.96296881,2.95862561,-1.45158499,-0.01859586,-1.57051960,-2.03361511,2.96449469,-2.84002574,-1.84905251,-0.06332397,-1.57479190,-2.03399658,-0.00976562,-0.65429688,0.35644531,0.23437500,0.05859375,-0.02929688,-2.97584534,-0.18239408,-0.18272400,0.00000000
2.88316989,1010,3.02400397,2.94038247,-1.72545632,-0.03128052,-1.58699893,-2.70004272,2.96296881,2.95209683,-1.44913482,-0.01421300,-1.57005187,-2.03361511,2.96449469,-2.84803660,-1.84447487,-0.06065369,-1.57441043,-2.03399658,-0.00976562,-0.66894531,0.39062500,0.17578125,0.05859375,-0.01464844,-2.97584534,-0.18251824,-0.18272400,0.00000000
2.90026069,1015,3.02400397,2.93351602,-1.72278603,-0.02593994,-1.58547306,-2.70004272,2.96296881,2.94504659,-1.44638333,-0.00893283,-1.56884294,-2.03361511,2.96449469,-2.85719187,-1.84027870,-0.05760193,-1.57441043,-2.03399658,-0.00976562,-0.66406250,0.34667969,0.21972656,-0.00000000,-0.01464844,-2.97584534,-0.18265657,-0.18272400,-0.04882812
2.91476369,1020,3.02400397,2.92436074,-1.71973427,-0.01869202,-1.58356571,-2.70004272,2.96296881,2.93672026,-1.44334989,-0.00238878,-1.56720351,-2.03361511,2.96449469,-2.86749156,-1.83531960,-0.05340576,-1.57441043,-2.03399658,-0.00488281,-0.64453125,0.30761719,0.24902344,-0.00000000,-0.02929688,-2.97584534,-0.18270191,-0.18272400,-0.02441406
2.92828631,1025,3.02400397,2.91749429,-1.71668251,-0.01220703,-1.58089542,-2.70004272,2.96296881,2.92962494,-1.44054535,0.00364535,-1.56525041,-2.03361511,2.96449469,-2.87740977,-1.82997902,-0.04959106,-1.57402896,-2.03399658,-0.00976562,-0.64453125,0.29785156,0.21972656,0.02929688,-0.01464844,-2.97546387,-0.18250167,-0.18272400,-0.02441406
2.94121218,1030,3.02400397,2.91177224,-1.71439370,-0.00648499,-1.57708072,-2.70004272,2.96296881,2.92329470,-1.43795619,0.00965764,-1.56220831,-2.03361511,2.96449469,-2.88503916,-1.82616433,-0.04653931,-1.57402896,-2.03399658,-0.00488281,-0.62988281,0.32226562,0.23437500,0.02929688,0.00000000,-2.97546387,-0.18237649,-0.18272400,-0.02441406
2.95584679,1035,3.02400397,2.90528726,-1.71172341,-0.00076294,-1.57097721,-2.70004272,2.96296881,2.91712116,-1.43554393,0.01525458,-1.55780914,-2.03361511,2.96449469,-2.89419444,-1.82158669,-0.04158020,-1.57288455,-2.03399658,-0.00488281,-0.64941406,0.31250000,0.29296875,0.11718750,-0.02929688,-2.97584534,-0.18239040,-0.18272400,-0.02441406
2.97240591,1040,3.02400397,2.89956521,-1.70943459,0.00457764,-1.56411075,-2.70004272,2.96296881,2.91058809,-1.43280304,0.02139108,-1.55134784,-2.03361511,2.96449469,-2.90525706,-1.81586464,-0.03623962,-1.57212161,-2.03399658,-0.00488281,-0.64453125,0.30761719,0.27832031,0.05859375,-0.01464844,-2.97584534,-0.18261469,-0.18272400,-0.02441406
2.98928046,1045,3.02400397,2.89269875,-1.70638283,0.00991821,-1.55609989,-2.70004272,2.96296881,2.90420148,-1.43016467,0.02676248,-1.54427638,-2.03361511,2.96449469,-2.91593821,-1.81090554,-0.03204346,-1.56945133,-2.03399658,-0.00976562,-0.64453125,0.32714844,0.29296875,0.19042969,-0.01464844,-2.97584534,-0.18259052,-0.18272400,-0.02441406
3.00243425,1050,3.02400397,2.88773965,-1.70409401,0.01411438,-1.55037784,-2.70004272,2.96296881,2.89861494,-1.42761092,0.03142383,-1.53800132,-2.03361511,2.96449469,-2.92433055,-1.80670937,-0.02708435,-1.56754398,-2.03399658,-0.00488281,-0.63476562,0.31738281,0.33691406,0.16113281,0.00000000,-2.97584534,-0.18244198,-0.18272400,-0.04882812
3.01550293,1055,3.02400397,2.88354348,-1.70218666,0.01754761,-1.54503726,-2.70004272,2.96296881,2.89379277,-1.42545270,0.03540011,-1.53213529,-2.03361511,2.96449469,-2.93272288,-1.80289467,-0.02250671,-1.56601810,-2.03399658,-0.00488281,-0.62988281,0.28320312,0.30761719,0.11718750,-0.02929688,-2.97584534,-0.18253393,-0.18272400,-0.02441406
3.03207827,1060,3.02400397,2.87858437,-1.70027932,0.02098083,-1.53931522,-2.70004272,2.96296881,2.88887999,-1.42325318,0.03919000,-1.52608726,-2.03361511,2.96449469,-2.94302256,-1.79831704,-0.01831055,-1.56258487,-2.03399658,-0.00976562,-0.61523438,0.28808594,0.26367188,0.21972656,0.00000000,-2.97546387,-0.18227085,-0.18272400,-0.02441406
3.04703379,1065,3.02400397,2.87553262,-1.69837197,0.02250671,-1.53588199,-2.70004272,2.96296881,2.88487418,-1.42136777,0.04174876,-1.52151400,-2.03361511,2.96411322,-2.95217784,-1.79412087,-0.01335144,-1.55838870,-2.03399658,-0.00976562,-0.62011719,0.28320312,0.30761719,0.32226562,-0.01464844,-2.97584534,-0.18243489,-0.18272400,-0.02441406
3.06447291,1070,3.02400397,2.87171792,-1.69608315,0.02250671,-1.53283023,-2.70004272,2.96296881,2.88123026,-1.41938351,0.04291778,-1.51798566,-2.03361511,2.96411322,-2.96095164,-1.79030617,-0.00877380,-1.55533695,-2.03399658,-0.00488281,-0.60546875,0.27343750,0.23437500,0.23437500,-0.01464844,-2.97546387,-0.18241417,-0.18272400,-0.04882812
3.07769299,1075,3.02400397,2.86942910,-1.69493874,0.02250671,-1.53206729,-2.70004272,2.96296881,2.87820736,-1.41764260,0.04330085,-1.51580581,-2.03361511,2.96411322,-2.97010691,-1.78572853,-0.00457764,-1.55304813,-2.03399658,-0.00488281,-0.56640625,0.28808594,0.23437500,0.20507812,-0.04394531,-2.97584534,-0.18248185,-0.18272400,-0.04882812
3.09240794,1080,3.02400397,2.86752175,-1.69303139,0.02250671,-1.53206729,-2.70004272,2.96296881,2.87592519,-1.41601880,0.04342637,-1.51494112,-2.03361511,2.96411322,-2.97811778,-1.78229531,-0.00076294,-1.55037784,-2.03399658,-0.00976562,-0.59570312,0.25878906,0.24902344,0.20507812,-0.01464844,-2.97584534,-0.18234680,-0.18272400,0.00000000
3.10701537,1085,3.02400397,2.86599587,-1.69150551,0.02250671,-1.53206729,-2.70004272,2.96296881,2.87393030,-1.41429286,0.04346750,-1.51465778,-2.03361511,2.96411322,-2.98498423,-1.77886208,0.00228882,-1.54923343,-2.03399658,-0.00488281,-0.59570312,0.27343750,0.23437500,0.13183594,-0.01464844,-2.97584534,-0.18247833,-0.18272400,-0.02441406
3.11891866,1090,3.02400397,2.86447000,-1.69074257,0.02250671,-1.53206729,-2.70004272,2.96296881,2.87221167,-1.41300294,0.04348098,-1.51456494,-2.03361511,2.96411322,-2.99299510,-1.77581032,0.00610352,-1.54694461,-2.03399658,-0.00488281,-0.58593750,0.23925781,0.29296875,0.16113281,0.00000000,-2.97584534,-0.18252143,-0.18272400,-0.07324219
3.13371491,1095,3.02400397,2.86332559,-1.68921669,0.02250671,-1.53206729,-2.70004272,2.96296881,2.87087910,-1.41181464,0.04348540,-1.51453451,-2.03361511,2.96411322,-3.00291331,-1.77199562,0.00953674,-1.54312992,-2.03399658,-0.00976562,-0.57128906,0.26367188,0.16113281,0.20507812,-0.02929688,-2.97546387,-0.18220718,-0.18272400,-0.02441406
3.14808011,1100,3.02400397,2.86294412,-1.68807228,0.02250671,-1.53244876,-2.70004272,2.96296881,2.86990424,-1.41051473,0.04348684,-1.51466187,-2.03361511,2.96411322,-3.00901683,-1.76894387,0.01106262,-1.54236698,-2.03399658,-0.01464844,-0.56152344,0.24414062,0.13183594,0.11718750,-0.01464844,-2.97584534,-0.18241402,-0.18272400,-0.02441406
3.15873909,1105,3.02400397,2.86179971,-1.68692787,0.02250671,-1.53244876,-2.70004272,2.96296881,2.86906587,-1.40945072,0.04348732,-1.51475244,-2.03361511,2.96411322,-3.01626475,-1.76551064,0.01296997,-1.54007816,-2.03399658,-0.00488281,-0.55175781,0.23925781,0.14648438,0.14648438,0.00000000,-2.97584534,-0.18262243,-0.18272400,-0.02441406
3.17220163,1110,3.02400397,2.86141824,-1.68578347,0.02250671,-1.53244876,-2.70004272,2.96296881,2.86831545,-1.40816224,0.04348747,-1.51485242,-2.03361511,2.96411322,-3.02313121,-1.76284035,0.01564026,-1.53817081,-2.03399658,-0.00488281,-0.54199219,0.23437500,0.19042969,0.19042969,0.00000000,-2.97546387,-0.18241606,-0.18272400,-0.04882812
3.18751121,1115,3.02400397,2.86141824,-1.68463906,0.02250671,-1.53244876,-2.70004272,2.96296881,2.86803830,-1.40707072,0.04348752,-1.51488519,-2.03361511,2.96373175,-3.03152354,-1.75940712,0.01716614,-1.53511905,-2.03399658,-0.00488281,-0.50781250,0.21972656,0.08789062,0.19042969,-0.01464844,-2.97584534,-0.18262309,-0.18272400,-0.02441406
3.20054483,1120,3.02400397,2.86141824,-1.68349465,0.02250671,-1.53244876,-2.70004272,2.96296881,2.86794749,-1.40590458,0.04348754,-1.51489592,-2.03361511,2.96373175,-3.03762706,-1.75673683,0.01831055,-1.53283023,-2.03399658,-0.00488281,-0.52246094,0.21972656,0.07324219,0.21972656,0.00000000,-2.97584534,-0.18251515,-0.18272400,-0.02441406
3.21576953,1125,3.02400397,2.86141824,-1.68273171,0.02250671,-1.53244876,-2.70004272,2.96296881,2.86791773,-1.40494849,0.04348755,-1.51489944,-2.03361511,2.96373175,-3.04411204,-1.75330361,0.02021790,-1.53054141,-2.03399658,-0.00976562,-0.51269531,0.23437500,0.14648438,0.14648438,0.00000000,-2.97584534,-0.18229521,-0.18272400,-0.04882812
3.23096919,1130,3.02400397,2.86141824,-1.68196877,0.02250671,-1.53244876,-2.70004272,2.96296881,2.86790798,-1.40409100,0.04348755,-1.51490059,-2.03361511,2.96373175,-3.05250437,-1.74987038,0.02288818,-1.52977848,-2.03399658,-0.00488281,-0.51269531,0.22460938,0.16113281,0.02929688,-0.01464844,-2.97584534,-0.18234521,-0.18272400,0.00000000
3.24547029,1135,3.02400397,2.86141824,-1.68158730,0.02250671,-1.53244876,-2.70004272,2.96296881,2.86790478,-1.40355355,0.04348755,-1.51490097,-2.03361511,2.96373175,-3.06051524,-1.74605568,0.02441406,-1.52863407,-2.03399658,-0.00976562,-0.48828125,0.21972656,0.04394531,0.11718750,0.00000000,-2.97546387,-0.18214944,-0.18272400,0.00000000
3.26016974,1140,3.02400397,2.86141824,-1.68082436,0.02250671,-1.53244876,-2.70004272,2.96296881,2.86790373,-1.40289575,0.04348755,-1.51490110,-2.03361511,2.96373175,-3.06661875,-1.74376686,0.02632141,-1.52825260,-2.03399658,-0.00488281,-0.48828125,0.20507812,0.11718750,0.04394531,-0.01464844,-2.97584534,-0.18247323,-0.18272400,-0.04882812
3.27394056,1145,3.02400397,2.86141824,-1.68082436,0.02212524,-1.53244876,-2.70004272,2.96296881,2.86790339,-1.40252981,0.04330139,-1.51490114,-2.03361511,2.96373175,-3.07386668,-1.74033364,0.02822876,-1.52748966,-2.03399658,-0.00488281,-0.47363281,0.21484375,0.10253906,0.08789062,-0.01464844,-2.97546387,-0.18239158,-0.18272400,-0.02441406
3.28706527,1150,3.02400397,2.86141824,-1.68044289,0.02212524,-1.53244876,-2.70004272,2.96296881,2.86790328,-1.40227257,0.04317008,-1.51490115,-2.03361511,2.96373175,-3.07997019,-1.73804482,0.02899170,-1.52825260,-2.03399658,-0.00488281,-0.46386719,0.19531250,0.07324219,-0.00000000,0.00000000,-2.97584534,-0.18261507,-0.18272400,-0.02441406
3.30236959,1155,3.02400397,2.86141824,-1.68044289,0.02174377,-1.53244876,-2.70004272,2.96296881,2.86790324,-1.40206914,0.04301169,-1.51490115,-2.03361511,2.96373175,-3.08683665,-1.73537453,0.03089905,-1.52748966,-2.03399658,-0.00488281,-0.46386719,0.18554688,0.10253906,0.07324219,-0.01464844,-2.97546387,-0.18247322,-0.18272400,0.00000000
3.31540585,1160,3.02400397,2.86141824,-1.68044289,0.02174377,-1.53244876,-2.70004272,2.96296881,2.86790323,-1.40200248,0.04296761,-1.51490116,-2.03361511,2.96373175,-3.09294017,-1.73270424,0.03242493,-1.52596378,-2.03399658,-0.00488281,-0.43457031,0.18554688,0.07324219,0.05859375,0.00000000,-2.97546387,-0.18248924,-0.18272400,0.00000000
3.32965565,1165,3.02400397,2.86141824,-1.68006142,0.02174377,-1.53244876,-2.70004272,2.96296881,2.86790322,-1.40175542,0.04280423,-1.51490116,-2.03361511,2.96373175,-3.09866221,-1.73003395,0.03280640,-1.52558231,-2.03399658,-0.00488281,-0.42968750,0.20019531,0.01464844,0.05859375,-0.01464844,-2.97584534,-0.18247129,-0.18272400,-0.02441406
3.34592605,1170,3.02400397,2.86141824,-1.68006142,0.02174377,-1.53244876,-2.70004272,2.96296881,2.86790322,-1.40164321,0.04275070,-1.51490116,-2.03361511,2.96373175,-3.10591014,-1.72660073,0.03395081,-1.52481937,-2.03399658,-0.00488281,-0.42968750,0.21972656,0.04394531,0.04394531,-0.01464844,-2.97584534,-0.18257869,-0.18272400,-0.04882812
3.35916543,1175,3.02400397,2.86141824,-1.68006142,0.02174377,-1.53244876,-2.70004272,2.96296881,2.86790322,-1.40160644,0.04273316,-1.51496219,-2.03361511,2.96373175,-3.11086924,-1.72507485,0.03433228,-1.52405643,-2.03399658,-0.00976562,-0.41992188,0.19531250,0.02929688,0.08789062,-0.01464844,-2.97546387,-0.18233923,-0.18272400,-0.02441406
3.37504864,1180,3.02400397,2.86141824,-1.68006142,0.02174377,-1.53244876,-2.70004272,2.96296881,2.86790322,-1.40159439,0.04272741,-1.51492116,-2.03361511,2.96373175,-3.11773570,-1.72126015,0.03433228,-1.52253055,-2.03399658,-0.00488281,-0.41992188,0.19042969,-0.01464844,0.07324219,0.00000000,-2.97546387,-0.18226076,-0.18272400,-0.02441406
3.38882399,1185,3.02400397,2.86141824,-1.68006142,0.02174377,-1.53244876,-2.70004272,2.96296881,2.86790322,-1.40159044,0.04272553,-1.51490771,-2.03361511,2.96373175,-3.12345774,-1.71858986,0.03471375,-1.52176761,-2.03399658,-0.00488281,-0.40527344,0.17089844,0.00000000,0.05859375,-0.02929688,-2.97584534,-0.18250970,-0.18272400,-0.04882812
3.40293860,1190,3.02400397,2.86141824,-1.68006142,0.02174377,-1.53244876,-2.70004272,2.96296881,2.86790322,-1.40158915,0.04272491,-1.51494237,-2.03361511,2.96373175,-3.12879832,-1.71668251,0.03471375,-1.52176761,-2.03399658,-0.00488281,-0.40527344,0.16601562,-0.01464844,0.02929688,0.00000000,-2.97584534,-0.18265378,-0.18272400,0.00000000
3.41845798,1195,3.02400397,2.86141824,-1.68006142,0.02174377,-1.53244876,-2.70004272,2.96296881,2.86790322,-1.40158873,0.04272471,-1.51491466,-2.03361511,2.96373175,-3.13490184,-1.71439370,0.03471375,-1.52176761,-2.03399658,0.00000000,-0.40039062,0.17578125,-0.01464844,-0.00000000,0.00000000,-2.97584534,-0.18257892,-0.18272400,0.00000000
3.43658233,1200,3.02400397,2.86141824,-1.68006142,0.02174377,-1.53283023,-2.70004272,2.96296881,2.86790322,-1.40158859,0.04272464,-1.51498187,-2.03361511,2.96373175,-3.13871653,-1.71248635,0.03509521,-1.52176761,-2.03399658,-0.00976562,-0.39550781,0.15625000,0.01464844,0.01464844,-0.01464844,-2.97584534,-0.18255439,-0.18272400,-0.04882812
3.44907737,1205,3.02400397,2.86141824,-1.68006142,0.02174377,-1.53283023,-2.70004272,2.96296881,2.86790322,-1.40158854,0.04272462,-1.51511376,-2.03361511,2.96373175,3.13607644,-1.70905312,0.03509521,-1.52138614,-2.03399658,-0.00976562,-0.37597656,0.15625000,0.00000000,0.02929688,-0.02929688,-2.97584534,-0.18266842,-0.18272400,-0.02441406
3.46339583,1210,3.02400397,2.86141824,-1.68006142,0.02136230,-1.53283023,-2.70004272,2.96296881,2.86790322,-1.40158853,0.04249939,-1.51522729,-2.03361511,2.96373175,3.13111733,-1.70676430,0.03585815,-1.52138614,-2.03399658,-0.00488281,-0.36621094,0.16601562,0.01464844,0.01464844,-0.01464844,-2.97584534,-0.18270579,-0.18272400,-0.02441406
3.47901559,1215,3.02400397,2.86141824,-1.68006142,0.02021790,-1.53283023,-2.70004272,2.96296881,2.86790322,-1.40158852,0.04187542,-1.51526449,-2.03361511,2.96373175,3.12615823,-1.70447548,0.03623962,-1.52100467,-2.03399658,-0.00488281,-0.36132812,0.16113281,0.01464844,0.07324219,0.00000000,-2.97546387,-0.18256544,-0.18272400,0.00000000
3.49197578,1220,3.02400397,2.86141824,-1.68006142,0.01907349,-1.53283023,-2.70004272,2.96296881,2.86790322,-1.40158852,0.04090155,-1.51527668,-2.03361511,2.96373175,3.12158059,-1.70218666,0.03776550,-1.52062320,-2.03399658,-0.00976562,-0.34179688,0.16113281,0.08789062,0.05859375,-0.01464844,-2.97584534,-0.18260954,-0.18272400,-0.02441406
3.50640178,1225,3.02400397,2.86141824,-1.68006142,0.01869202,-1.53283023,-2.70004272,2.96296881,2.86790322,-1.40158852,0.04014578,-1.51528068,-2.03361511,2.96373175,3.11662148,-1.69989785,0.03852844,-1.51947879,-2.03399658,-0.00488281,-0.33203125,0.15136719,0.05859375,0.08789062,-0.02929688,-2.97584534,-0.18268649,-0.18272400,0.00000000
3.51915145,1230,3.02400397,2.86141824,-1.67967995,0.01831055,-1.53321170,-2.70004272,2.96296881,2.86790322,-1.40151223,0.03960260,-1.51535828,-2.03361511,2.96373175,3.11242532,-1.69837197,0.03929138,-1.51795291,-2.03399658,-0.00488281,-0.32714844,0.15136719,0.02929688,0.17578125,-0.01464844,-2.97584534,-0.18261405,-0.18272400,0.00000000
3.53319478,1235,3.02400397,2.86141824,-1.67967995,0.01831055,-1.53359317,-2.70004272,2.96296881,2.86790322,-1.40130705,0.03939336,-1.51570122,-2.03361511,2.96373175,3.10784768,-1.69646462,0.04005432,-1.51604557,-2.03399658,-0.00976562,-0.34179688,0.14648438,0.04394531,0.13183594,-0.01464844,-2.97584534,-0.18260985,-0.18272400,0.00000000
3.54716706,1240,3.02400397,2.86141824,-1.67967995,0.01831055,-1.53397464,-2.70004272,2.96296881,2.86790322,-1.40123982,0.03932480,-1.51607006,-2.03361511,2.96373175,3.10403298,-1.69455727,0.04081726,-1.51566410,-2.03399658,-0.00488281,-0.32226562,0.17089844,0.05859375,0.05859375,-0.02929688,-2.97546387,-0.18235822,-0.18272400,-0.02441406
3.56230164,1245,3.02400397,2.86141824,-1.67967995,0.01831055,-1.53435611,-2.70004272,2.96296881,2.86790322,-1.40121779,0.03930233,-1.51644739,-2.03361511,2.96373175,3.09831094,-1.69188698,0.04119873,-1.51566410,-2.03399658,-0.00488281,-0.31738281,0.14160156,-0.01464844,0.01464844,-0.02929688,-2.97584534,-0.18250649,-0.18272400,-0.02441406
3.57594776,1250,3.02400397,2.86141824,-1.67891701,0.01831055,-1.53473758,-2.70004272,2.96296881,2.86790322,-1.40081677,0.03929497,-1.51676647,-2.03361511,2.96373175,3.09449624,-1.69036110,0.04119873,-1.51566410,-2.03399658,-0.00488281,-0.32714844,0.13183594,-0.01464844,0.02929688,-0.01464844,-2.97584534,-0.18246815,-0.18272400,-0.04882812
3.58963799,1255,3.02400397,2.86141824,-1.67815407,0.01831055,-1.53626346,-2.70004272,2.96296881,2.86790322,-1.40030377,0.03929256,-1.51756634,-2.03361511,2.96373175,3.09068154,-1.68883522,0.04158020,-1.51566410,-2.03399658,-0.00976562,-0.30273438,0.12695312,0.00000000,-0.00000000,-0.02929688,-2.97546387,-0.18236551,-0.18272400,-0.02441406
3.60357356,1260,3.02400397,2.86141824,-1.67739113,0.01831055,-1.53855228,-2.70004272,2.96296881,2.86790322,-1.39958367,0.03929177,-1.51909479,-2.03361511,2.96373175,3.08572244,-1.68654641,0.04119873,-1.51604557,-2.03399658,-0.00488281,-0.29296875,0.12207031,-0.04394531,-0.01464844,-0.01464844,-2.97584534,-0.18238680,-0.18272400,-0.04882812
3.61669016,1265,3.02400397,2.86141824,-1.67662819,0.01831055,-1.54160404,-2.70004272,2.96296881,2.86790322,-1.39877373,0.03929151,-1.52179925,-2.03361511,2.96373175,3.08190774,-1.68540200,0.04119873,-1.51604557,-2.03399658,-0.00488281,-0.32226562,0.11718750,-0.01464844,0.01464844,0.00000000,-2.97584534,-0.18261351,-0.18272400,-0.02441406
3.63148475,1270,3.02400397,2.86141824,-1.67510231,0.01831055,-1.54656314,-2.70004272,2.96296881,2.86790322,-1.39761380,0.03929142,-1.52558645,-2.03361511,2.96373175,3.07809304,-1.68387612,0.04119873,-1.51642703,-2.03399658,-0.00488281,-0.28320312,0.13183594,-0.01464844,-0.01464844,-0.02929688,-2.97584534,-0.18254717,-0.18272400,-0.02441406
3.64443731,1275,3.02400397,2.86141824,-1.67357643,0.01831055,-1.55037784,-2.70004272,2.96296881,2.86790322,-1.39625667,0.03929140,-1.52963286,-2.03361511,2.96373175,3.07389687,-1.68196877,0.04081726,-1.51680850,-2.03399658,-0.00976562,-0.28320312,0.14648438,-0.01464844,-0.02929688,-0.01464844,-2.97584534,-0.18236820,-0.18272400,-0.04882812
3.65920877,1280,3.02400397,2.86141824,-1.67166909,0.01831055,-1.55571842,-2.70004272,2.96296881,2.86790322,-1.39466096,0.03929139,-1.53399175,-2.03361511,2.96373175,3.06970071,-1.67967995,0.04119873,-1.51795291,-2.03399658,-0.00976562,-0.27832031,0.13183594,-0.01464844,-0.04394531,-0.02929688,-2.97584534,-0.18248534,-0.18272400,-0.02441406
3.67251778,1285,3.02400397,2.86141824,-1.66976174,0.01831055,-1.56182193,-2.70004272,2.96296881,2.86790322,-1.39290456,0.03929138,-1.53919253,-2.03361511,2.96373175,3.06664895,-1.67891701,0.04081726,-1.51833438,-2.03399658,-0.00488281,-0.27343750,0.12695312,-0.01464844,-0.00000000,-0.01464844,-2.97584534,-0.18247001,-0.18272400,0.00000000
3.68558335,1290,3.02400397,2.86141824,-1.66823586,0.01831055,-1.56716251,-2.70004272,2.96296881,2.86790322,-1.39110538,0.03929138,-1.54525146,-2.03361511,2.96335028,3.06359719,-1.67700966,0.04081726,-1.51871585,-2.03399658,-0.00488281,-0.27832031,0.11230469,0.00000000,-0.02929688,0.00000000,-2.97584534,-0.18251870,-0.18272400,-0.04882812
3.70196462,1295,3.02400397,2.86141824,-1.66480263,0.01869202,-1.57746219,-2.70004272,2.96296881,2.86790322,-1.38858505,0.03951660,-1.55323721,-2.03361511,2.96335028,3.05901956,-1.67510231,0.04119873,-1.52062320,-2.03399658,-0.00488281,-0.25878906,0.12695312,-0.01464844,-0.13183594,-0.01464844,-2.97546387,-0.18250414,-0.18272400,-0.02441406
3.71623969,1300,3.02400397,2.86141824,-1.66251381,0.01869202,-1.58547306,-2.70004272,2.96296881,2.86790322,-1.38611050,0.03951179,-1.56098887,-2.03361511,2.96335028,3.05558633,-1.67357643,0.04081726,-1.52367496,-2.03399658,-0.00488281,-0.25878906,0.11230469,-0.01464844,-0.20507812,-0.02929688,-2.97584534,-0.18241367,-0.18272400,-0.02441406
3.73045301,1305,3.02400397,2.86141824,-1.65908058,0.01869202,-1.59500980,-2.70004272,2.96296881,2.86790322,-1.38314229,0.03958882,-1.56999048,-2.03361511,2.96335028,3.05100869,-1.67166909,0.04081726,-1.52748966,-2.03399658,-0.00488281,-0.26367188,0.09765625,-0.01464844,-0.16113281,-0.02929688,-2.97546387,-0.18234765,-0.18272400,-0.02441406
3.74582887,1310,3.02400397,2.86141824,-1.65679177,0.01831055,-1.60073184,-2.70004272,2.96296881,2.86790322,-1.38033154,0.03956902,-1.57797810,-2.03361511,2.96335028,3.04757546,-1.67052468,0.04081726,-1.52901554,-2.03399658,-0.00488281,-0.27343750,0.09277344,0.00000000,-0.13183594,-0.02929688,-2.97584534,-0.18252255,-0.18272400,-0.02441406
3.76085305,1315,3.02400397,2.86103677,-1.65412148,0.01869202,-1.59920597,-2.70004272,2.96296881,2.86776589,-1.37776414,0.03950748,-1.58084352,-2.03361511,2.96335028,3.04337930,-1.66861733,0.04081726,-1.53359317,-2.03399658,-0.00976562,-0.25390625,0.12695312,-0.02929688,-0.21972656,0.00000000,-2.97546387,-0.18230521,-0.18272400,-0.02441406
3.77319860,1320,3.02400397,2.86065530,-1.65221413,0.01869202,-1.59996890,-2.70004272,2.96296881,2.86746442,-1.37560926,0.03961866,-1.58175390,-2.03361511,2.96335028,3.04070901,-1.66747292,0.04081726,-1.53588199,-2.03399658,-0.00488281,-0.24414062,0.11230469,-0.01464844,-0.19042969,-0.01464844,-2.97584534,-0.18258677,-0.18234253,0.02441406
3.78816366,1325,3.02400397,2.86065530,-1.65030678,0.01869202,-1.59996890,-2.70004272,2.96296881,2.86724650,-1.37351094,0.03965510,-1.58220261,-2.03361511,2.96335028,3.03727578,-1.66594704,0.04043579,-1.53931522,-2.03399658,-0.00488281,-0.23925781,0.09765625,-0.01464844,-0.19042969,-0.01464844,-2.97546387,-0.18232625,-0.18272400,-0.02441406
3.80213189,1330,3.02400397,2.86027383,-1.64878090,0.01869202,-1.59996890,-2.70004272,2.96296881,2.86698893,-1.37174914,0.03966703,-1.58234964,-2.03361511,2.96335028,3.03422402,-1.66442116,0.04043579,-1.54236698,-2.03399658,-0.00976562,-0.21484375,0.09277344,-0.02929688,-0.20507812,-0.01464844,-2.97584534,-0.18231144,-0.18272400,0.00000000
3.81741405,1335,3.02400397,2.85989236,-1.64763649,0.01869202,-1.59996890,-2.70004272,2.96296881,2.86669689,-1.37016122,0.03967094,-1.58239782,-2.03361511,2.96335028,3.03155374,-1.66365822,0.04043579,-1.54580020,-2.03399658,-0.00976562,-0.23437500,0.11230469,-0.02929688,-0.21972656,0.00000000,-2.97584534,-0.18258881,-0.18272400,-0.07324219
3.83165741,1340,3.02400397,2.85912942,-1.64611061,0.01869202,-1.59996890,-2.70004272,2.96296881,2.86611950,-1.36874635,0.03967223,-1.58241360,-2.03361511,2.96335028,3.02773904,-1.66136940,0.04043579,-1.54999637,-2.03399658,-0.00488281,-0.23437500,0.11718750,-0.01464844,-0.21972656,0.00000000,-2.97546387,-0.18252711,-0.18272400,-0.02441406
3.84448743,1345,3.02400397,2.85912942,-1.64496620,0.01869202,-1.59996890,-2.70004272,2.96296881,2.86577992,-1.36753090,0.03967265,-1.58241878,-2.03361511,2.96335028,3.02468728,-1.66022499,0.04043579,-1.55304813,-2.03399658,-0.00976562,-0.22460938,0.09765625,-0.01464844,-0.16113281,-0.01464844,-2.97584534,-0.18248370,-0.18272400,-0.02441406
3.85999203,1350,3.02400397,2.85798501,-1.64420327,0.01869202,-1.59996890,-2.70004272,2.96296881,2.86508868,-1.36647075,0.03967278,-1.58242047,-2.03361511,2.96335028,3.02163552,-1.65908058,0.04043579,-1.55419254,-2.03399658,-0.00488281,-0.23437500,0.06835938,-0.01464844,-0.08789062,0.00000000,-2.97546387,-0.18243017,-0.18272400,-0.02441406
3.87333274,1355,3.02400397,2.85722207,-1.64305886,0.01869202,-1.59996890,-2.70004272,2.96296881,2.86419104,-1.36539302,0.03967283,-1.58242103,-2.03361511,2.96335028,3.01820229,-1.65793618,0.04043579,-1.55686283,-2.03399658,-0.00488281,-0.22949219,0.09277344,-0.01464844,-0.16113281,-0.02929688,-2.97584534,-0.18262772,-0.18272400,-0.02441406
3.88751221,1360,3.02400397,2.85645913,-1.64229592,0.01869202,-1.59996890,-2.70004272,2.96296881,2.86353288,-1.36445662,0.03967284,-1.58242121,-2.03361511,2.96335028,3.01629495,-1.65717324,0.04043579,-1.55838870,-2.03399658,-0.00488281,-0.19531250,0.08789062,-0.01464844,-0.16113281,0.00000000,-2.97546387,-0.18239924,-0.18272400,0.00000000
3.89991951,1365,3.02400397,2.85531472,-1.64077004,0.01869202,-1.59996890,-2.70004272,2.96296881,2.86273726,-1.36349352,0.03967285,-1.58242127,-2.03361511,2.96335028,3.01324319,-1.65564736,0.04005432,-1.55953311,-2.03399658,-0.00976562,-0.19531250,0.10253906,-0.04394531,-0.04394531,0.00000000,-2.97584534,-0.18247696,-0.18272400,-0.02441406
3.91347504,1370,3.02400397,2.85455178,-1.64000710,0.01869202,-1.59996890,-2.70004272,2.96296881,2.86174438,-1.36232662,0.03967285,-1.58242129,-2.03361511,2.96335028,3.01019143,-1.65412148,0.03967285,-1.55953311,-2.03399658,-0.00488281,-0.20996094,0.09765625,-0.02929688,0.01464844,-0.01464844,-2.97584534,-0.18264305,-0.18272400,-0.02441406
3.92801666,1375,3.02400397,2.85302590,-1.63809975,0.01869202,-1.59996890,-2.70004272,2.96296881,2.86061239,-1.36088114,0.03967285,-1.58242129,-2.03361511,2.96335028,3.00713967,-1.65297707,0.03967285,-1.55953311,-2.03399658,-0.00976562,-0.20996094,0.08789062,-0.01464844,0.01464844,-0.01464844,-2.97584534,-0.18255685,-0.18272400,-0.02441406
3.94413209,1380,3.02400397,2.85150002,-1.63695534,0.01869202,-1.59996890,-2.70004272,2.96296881,2.85906665,-1.35953798,0.03967285,-1.58242130,-2.03361511,2.96335028,3.00370645,-1.65183266,0.03967285,-1.55991458,-2.03399658,-0.00976562,-0.20507812,0.06347656,0.00000000,-0.02929688,-0.02929688,-2.97584534,-0.18259110,-0.18272400,-0.02441406
3.95913649,1385,3.02400397,2.84959268,-1.63581093,0.01869202,-1.59996890,-2.70004272,2.96296881,2.85727780,-1.35820930,0.03967285,-1.58242130,-2.03361511,2.96296881,3.00141763,-1.65068825,0.03967285,-1.56067752,-2.03399658,-0.00976562,-0.20507812,0.09765625,-0.04394531,-0.04394531,-0.02929688,-2.97584534,-0.18260233,-0.18272400,-0.02441406
3.97412515,1390,3.02400397,2.84692239,-1.63428505,0.01907349,-1.59996890,-2.70004272,2.96296881,2.85535679,-1.35702831,0.03985901,-1.58242130,-2.03361511,2.96296881,2.99798440,-1.64954384,0.03967285,-1.56220340,-2.03399658,-0.00488281,-0.21972656,0.08300781,0.01464844,-0.10253906,-0.01464844,-2.97584534,-0.18268413,-0.18272400,-0.02441406
3.99015331,1395,3.02400397,2.84463357,-1.63275917,0.01907349,-1.59996890,-2.70004272,2.96296881,2.85296632,-1.35549338,0.03999032,-1.58242130,-2.03361511,2.96296881,2.99531411,-1.64801796,0.03967285,-1.56525516,-2.03399658,-0.00488281,-0.19531250,0.08789062,-0.01464844,-0.17578125,-0.01464844,-2.97584534,-0.18252636,-0.18272400,-0.02441406
4.00379276,1400,3.02400397,2.84234475,-1.63085183,0.01907349,-1.59996890,-2.70004272,2.96296881,2.85071744,-1.35380035,0.04003335,-1.58242130,-2.03361511,2.96296881,2.99264382,-1.64687355,0.03929138,-1.56868839,-2.03399658,-0.00976562,-0.19531250,0.09765625,-0.02929688,-0.17578125,-0.01464844,-2.97546387,-0.18250665,-0.18272400,-0.02441406
4.01706290,1405,3.02400397,2.83891152,-1.62894448,0.01907349,-1.59996890,-2.70004272,2.96296881,2.84773040,-1.35190219,0.04004745,-1.58242130,-2.03361511,2.96296881,2.98959207,-1.64611061,0.03929138,-1.57135868,-2.03399658,-0.01464844,-0.19531250,0.05371094,-0.01464844,-0.16113281,0.00000000,-2.97584534,-0.18253071,-0.18272400,-0.02441406
4.03206015,1410,3.02400397,2.83585977,-1.62627419,0.01907349,-1.59996890,-2.70004272,2.96296881,2.84477993,-1.34963531,0.04005207,-1.58242130,-2.03361511,2.96296881,2.98692178,-1.64534767,0.03967285,-1.57212161,-2.03399658,-0.00488281,-0.20019531,0.06347656,0.01464844,-0.04394531,-0.01464844,-2.97584534,-0.18237843,-0.18272400,0.00000000
4.04824638,1415,3.02400397,2.83128213,-1.62322243,0.01907349,-1.59996890,-2.70004272,2.96296881,2.84126625,-1.34700187,0.04005358,-1.58242130,-2.03361511,2.96296881,2.98387002,-1.64420327,0.03967285,-1.57364749,-2.03399658,-0.00488281,-0.19042969,0.05859375,-0.01464844,-0.07324219,-0.02929688,-2.97584534,-0.18254826,-0.18272400,-0.02441406
4.06351256,1420,3.02400397,2.82746743,-1.62055214,0.01907349,-1.59996890,-2.70004272,2.96296881,2.83725282,-1.34435342,0.04005408,-1.58242130,-2.03361511,2.96296881,2.98081826,-1.64267739,0.03890991,-1.57441043,-2.03399658,-0.00488281,-0.20019531,0.10253906,-0.04394531,-0.02929688,-0.02929688,-2.97584534,-0.18260391,-0.18272400,-0.02441406
4.07773376,1425,3.02400397,2.82288979,-1.61788185,0.01907349,-1.59996890,-2.70004272,2.96296881,2.83302755,-1.34158043,0.04005424,-1.58242130,-2.03361511,2.96296881,2.97814797,-1.64153298,0.03890991,-1.57479190,-2.03399658,-0.00488281,-0.20019531,0.09277344,-0.02929688,-0.00000000,-0.01464844,-2.97584534,-0.18246492,-0.18272400,-0.02441406
4.09135818,1430,3.02400397,2.81754922,-1.61444863,0.01907349,-1.59996890,-2.70004272,2.96296881,2.82843280,-1.33864382,0.04005430,-1.58242130,-2.03361511,2.96296881,2.97547769,-1.64077004,0.03890991,-1.57479190,-2.03399658,-0.00488281,-0.19042969,0.06835938,0.00000000,0.01464844,-0.01464844,-2.97584534,-0.18256098,-0.18272400,0.00000000
4.10695934,1435,3.02400397,2.81335305,-1.61177834,0.01907349,-1.59996890,-2.70004272,2.96296881,2.82360505,-1.33567484,0.04005431,-1.58242130,-2.03361511,2.96296881,2.97280740,-1.63962563,0.03890991,-1.57441043,-2.03399658,-0.00488281,-0.18066406,0.06835938,-0.01464844,0.01464844,-0.01464844,-2.97546387,-0.18245549,-0.18272400,-0.02441406
4.12076068,1440,3.02400397,2.80763101,-1.60910805,0.01907349,-1.59996890,-2.70004272,2.96296881,2.81824343,-1.33269671,0.04005432,-1.58242130,-2.03361511,2.96296881,2.97013711,-1.63924416,0.03929138,-1.57479190,-2.03399658,-0.00488281,-0.19042969,0.06835938,-0.01464844,-0.01464844,-0.01464844,-2.97584534,-0.18246023,-0.18272400,-0.04882812
4.13677168,1445,3.02400397,2.80038308,-1.60529335,0.01907349,-1.59996890,-2.70004272,2.96296881,2.81192514,-1.32939735,0.04005432,-1.58242130,-2.03361511,2.96296881,2.96670388,-1.63809975,0.03929138,-1.57555484,-2.03399658,0.00000000,-0.20996094,0.07324219,-0.02929688,-0.01464844,-0.01464844,-2.97584534,-0.18245300,-0.18272400,-0.02441406
4.15159893,1450,3.02400397,2.79351663,-1.60300454,0.01907349,-1.59958744,-2.70004272,2.96296881,2.80587307,-1.32678717,0.04005432,-1.58234500,-2.03361511,2.96296881,2.96327065,-1.63695534,0.03890991,-1.57555484,-2.03399658,0.00000000,-0.22460938,0.07812500,-0.01464844,-0.00000000,-0.01464844,-2.97546387,-0.18242011,-0.18272400,-0.02441406
