MingxuanLei/DMarm_date_collection/data/episode_04/trajectory/teach_record_20260629_162237.csv
time_s,loop_count,master_q1,master_q2,master_q3,master_q4,master_q5,master_q6,slave_target_q1,slave_target_q2,slave_target_q3,slave_target_q4,slave_target_q5,slave_target_q6,slave_actual_q1,slave_actual_q2,slave_actual_q3,slave_actual_q4,slave_actual_q5,slave_actual_q6,slave_actual_v1,slave_actual_v2,slave_actual_v3,slave_actual_v4,slave_actual_v5,slave_actual_v6,master_tool,slave_tool_target,slave_tool_actual,slave_tool_actual_vel
0.03305244,5,3.09953498,-1.69904978,-3.09874733,-0.10070801,1.55516720,0.25024414,3.09971515,-1.59965354,-3.09899733,-0.00045776,1.55691720,0.24999414,3.09953498,-1.60063060,-3.09951027,-0.00038147,1.56050778,0.24948120,-0.00976562,-0.00488281,0.00488281,-0.01464844,0.01464844,-0.01464844,-2.90069580,-0.00089441,-0.00038147,-0.02441406
0.04703474,10,3.09953498,-1.69904978,-3.09874733,-0.10032654,1.55516720,0.25024414,3.09977419,-1.59928456,-3.09882925,-0.00046750,1.55574064,0.25016222,3.09953498,-1.60063060,-3.09951027,-0.00038147,1.56050778,0.24948120,0.00000000,-0.00488281,0.00488281,-0.01464844,0.01464844,-0.02929688,-2.90069580,-0.00098436,-0.00038147,-0.02441406
0.06016350,15,3.09991645,-1.69904978,-3.09874733,-0.10070801,1.55516720,0.25024414,3.09986983,-1.59916365,-3.09877418,-0.00054699,1.55535511,0.25021730,3.09953498,-1.60024913,-3.09951027,-0.00038147,1.56012631,0.24948120,-0.00488281,-0.00488281,0.00488281,-0.01464844,-0.00000000,-0.01464844,-2.90069580,-0.00109197,-0.00038147,-0.02441406
0.07352138,20,3.09991645,-1.69904978,-3.09874733,-0.10032654,1.55516720,0.25024414,3.09985234,-1.59912403,-3.09875613,-0.00051579,1.55522878,0.25023534,3.09953498,-1.60024913,-3.09951027,-0.00038147,1.56012631,0.24948120,-0.00976562,-0.00488281,0.00488281,0.00000000,0.01464844,-0.02929688,-2.90069580,-0.00112722,-0.00038147,-0.04882812
0.08707595,25,3.09991645,-1.69904978,-3.09874733,-0.10070801,1.55516720,0.25024414,3.09989544,-1.59911104,-3.09875022,-0.00059406,1.55526746,0.25024126,3.09953498,-1.60063060,-3.09951027,-0.00038147,1.56012631,0.24948120,-0.00976562,-0.00488281,0.00488281,-0.01464844,0.01464844,-0.02929688,-2.90069580,-0.00113878,-0.00038147,-0.04882812
0.10051870,30,3.09991645,-1.69904978,-3.09874733,-0.10070801,1.55516720,0.25024414,3.09990956,-1.59914585,-3.09874828,-0.00062752,1.55526109,0.25024320,3.09953498,-1.60024913,-3.09951027,-0.00038147,1.56012631,0.24948120,-0.00488281,-0.00488281,0.00488281,-0.01464844,0.01464844,-0.01464844,-2.90069580,-0.00114256,-0.00038147,-0.04882812
0.11489797,35,3.09991645,-1.69943125,-3.09874733,-0.10032654,1.55554867,0.25024414,3.09979505,-1.59925552,-3.09874764,-0.00054999,1.55533530,0.25024383,3.09953498,-1.60063060,-3.09951027,-0.00038147,1.55974484,0.24948120,-0.00488281,-0.00976562,-0.00000000,-0.02929688,-0.01464844,-0.02929688,-2.90069580,-0.00114380,-0.00038147,-0.02441406
0.12933636,40,3.09953498,-1.69904978,-3.09874733,-0.10032654,1.55516720,0.25024414,3.09976912,-1.59915413,-3.09874743,-0.00043669,1.55527111,0.25024404,3.09953498,-1.60024913,-3.09951027,-0.00038147,1.55974484,0.24948120,-0.00488281,-0.00488281,0.00488281,-0.02929688,0.01464844,-0.01464844,-2.90069580,-0.00108171,-0.00076294,-0.07324219
0.14163065,45,3.09953498,-1.69904978,-3.09874733,-0.10032654,1.55516720,0.25024414,3.09976063,-1.59926202,-3.09874737,-0.00046988,1.55520125,0.25024411,3.09953498,-1.60024913,-3.09951027,-0.00038147,1.55974484,0.24948120,-0.00488281,0.00000000,-0.00000000,-0.02929688,-0.01464844,0.00000000,-2.90069580,-0.00094808,-0.00038147,-0.02441406
0.15488720,50,3.09953498,-1.69904978,-3.09874733,-0.10032654,1.55554867,0.25024414,3.09970120,-1.59918751,-3.09874734,-0.00041044,1.55525465,0.25024413,3.09953498,-1.60024913,-3.09951027,-0.00038147,1.55974484,0.24948120,-0.00488281,-0.00488281,-0.00000000,-0.02929688,0.01464844,-0.01464844,-2.90069580,-0.00090430,-0.00038147,0.00000000
0.16865683,55,3.09991645,-1.69904978,-3.09874733,-0.10032654,1.55516720,0.25024414,3.09978488,-1.59913185,-3.09874734,-0.00039096,1.55525689,0.25024414,3.09953498,-1.60024913,-3.09951027,-0.00038147,1.55974484,0.24948120,-0.00976562,-0.00488281,0.00488281,-0.01464844,-0.00000000,-0.01464844,-2.90069580,-0.00098760,-0.00038147,-0.04882812
0.18180132,60,3.09991645,-1.69904978,-3.09874733,-0.10032654,1.55516720,0.25024414,3.09976347,-1.59911361,-3.09874733,-0.00038458,1.55519659,0.25024414,3.09953498,-1.60024913,-3.09951027,-0.00038147,1.55974484,0.24948120,0.00000000,0.00000000,0.00976562,-0.01464844,0.01464844,-0.02929688,-2.90069580,-0.00095240,-0.00038147,-0.04882812
0.19816685,65,3.09991645,-1.69904978,-3.09874733,-0.10032654,1.55516720,0.25024414,3.09986632,-1.59910763,-3.09874733,-0.00038249,1.55517683,0.25024414,3.09953498,-1.60024913,-3.09951027,-0.00038147,1.55936337,0.24948120,-0.00488281,-0.00488281,0.00488281,-0.01464844,0.01464844,-0.01464844,-2.90069580,-0.00108149,-0.00038147,-0.02441406
0.21231461,70,3.09991645,-1.69904978,-3.09874733,-0.10032654,1.55516720,0.25024414,3.09979016,-1.59910567,-3.09874733,-0.00038180,1.55517036,0.25024414,3.09953498,-1.60024913,-3.09951027,-0.00038147,1.55936337,0.24948120,-0.00976562,-0.00488281,0.00488281,-0.02929688,-0.00000000,-0.02929688,-2.90069580,-0.00112379,-0.00076294,-0.04882812
0.22676396,75,3.09991645,-1.69904978,-3.09874733,-0.10032654,1.55516720,0.25024414,3.09987506,-1.59914409,-3.09874733,-0.00038158,1.55516824,0.25024414,3.09953498,-1.60024913,-3.09951027,-0.00038147,1.55936337,0.24948120,-0.00488281,-0.00488281,-0.00000000,0.00000000,0.02929688,-0.02929688,-2.90069580,-0.00113765,-0.00038147,0.00000000
0.24191999,80,3.09991645,-1.69904978,-3.09874733,-0.10032654,1.55516720,0.25024414,3.09990289,-1.59911762,-3.09874733,-0.00043033,1.55516754,0.25024414,3.09953498,-1.60024913,-3.09951027,-0.00038147,1.55936337,0.24986267,-0.00488281,-0.00488281,0.00488281,-0.02929688,0.01464844,-0.01464844,-2.90031433,-0.00082945,-0.00076294,0.00000000
0.25510144,85,3.09991645,-1.69904978,-3.09874733,-0.10070801,1.55554867,0.25024414,3.09991200,-1.59910894,-3.09874733,-0.00053481,1.55524361,0.25018311,3.09953498,-1.60024913,-3.09951027,-0.00038147,1.55898190,0.24948120,-0.00488281,0.00000000,0.00488281,-0.01464844,-0.00000000,-0.02929688,-2.90069580,-0.00104120,-0.00038147,-0.02441406
0.27144861,90,3.09991645,-1.69904978,-3.09874733,-0.10070801,1.55669308,0.24986267,3.09991499,-1.59910610,-3.09874733,-0.00068819,1.55602867,0.25011660,3.09953498,-1.59986766,-3.09951027,-0.00038147,1.55898190,0.24948120,-0.00488281,0.00488281,0.00976562,-0.01464844,-0.00000000,-0.01464844,-2.90069580,-0.00111059,-0.00038147,-0.02441406
0.28777218,95,3.09953498,-1.69904978,-3.09874733,-0.10070801,1.55783749,0.25024414,3.09969075,-1.59919306,-3.09874733,-0.00065055,1.55709438,0.25020235,3.09953498,-1.59986766,-3.09951027,-0.00038147,1.55898190,0.24948120,-0.00488281,0.00488281,0.00488281,0.00000000,-0.00000000,-0.01464844,-2.90069580,-0.00113333,-0.00038147,-0.02441406
0.30278111,100,3.09953498,-1.69904978,-3.09874733,-0.10070801,1.55974484,0.25024414,3.09976620,-1.59913367,-3.09874733,-0.00069486,1.55820739,0.25023045,3.09953498,-1.59986766,-3.09951027,-0.00038147,1.55860043,0.24948120,-0.00488281,0.00000000,-0.00000000,-0.01464844,-0.00000000,0.00000000,-2.90069580,-0.00143863,-0.00038147,-0.02441406
0.31528735,105,3.09953498,-1.69904978,-3.09874733,-0.10070801,1.56050778,0.25024414,3.09975967,-1.59911420,-3.09874733,-0.00074063,1.55963485,0.25020840,3.09953498,-1.59986766,-3.09951027,-0.00038147,1.55860043,0.24948120,-0.00488281,-0.00488281,0.00488281,-0.01464844,0.01464844,-0.01464844,-2.90069580,-0.00131894,-0.00076294,-0.02441406
0.32842588,110,3.09991645,-1.69904978,-3.09874733,-0.10070801,1.56050778,0.25024414,3.09986507,-1.59910782,-3.09874733,-0.00075563,1.56022174,0.25023243,3.09953498,-1.59986766,-3.09951027,-0.00038147,1.55860043,0.24948120,0.00000000,-0.00488281,0.00488281,-0.01464844,0.01464844,0.00000000,-2.90107727,-0.00135419,-0.00076294,-0.02441406
0.34082794,115,3.09991645,-1.69904978,-3.09874733,-0.10070801,1.56050778,0.25024414,3.09983858,-1.59910573,-3.09874733,-0.00076054,1.56041405,0.25024030,3.09953498,-1.59986766,-3.09951027,-0.00038147,1.55860043,0.24948120,-0.00488281,-0.00488281,0.00976562,-0.01464844,0.01464844,-0.01464844,-2.90069580,-0.00121315,-0.00114441,-0.04882812
0.35415578,120,3.09991645,-1.69904978,-3.09874733,-0.10070801,1.56050778,0.25024414,3.09989093,-1.59910505,-3.09874733,-0.00076215,1.56047707,0.25024288,3.09953498,-1.59986766,-3.09951027,-0.00038147,1.55860043,0.24948120,-0.00488281,-0.00488281,0.00488281,0.00000000,-0.00000000,-0.02929688,-2.90069580,-0.00116693,-0.00267029,-0.14648438
0.36924005,125,3.09991645,-1.69904978,-3.09874733,-0.10070801,1.56050778,0.25024414,3.09990809,-1.59910483,-3.09874733,-0.00076268,1.56049772,0.25024373,3.09953498,-1.59986766,-3.09951027,-0.00038147,1.55860043,0.24948120,0.00000000,-0.00488281,0.00488281,-0.01464844,-0.00000000,-0.01464844,-2.90069580,-0.00122992,-0.00572205,-0.14648438
0.38147640,130,3.09991645,-1.69904978,-3.09874733,-0.10070801,1.56050778,0.25024414,3.09991371,-1.59915358,-3.09874733,-0.00076286,1.56050448,0.25024401,3.09953498,-1.59986766,-3.09951027,-0.00038147,1.55860043,0.24986267,-0.00976562,-0.00488281,0.00488281,0.00000000,0.01464844,0.00000000,-2.90069580,-0.00127008,-0.00572205,-0.04882812
0.39556384,135,3.09991645,-1.69904978,-3.09874733,-0.10070801,1.56050778,0.25024414,3.09980569,-1.59912073,-3.09874733,-0.00065305,1.56050670,0.25024410,3.09953498,-1.59986766,-3.09951027,-0.00038147,1.55860043,0.24986267,-0.00976562,-0.00488281,-0.00000000,0.00000000,0.01464844,-0.01464844,-2.90069580,-0.00118559,-0.00572205,0.00000000
0.41094899,140,3.09991645,-1.69904978,-3.09874733,-0.10032654,1.56050778,0.25024414,3.09988015,-1.59910996,-3.09874733,-0.00047046,1.56050743,0.25024413,3.09953498,-1.59986766,-3.09951027,-0.00038147,1.55860043,0.24986267,-0.00488281,-0.00976562,0.00488281,0.01464844,-0.00000000,-0.01464844,-2.90069580,-0.00122040,-0.00572205,-0.02441406
0.42609596,145,3.09991645,-1.69943125,-3.09874733,-0.10032654,1.56088925,0.24986267,3.09990455,-1.59918273,-3.09874733,-0.00041063,1.56076413,0.25016784,3.09953498,-1.59986766,-3.09951027,-0.00038147,1.55860043,0.24986267,-0.00976562,-0.00488281,0.00488281,-0.01464844,0.01464844,-0.01464844,-2.90069580,-0.00116931,-0.00572205,-0.02441406
0.44051814,150,3.09991645,-1.69904978,-3.09874733,-0.10032654,1.56088925,0.25024414,3.09991255,-1.59913028,-3.09874733,-0.00039103,1.56084825,0.25021914,3.09953498,-1.59986766,-3.09951027,-0.00038147,1.55860043,0.24986267,-0.00976562,0.00000000,-0.00000000,-0.01464844,-0.00000000,-0.01464844,-2.90069580,-0.00127464,-0.00534058,-0.02441406
0.45310712,155,3.09991645,-1.69904978,-3.09874733,-0.10032654,1.56050778,0.25024414,3.09991517,-1.59911309,-3.09874733,-0.00038460,1.56079952,0.25023595,3.09953498,-1.59986766,-3.09951027,-0.00038147,1.55860043,0.24986267,0.00000000,-0.00976562,0.00976562,-0.01464844,0.01464844,-0.01464844,-2.90069580,-0.00118708,-0.00534058,0.00000000
0.46833515,160,3.09991645,-1.69904978,-3.09874733,-0.10032654,1.56050778,0.25024414,3.09991603,-1.59910746,-3.09874733,-0.00038250,1.56060338,0.25024146,3.09953498,-1.59986766,-3.09951027,-0.00038147,1.55860043,0.24986267,-0.00488281,-0.00488281,0.00488281,-0.01464844,0.01464844,-0.01464844,-2.90069580,-0.00115839,-0.00572205,-0.02441406
0.48216105,165,3.09991645,-1.69904978,-3.09874733,-0.10032654,1.56050778,0.25024414,3.09991631,-1.59910562,-3.09874733,-0.00038181,1.56053911,0.25024326,3.09953498,-1.59986766,-3.09951027,-0.00038147,1.55860043,0.24948120,-0.00488281,-0.00488281,0.00488281,-0.02929688,0.01464844,-0.02929688,-2.90069580,-0.00114899,-0.00534058,-0.04882812
0.49616361,170,3.09991645,-1.69904978,-3.09874733,-0.10032654,1.56050778,0.25024414,3.09991640,-1.59910501,-3.09874733,-0.00038158,1.56051804,0.25024385,3.09953498,-1.59986766,-3.09951027,-0.00038147,1.55860043,0.24948120,-0.00488281,-0.00976562,-0.00000000,-0.01464844,0.01464844,-0.02929688,-2.90069580,-0.00114591,-0.00534058,0.00000000
0.50913882,175,3.09991645,-1.69904978,-3.09874733,-0.10032654,1.56050778,0.25024414,3.09991643,-1.59914388,-3.09874733,-0.00038151,1.56051114,0.25024405,3.09953498,-1.59986766,-3.09951027,-0.00038147,1.55860043,0.24948120,-0.00488281,-0.00488281,-0.00000000,-0.01464844,-0.00000000,-0.01464844,-2.90069580,-0.00124256,-0.00534058,-0.02441406
0.52126360,180,3.09991645,-1.69904978,-3.09874733,-0.10032654,1.56050778,0.25024414,3.09991644,-1.59911755,-3.09874733,-0.00038148,1.56050888,0.25024411,3.09953498,-1.59986766,-3.09951027,-0.00076294,1.55860043,0.24948120,0.00000000,0.00000000,0.00488281,-0.02929688,0.01464844,-0.01464844,-2.90069580,-0.00127423,-0.00534058,-0.02441406
0.53446913,185,3.09991645,-1.69904978,-3.09874733,-0.10032654,1.56050778,0.25024414,3.09991644,-1.59910892,-3.09874733,-0.00038147,1.56050814,0.25024413,3.09953498,-1.59986766,-3.09951027,-0.00076294,1.55898190,0.24948120,-0.00488281,-0.00488281,0.00488281,-0.02929688,0.02929688,-0.04394531,-2.90069580,-0.00118695,-0.00534058,-0.02441406
0.55100656,190,3.09991645,-1.69904978,-3.09874733,-0.09994507,1.56050778,0.25024414,3.09991645,-1.59910609,-3.09874733,-0.00015625,1.56050790,0.25024414,3.09953498,-1.59986766,-3.09951027,-0.00076294,1.55898190,0.24948120,-0.00488281,-0.00488281,0.00488281,-0.02929688,0.02929688,-0.01464844,-2.90069580,-0.00115835,-0.00534058,-0.02441406
0.56556320,195,3.09991645,-1.69904978,-3.09874733,-0.09994507,1.56050778,0.25024414,3.09991645,-1.59910517,-3.09874733,-0.00005120,1.56050782,0.25024414,3.09953498,-1.59986766,-3.09951027,-0.00076294,1.55898190,0.24986267,-0.00976562,-0.00488281,0.00488281,-0.01464844,0.02929688,0.00000000,-2.90069580,-0.00124663,-0.00534058,-0.02441406
0.57940912,200,3.09991645,-1.69904978,-3.09874733,-0.09994507,1.56050778,0.25024414,3.09991645,-1.59910486,-3.09874733,-0.00001678,1.56050779,0.25024414,3.09953498,-1.59986766,-3.09951027,-0.00038147,1.55898190,0.24948120,-0.00488281,-0.00976562,0.00976562,-0.01464844,0.01464844,-0.02929688,-2.90069580,-0.00117791,-0.00534058,-0.02441406
0.59231853,205,3.09991645,-1.69904978,-3.09874733,-0.09994507,1.56012631,0.24986267,3.09991645,-1.59910476,-3.09874733,-0.00000550,1.56028256,0.25016785,3.09953498,-1.59986766,-3.09951027,-0.00038147,1.55898190,0.24948120,-0.00976562,-0.00488281,0.00488281,-0.01464844,0.02929688,-0.01464844,-2.90069580,-0.00115539,-0.00534058,-0.02441406
0.60923743,210,3.09991645,-1.69904978,-3.09874733,-0.09994507,1.56012631,0.25024414,3.09991645,-1.59910473,-3.09874733,-0.00000180,1.56017751,0.25018789,3.09953498,-1.59986766,-3.09951027,-0.00038147,1.55898190,0.24986267,-0.00488281,-0.00488281,0.00488281,0.00000000,0.01464844,0.00000000,-2.90069580,-0.00114801,-0.00534058,-0.02441406
0.62192059,215,3.09991645,-1.69904978,-3.09874733,-0.09994507,1.56012631,0.25024414,3.09991645,-1.59910472,-3.09874733,-0.00000059,1.56014309,0.25022571,3.09953498,-1.59986766,-3.09951027,-0.00076294,1.55898190,0.24986267,-0.00976562,-0.00976562,-0.00000000,-0.01464844,0.01464844,0.00000000,-2.90069580,-0.00114559,-0.00534058,-0.04882812
0.63514376,220,3.09991645,-1.69904978,-3.09874733,-0.09994507,1.56012631,0.24986267,3.09991645,-1.59910472,-3.09874733,-0.00000019,1.56013181,0.25013056,3.09953498,-1.59986766,-3.09951027,-0.00076294,1.55898190,0.24986267,-0.00488281,-0.00488281,0.00488281,-0.01464844,0.01464844,-0.01464844,-2.90069580,-0.00120730,-0.00495911,-0.02441406
0.65028882,225,3.09991645,-1.69904978,-3.09874733,-0.09994507,1.56012631,0.25024414,3.09991645,-1.59910472,-3.09874733,-0.00000006,1.56012811,0.25009706,3.09953498,-1.59986766,-3.09951027,-0.00038147,1.55936337,0.24948120,-0.00488281,-0.00488281,0.00976562,-0.01464844,0.01464844,-0.01464844,-2.90069580,-0.00116502,-0.00495911,-0.02441406
0.66506982,230,3.09991645,-1.69904978,-3.09874733,-0.09994507,1.55936337,0.24986267,3.09991645,-1.59910472,-3.09874733,-0.00000002,1.55968427,0.25011965,3.09953498,-1.59986766,-3.09951027,-0.00038147,1.55936337,0.24986267,-0.00976562,-0.00488281,0.00488281,-0.01464844,0.01464844,-0.01464844,-2.90069580,-0.00115116,-0.00495911,-0.02441406
0.67737412,235,3.09991645,-1.69866831,-3.09874733,-0.09994507,1.55860043,0.24986267,3.09991645,-1.59891856,-3.09874733,-0.00000001,1.55913576,0.25009580,3.09953498,-1.59986766,-3.09951027,-0.00038147,1.55936337,0.24986267,-0.00488281,-0.00976562,0.00488281,-0.01464844,0.01464844,0.00000000,-2.90069580,-0.00114662,-0.00495911,0.00000000
0.69199347,240,3.09991645,-1.69866831,-3.09874733,-0.09994507,1.55860043,0.24986267,3.09991645,-1.59878725,-3.09874733,-0.00000000,1.55877585,0.24997813,3.09953498,-1.59986766,-3.09951027,-0.00038147,1.55936337,0.24986267,-0.00488281,-0.00976562,0.00488281,-0.01464844,-0.00000000,-0.01464844,-2.90069580,-0.00114513,-0.00495911,0.00000000
0.70755291,245,3.09991645,-1.69828685,-3.09874733,-0.09994507,1.55860043,0.24986267,3.09991645,-1.59851900,-3.09874733,-0.00000000,1.55870674,0.24994933,3.09953498,-1.59986766,-3.09951027,-0.00076294,1.55936337,0.24986267,0.00000000,-0.00488281,0.00488281,-0.01464844,0.01464844,-0.01464844,-2.90069580,-0.00114465,-0.00495911,-0.02441406
0.72054529,250,3.09991645,-1.69828685,-3.09874733,-0.09956360,1.55860043,0.24986267,3.09991645,-1.59839985,-3.09874733,0.00013733,1.55863527,0.24997896,3.09953498,-1.59986766,-3.09951027,-0.00038147,1.55936337,0.24948120,-0.00488281,-0.00488281,0.00976562,-0.01464844,-0.00000000,-0.01464844,-2.90069580,-0.00114449,-0.00495911,-0.02441406
0.73598552,255,3.09991645,-1.69828685,-3.09874733,-0.09803772,1.55860043,0.24986267,3.09991645,-1.59836081,-3.09874733,0.00106758,1.55865091,0.24997109,3.09953498,-1.59986766,-3.09951027,-0.00038147,1.55936337,0.24986267,-0.00488281,-0.00488281,0.00488281,-0.01464844,0.02929688,-0.01464844,-2.90069580,-0.00114443,-0.00457764,0.00000000
0.75141907,260,3.09991645,-1.69790538,-3.09874733,-0.09460449,1.55860043,0.24986267,3.09991645,-1.59809154,-3.09874733,0.00324021,1.55861697,0.25007837,3.09953498,-1.59986766,-3.09951027,-0.00038147,1.55936337,0.24986267,-0.00488281,-0.00488281,0.00488281,-0.02929688,0.04394531,-0.01464844,-2.90069580,-0.00114442,-0.00495911,0.00000000
0.76544547,265,3.09991645,-1.69790538,-3.09874733,-0.09193420,1.55860043,0.25024414,3.09991645,-1.59800331,-3.09874733,0.00610777,1.55860585,0.25014099,3.09953498,-1.59986766,-3.09951027,-0.00038147,1.55936337,0.24948120,-0.00488281,-0.00488281,0.00488281,-0.01464844,0.01464844,-0.02929688,-2.90069580,-0.00114441,-0.00457764,-0.02441406
0.77981830,270,3.09991645,-1.69790538,-3.09874733,-0.08926392,1.55860043,0.25024414,3.09991645,-1.59797440,-3.09874733,0.00885247,1.55860221,0.25017128,3.09953498,-1.59986766,-3.09951027,-0.00038147,1.55936337,0.24948120,-0.00488281,-0.00488281,0.00488281,-0.01464844,0.02929688,-0.01464844,-2.90069580,-0.00114441,-0.00457764,-0.02441406
0.79621124,275,3.09991645,-1.69790538,-3.09874733,-0.08583069,1.55898190,0.24986267,3.09991645,-1.59796492,-3.09874733,0.01184865,1.55867731,0.25005169,3.09953498,-1.59986766,-3.09951027,-0.00038147,1.55936337,0.24986267,-0.00488281,-0.00488281,0.00488281,0.00000000,0.01464844,0.00000000,-2.90069580,-0.00114441,-0.00457764,0.00000000
0.81292748,280,3.09991645,-1.69790538,-3.09874733,-0.08392334,1.55860043,0.25024414,3.09991645,-1.59796182,-3.09874733,0.01443359,1.55865687,0.25008879,3.09953498,-1.59948619,-3.09951027,-0.00038147,1.55936337,0.24986267,-0.00488281,0.00000000,0.00488281,0.00000000,0.01464844,-0.01464844,-2.90069580,-0.00120691,-0.00457764,-0.02441406
0.82979321,285,3.09991645,-1.69790538,-3.09874733,-0.08277893,1.55898190,0.24986267,3.09991645,-1.59796080,-3.09874733,0.01594017,1.55875625,0.25005591,3.09953498,-1.59948619,-3.09951027,0.00000000,1.55936337,0.24986267,-0.00488281,-0.00488281,0.00976562,0.00000000,0.01464844,-0.01464844,-2.90069580,-0.00116489,-0.00457764,-0.02441406
0.84349418,290,3.09991645,-1.69790538,-3.09874733,-0.08163452,1.55898190,0.24986267,3.09991645,-1.59796047,-3.09874733,0.01725208,1.55890796,0.25006710,3.09953498,-1.59948619,-3.09951027,0.00038147,1.55936337,0.24986267,-0.00488281,-0.00488281,0.00488281,0.00000000,0.01464844,-0.01464844,-2.90069580,-0.00115112,-0.00457764,-0.04882812
0.85622120,295,3.09991645,-1.69790538,-3.09874733,-0.08010864,1.55898190,0.25024414,3.09991645,-1.59796036,-3.09874733,0.01870785,1.55895767,0.25011582,3.09953498,-1.59948619,-3.09951027,0.00076294,1.55936337,0.24948120,0.00000000,0.00000000,-0.00000000,0.02929688,-0.00000000,-0.02929688,-2.90069580,-0.00114661,-0.00419617,0.02441406
0.87289310,300,3.09991645,-1.69790538,-3.09874733,-0.07743835,1.55898190,0.25024414,3.09991645,-1.59796032,-3.09874733,0.02072968,1.55897396,0.25016303,3.09953498,-1.59948619,-3.09951027,0.00228882,1.55936337,0.24986267,-0.00488281,-0.00488281,-0.00000000,0.08789062,0.01464844,-0.02929688,-2.90069580,-0.00114513,-0.00457764,-0.02441406
0.88730621,305,3.09991645,-1.69790538,-3.09874733,-0.07514954,1.55898190,0.25024414,3.09991645,-1.59796031,-3.09874733,0.02295298,1.55897930,0.25018631,3.09953498,-1.59948619,-3.09951027,0.00457764,1.55936337,0.24948120,-0.00488281,0.00000000,0.00488281,0.11718750,0.01464844,-0.01464844,-2.90069580,-0.00114465,-0.00457764,-0.02441406
0.90219235,310,3.09991645,-1.69790538,-3.09874733,-0.07362366,1.55898190,0.25024414,3.09991645,-1.59796031,-3.09874733,0.02481676,1.55898105,0.25022519,3.09953498,-1.59948619,-3.09951027,0.00648499,1.55936337,0.24986267,-0.00488281,-0.00488281,0.00976562,0.10253906,0.02929688,-0.02929688,-2.90069580,-0.00114449,-0.00457764,-0.04882812
0.91807723,315,3.09991645,-1.69790538,-3.09874733,-0.07247925,1.55898190,0.25024414,3.09991645,-1.59796031,-3.09874733,0.02626721,1.55898162,0.25023793,3.09953498,-1.59948619,-3.09951027,0.00762939,1.55936337,0.24986267,-0.00488281,-0.00488281,-0.00000000,0.07324219,-0.00000000,0.00000000,-2.90069580,-0.00114443,-0.00419617,0.00000000
0.93548727,320,3.09991645,-1.69790538,-3.09874733,-0.06942749,1.55898190,0.25024414,3.09991645,-1.59796031,-3.09874733,0.02842462,1.55898181,0.25021086,3.09953498,-1.59948619,-3.09912880,0.00839233,1.55936337,0.24986267,-0.00488281,-0.00488281,0.00488281,0.01464844,-0.01464844,-0.02929688,-2.90069580,-0.00114442,-0.00419617,0.00000000
0.94854093,325,3.09991645,-1.69790538,-3.09874733,-0.06637573,1.55898190,0.25024414,3.09991645,-1.59796031,-3.09874733,0.03135129,1.55898187,0.25023323,3.09953498,-1.59948619,-3.09912880,0.00877380,1.55936337,0.24986267,-0.00488281,-0.00976562,0.00488281,0.02929688,0.01464844,-0.02929688,-2.90069580,-0.00114441,-0.00419617,0.00000000
0.96319389,330,3.09991645,-1.69790538,-3.09874733,-0.06103516,1.55898190,0.25024414,3.09991645,-1.59796031,-3.09874733,0.03532422,1.55898189,0.25024057,3.09953498,-1.59948619,-3.09912880,0.00991821,1.55936337,0.24986267,-0.00488281,0.00000000,0.00488281,0.07324219,0.02929688,-0.01464844,-2.90069580,-0.00114441,-0.00419617,0.00000000
0.97671795,335,3.09991645,-1.69790538,-3.09874733,-0.05722046,1.55898190,0.25024414,3.09991645,-1.59796031,-3.09874733,0.03952328,1.55898190,0.25024297,3.09953498,-1.59948619,-3.09912880,0.01220703,1.55936337,0.24986267,-0.00488281,-0.00488281,0.00976562,0.14648438,0.01464844,0.00000000,-2.90069580,-0.00114441,-0.00419617,-0.04882812
0.99178982,340,3.09991645,-1.69790538,-3.09874733,-0.05302429,1.55898190,0.25024414,3.09991645,-1.59796031,-3.09874733,0.04364178,1.55898190,0.25024376,3.09953498,-1.59948619,-3.09912880,0.01564026,1.55936337,0.24986267,-0.00488281,0.00000000,0.00976562,0.19042969,-0.00000000,-0.01464844,-2.90069580,-0.00114441,-0.00419617,-0.04882812
1.00620627,345,3.09991645,-1.69790538,-3.09874733,-0.04959106,1.55898190,0.25024414,3.09991645,-1.59796031,-3.09874733,0.04751148,1.55898190,0.25024401,3.09953498,-1.59948619,-3.09912880,0.01754761,1.55936337,0.24986267,-0.00976562,-0.00976562,0.00488281,0.10253906,-0.00000000,-0.01464844,-2.90069580,-0.00114441,-0.00419617,-0.02441406
1.02254224,350,3.09991645,-1.69790538,-3.09874733,-0.04615784,1.55898190,0.25024414,3.09991645,-1.59796031,-3.09874733,0.05134749,1.55898190,0.25024410,3.09953498,-1.59948619,-3.09912880,0.01945496,1.55936337,0.24986267,-0.00488281,0.00000000,0.00488281,0.11718750,0.01464844,-0.01464844,-2.90069580,-0.00114441,-0.00419617,-0.02441406
1.03537488,355,3.09991645,-1.69790538,-3.09874733,-0.04348755,1.55898190,0.25024414,3.09991645,-1.59796031,-3.09874733,0.05444322,1.55898190,0.25024413,3.09953498,-1.59910472,-3.09912880,0.02174377,1.55936337,0.24986267,-0.00488281,0.00000000,0.00488281,0.16113281,0.02929688,-0.01464844,-2.90069580,-0.00132019,-0.00419617,-0.02441406
1.04958582,360,3.09991645,-1.69790538,-3.09874733,-0.04158020,1.55898190,0.25024414,3.09991645,-1.59796031,-3.09874733,0.05667894,1.55898190,0.25024414,3.09953498,-1.59948619,-3.09912880,0.02403259,1.55936337,0.24986267,-0.00488281,0.00000000,0.00488281,0.13183594,0.01464844,-0.02929688,-2.90069580,-0.00156236,-0.00381470,-0.02441406
1.06530952,365,3.09991645,-1.69790538,-3.09874733,-0.04005432,1.55898190,0.25024414,3.09991645,-1.59796031,-3.09874733,0.05852532,1.55898190,0.25024414,3.09953498,-1.59948619,-3.09912880,0.02670288,1.55936337,0.24986267,-0.00488281,-0.00488281,0.00488281,0.13183594,0.01464844,-0.01464844,-2.90069580,-0.00128136,-0.00381470,0.00000000
1.07857060,370,3.09991645,-1.69790538,-3.09874733,-0.03890991,1.55898190,0.25024414,3.09991645,-1.59796031,-3.09874733,0.05996224,1.55898190,0.25024414,3.09953498,-1.59948619,-3.09912880,0.02899170,1.55936337,0.24986267,-0.00488281,-0.00488281,0.00976562,0.17578125,0.02929688,0.00000000,-2.90069580,-0.00118929,-0.00381470,-0.02441406
1.09301233,375,3.09991645,-1.69790538,-3.09874733,-0.03700256,1.55898190,0.25024414,3.09991645,-1.59796031,-3.09874733,0.06138488,1.55898190,0.25024414,3.09953498,-1.59910472,-3.09912880,0.03204346,1.55936337,0.24986267,-0.00488281,0.00000000,0.00488281,0.16113281,0.04394531,-0.01464844,-2.90069580,-0.00115911,-0.00381470,-0.02441406
1.10518551,380,3.09991645,-1.69790538,-3.09874733,-0.03547668,1.55898190,0.25024414,3.09991645,-1.59796031,-3.09874733,0.06311814,1.55898190,0.25024414,3.09953498,-1.59910472,-3.09912880,0.03395081,1.55936337,0.24986267,-0.00488281,-0.00976562,0.00488281,0.13183594,0.01464844,-0.01464844,-2.90069580,-0.00114923,-0.00381470,-0.02441406
1.11990428,385,3.09991645,-1.69790538,-3.09874733,-0.03318787,1.55898190,0.25024414,3.09991645,-1.59796031,-3.09874733,0.06516387,1.55898190,0.25024414,3.09953498,-1.59910472,-3.09912880,0.03547668,1.55936337,0.24986267,-0.00488281,-0.00488281,0.00976562,0.08789062,0.02929688,-0.02929688,-2.90069580,-0.00114599,-0.00381470,-0.02441406
1.13403964,390,3.09991645,-1.69790538,-3.09874733,-0.03204346,1.55860043,0.25024414,3.09991645,-1.59796031,-3.09874733,0.06675402,1.55876449,0.25024414,3.09953498,-1.59910472,-3.09912880,0.03700256,1.55936337,0.24986267,-0.00488281,-0.00488281,0.00488281,0.13183594,0.01464844,-0.01464844,-2.90069580,-0.00114493,-0.00381470,0.00000000
1.14974046,395,3.09991645,-1.69752391,-3.09874733,-0.03128052,1.55860043,0.25024414,3.09991645,-1.59777415,-3.09874733,0.06788812,1.55877333,0.25024414,3.09953498,-1.59910472,-3.09874733,0.03967285,1.55936337,0.24986267,-0.00488281,-0.00488281,0.00976562,0.17578125,0.02929688,-0.02929688,-2.90069580,-0.00114458,-0.00381470,-0.02441406
1.16564250,400,3.09991645,-1.69752391,-3.09874733,-0.03051758,1.55860043,0.25024414,3.09991645,-1.59764284,-3.09874733,0.06874289,1.55883726,0.25024414,3.09953498,-1.59910472,-3.09874733,0.04234314,1.55936337,0.24986267,-0.00488281,-0.00488281,0.00976562,0.16113281,0.01464844,-0.02929688,-2.90069580,-0.00114446,-0.00381470,-0.02441406
1.17867637,405,3.09991645,-1.69714244,-3.09874733,-0.03051758,1.55898190,0.25024414,3.09991645,-1.59741365,-3.09874733,0.06920316,1.55884222,0.25024414,3.09953498,-1.59910472,-3.09874733,0.04425049,1.55936337,0.24986267,0.00000000,-0.00488281,0.00488281,0.08789062,-0.00000000,-0.01464844,-2.90069580,-0.00114443,-0.00381470,0.00000000
1.19457221,410,3.09991645,-1.69676097,-3.09874733,-0.03051758,1.55860043,0.25024414,3.09991645,-1.59719195,-3.09874733,0.06935398,1.55867966,0.25024414,3.09953498,-1.59910472,-3.09874733,0.04577637,1.55936337,0.24986267,0.00000000,-0.00488281,0.00976562,0.10253906,0.02929688,-0.01464844,-2.90069580,-0.00114442,-0.00343323,-0.02441406
1.20851111,415,3.09991645,-1.69599803,-3.09874733,-0.03013611,1.55860043,0.25024414,3.09991645,-1.59667667,-3.09874733,0.06947970,1.55865764,0.25024414,3.09953498,-1.59910472,-3.09874733,0.04768372,1.55936337,0.24986267,-0.00976562,-0.00488281,0.00488281,0.14648438,-0.00000000,0.00000000,-2.90069580,-0.00114441,-0.00343323,0.00000000
1.22621107,420,3.09991645,-1.69523509,-3.09874733,-0.03013611,1.55745602,0.25024414,3.09991645,-1.59599489,-3.09874733,0.06970107,1.55824137,0.25024414,3.09953498,-1.59910472,-3.09874733,0.05035400,1.55936337,0.24986267,-0.00488281,-0.00488281,0.00976562,0.16113281,-0.00000000,-0.01464844,-2.90069580,-0.00114441,-0.00343323,0.00000000
1.23988867,425,3.09991645,-1.69447215,-3.09874733,-0.02975464,1.55478573,0.25024414,3.09991645,-1.59521948,-3.09874733,0.06995976,1.55637364,0.25024414,3.09953498,-1.59910472,-3.09874733,0.05149841,1.55936337,0.24986267,-0.00488281,0.00000000,0.00488281,0.08789062,0.02929688,-0.02929688,-2.90069580,-0.00114441,-0.00343323,-0.02441406
1.25425553,430,3.09991645,-1.69332774,-3.09874733,-0.02937317,1.55364132,0.25024414,3.09991645,-1.59420526,-3.09874733,0.07037131,1.55475735,0.25024414,3.09953498,-1.59910472,-3.09874733,0.05264282,1.55936337,0.24986267,-0.00488281,0.00488281,0.00488281,0.07324219,0.01464844,-0.01464844,-2.90069580,-0.00114441,-0.00305176,0.00000000
1.26745129,435,3.09991645,-1.69180186,-3.09874733,-0.02899170,1.55211545,0.25024414,3.09991645,-1.59294714,-3.09874733,0.07076264,1.55335078,0.25024414,3.09953498,-1.59910472,-3.09874733,0.05340576,1.55936337,0.24986267,-0.00488281,0.00000000,0.00488281,0.04394531,-0.00000000,-0.01464844,-2.90069580,-0.00114441,-0.00305176,-0.02441406
1.28132224,440,3.09991645,-1.69027598,-3.09874733,-0.02861023,1.55097104,0.25024414,3.09991645,-1.59158908,-3.09874733,0.07102820,1.55190122,0.25024414,3.09953498,-1.59910472,-3.09874733,0.05378723,1.55936337,0.24986267,-0.00488281,0.00488281,0.00488281,0.02929688,-0.00000000,-0.02929688,-2.90069580,-0.00114441,-0.00305176,-0.02441406
1.29345369,445,3.09991645,-1.68875010,-3.09874733,-0.02822876,1.55058957,0.25024414,3.09991645,-1.59004788,-3.09874733,0.07137169,1.55105062,0.25024414,3.09953498,-1.59872325,-3.09874733,0.05493164,1.55898190,0.24986267,-0.00488281,0.00000000,0.00488281,0.07324219,0.01464844,-0.02929688,-2.90069580,-0.00114441,-0.00267029,-0.02441406
1.30879664,450,3.09991645,-1.68607981,-3.09874733,-0.02593994,1.54906369,0.25024414,3.09991645,-1.58817823,-3.09874733,0.07256115,1.55014543,0.25024414,3.09953498,-1.59872325,-3.09874733,0.05722046,1.55898190,0.24986267,-0.00488281,0.00976562,0.00488281,0.11718750,-0.01464844,-0.01464844,-2.90069580,-0.00114441,-0.00228882,0.00000000
1.32203579,455,3.09991645,-1.68340953,-3.09836586,-0.02479553,1.54830075,0.24986267,3.09991645,-1.58560916,-3.09852211,0.07415098,1.54902435,0.25016785,3.09953498,-1.59872325,-3.09874733,0.05874634,1.55898190,0.24986267,-0.00976562,-0.00488281,0.00976562,0.10253906,0.01464844,-0.01464844,-2.90069580,-0.00114441,-0.00228882,0.00000000
1.33765030,460,3.09991645,-1.68035777,-3.09798439,-0.02403259,1.54830075,0.25024414,3.09991645,-1.58265454,-3.09823091,0.07521613,1.54853786,0.25018008,3.09953498,-1.59872325,-3.09874733,0.06065369,1.55860043,0.24986267,-0.00488281,0.00000000,0.00488281,0.07324219,0.01464844,-0.01464844,-2.90069580,-0.00102234,0.00000000,0.21972656
1.35338616,465,3.09991645,-1.67539866,-3.09798439,-0.02288818,1.54830075,0.25024414,3.09991645,-1.57885763,-3.09806517,0.07612314,1.54837844,0.25018409,3.09953498,-1.59834178,-3.09874733,0.06103516,1.55821896,0.24986267,-0.00488281,0.00488281,0.00488281,0.00000000,-0.00000000,-0.01464844,-2.90031433,-0.00082975,0.00495911,0.14648438
1.36819315,470,3.09991645,-1.67120249,-3.09798439,-0.02288818,1.54830075,0.25024414,3.09991645,-1.57477032,-3.09801086,0.07675092,1.54832621,0.25018540,3.09953498,-1.59796031,-3.09874733,0.06103516,1.55821896,0.24986267,-0.00488281,0.01953125,0.00488281,0.00000000,-0.00000000,-0.02929688,-2.89993286,-0.00025370,0.00648499,-0.02441406
1.38163161,475,3.09991645,-1.66624339,-3.09798439,-0.02288818,1.54830075,0.25024414,3.09991645,-1.57034786,-3.09799307,0.07695662,1.54830909,0.25019364,3.09953498,-1.59757884,-3.09874733,0.06179810,1.55783749,0.24986267,-0.00488281,0.01464844,0.00488281,0.04394531,0.01464844,-0.01464844,-2.89993286,0.00017334,0.00686646,-0.02441406
1.39701462,480,3.09991645,-1.66013987,-3.09798439,-0.02288818,1.54830075,0.25024414,3.09991645,-1.56505301,-3.09798724,0.07702403,1.54830348,0.25019634,3.09953498,-1.59719737,-3.09874733,0.06294250,1.55783749,0.24986267,-0.00488281,0.04394531,0.00488281,0.07324219,0.01464844,-0.01464844,-2.89955139,0.00046586,0.00648499,-0.02441406
1.41082072,485,3.09991645,-1.65518077,-3.09798439,-0.02288818,1.54830075,0.25024414,3.09991645,-1.55948486,-3.09798532,0.07704612,1.54830164,0.25022848,3.09953498,-1.59681590,-3.09874733,0.06523132,1.55745602,0.24986267,-0.00976562,0.02929688,-0.00000000,0.13183594,-0.01464844,-0.01464844,-2.89955139,0.00092206,0.00648499,-0.02441406
1.42746735,490,3.09991645,-1.64869578,-3.09798439,-0.02250671,1.54830075,0.25024414,3.09991645,-1.55353126,-3.09798470,0.07723951,1.54830104,0.25023901,3.09953498,-1.59605296,-3.09874733,0.06713867,1.55745602,0.24986267,-0.00976562,0.06347656,0.00488281,0.11718750,-0.00000000,0.00000000,-2.89916992,0.00158449,0.00648499,0.00000000
1.44397593,495,3.09991645,-1.64068492,-3.09798439,-0.02250671,1.54830075,0.25024414,3.09991645,-1.54670575,-3.09798449,0.07737320,1.54830084,0.25024246,3.09953498,-1.59490855,-3.09874733,0.06790161,1.55707455,0.24986267,0.00000000,0.05371094,0.00976562,0.02929688,-0.00000000,-0.01464844,-2.89726257,0.00314457,0.00648499,0.00000000
1.45583797,500,3.09991645,-1.63496287,-3.09798439,-0.02250671,1.54830075,0.25062561,3.09991645,-1.54026226,-3.09798443,0.07741700,1.54830078,0.25040777,3.09953498,-1.59414561,-3.09874733,0.06790161,1.55631161,0.24986267,-0.00976562,0.06835938,0.00976562,-0.01464844,-0.01464844,-0.01464844,-2.89154053,0.00991823,0.00648499,-0.04882812
1.47033930,505,3.09991645,-1.62771495,-3.09798439,-0.02250671,1.54830075,0.25062561,3.09991645,-1.53390586,-3.09798440,0.07743136,1.54830076,0.25055423,3.09953498,-1.59300120,-3.09874733,0.06790161,1.55631161,0.24986267,-0.00488281,0.07324219,0.00976562,0.00000000,0.01464844,-0.01464844,-2.88772583,0.01901038,0.00648499,-0.04882812
1.48377609,510,3.09991645,-1.62122996,-3.09798439,-0.02212524,1.54830075,0.25138855,3.09991645,-1.52710266,-3.09798440,0.07762222,1.54830075,0.25093498,3.09953498,-1.59185679,-3.09836586,0.06828308,1.55593014,0.24986267,-0.00488281,0.07812500,0.00976562,0.01464844,0.01464844,-0.01464844,-2.88581848,0.02408272,0.00648499,-0.02441406
1.49750566,515,3.09991645,-1.61512644,-3.09798439,-0.02212524,1.54830075,0.25253296,3.09991645,-1.52070884,-3.09798439,0.07775507,1.54830075,0.25163971,3.09953498,-1.59109385,-3.09836586,0.06866455,1.55554867,0.24986267,-0.00976562,0.07812500,0.00976562,0.00000000,-0.00000000,-0.01464844,-2.88276672,0.03020673,0.00648499,-0.02441406
1.51064944,520,3.09991645,-1.60787852,-3.09798439,-0.02136230,1.54830075,0.25520325,3.09991645,-1.51348297,-3.09798439,0.07812209,1.54830075,0.25352773,3.09953498,-1.58956797,-3.09836586,0.06904602,1.55516720,0.24986267,-0.00488281,0.11230469,0.00976562,0.02929688,-0.00000000,-0.01464844,-2.88238525,0.03338947,0.00686646,0.00000000
1.52298737,525,3.09991645,-1.60215647,-3.09798439,-0.02059937,1.54830075,0.25749207,3.09991645,-1.50705917,-3.09798439,0.07873332,1.54830075,0.25573112,3.09953498,-1.58842356,-3.09836586,0.06942749,1.55478573,0.24986267,-0.00488281,0.08300781,0.00488281,0.00000000,-0.01464844,0.00000000,-2.87933350,0.03723318,0.00686646,0.00000000
1.53805041,530,3.09991645,-1.59452708,-3.09798439,-0.01945496,1.54830075,0.25978088,3.09991645,-1.50014611,-3.09798439,0.07969375,1.54830075,0.25809253,3.09953498,-1.58689769,-3.09836586,0.07019043,1.55364132,0.24986267,-0.00488281,0.08300781,0.00488281,0.02929688,-0.05859375,-0.01464844,-2.87818909,0.04176978,0.00724792,0.02441406
1.55372190,535,3.09991645,-1.58651622,-3.09798439,-0.01754761,1.54830075,0.26168823,3.09991645,-1.49296959,-3.09798439,0.08096170,1.54830075,0.26014036,3.09953498,-1.58499034,-3.09836586,0.07133484,1.55287839,0.25024414,0.00000000,0.09765625,0.00488281,0.04394531,-0.04394531,0.01464844,-2.87818909,0.04318114,0.00839233,0.02441406
1.56647396,540,3.09991645,-1.58041270,-3.09798439,-0.01640320,1.54830075,0.26168823,3.09991645,-1.48574640,-3.09798439,0.08247570,1.54830075,0.26118103,3.09953498,-1.58384593,-3.09836586,0.07209778,1.55173398,0.25024414,-0.00488281,0.11718750,0.00488281,0.05859375,-0.02929688,0.00000000,-2.87818909,0.04364361,0.01144409,0.26855469
1.57970405,545,3.09991645,-1.57354624,-3.09798439,-0.01449585,1.54830075,0.26168823,3.09991645,-1.47872692,-3.09798439,0.08419312,1.54830075,0.26158307,3.09953498,-1.58193858,-3.09836586,0.07324219,1.55097104,0.25024414,-0.00488281,0.12207031,-0.00000000,0.07324219,-0.07324219,-0.01464844,-2.87818909,0.04379516,0.01411438,0.09765625
1.59608006,550,3.09991645,-1.56477244,-3.09798439,-0.01258850,1.54791928,0.26206970,3.09991645,-1.47110121,-3.09798439,0.08585805,1.54811459,0.26176132,3.09953498,-1.58041270,-3.09836586,0.07438660,1.55058957,0.25024414,-0.00488281,0.13671875,0.00976562,0.07324219,-0.02929688,-0.01464844,-2.87704468,0.04488266,0.01907349,0.41503906
1.61006713,555,3.09991645,-1.55905040,-3.09798439,-0.01106262,1.54753781,0.26206970,3.09991645,-1.46427686,-3.09798439,0.08749053,1.54779712,0.26189834,3.09953498,-1.57736094,-3.09836586,0.07553101,1.54982663,0.25100708,-0.00488281,0.14160156,0.00488281,0.05859375,-0.04394531,0.02929688,-2.87513733,0.04738671,0.02365112,0.12207031
1.62492919,560,3.09991645,-1.55218394,-3.09798439,-0.00991821,1.54639340,0.26206970,3.09991645,-1.45730555,-3.09798439,0.08904536,1.54704282,0.26201355,3.09953498,-1.57507212,-3.09836586,0.07591248,1.54906369,0.25138855,-0.00488281,0.14648438,0.00976562,-0.01464844,-0.01464844,0.02929688,-2.87284851,0.05199972,0.02403259,0.02441406
1.64150286,565,3.09991645,-1.54455455,-3.09798439,-0.00801086,1.54486752,0.26206970,3.09991645,-1.45034639,-3.09798439,0.09052567,1.54601099,0.26205130,3.09953498,-1.57240184,-3.09836586,0.07629395,1.54868222,0.25215149,-0.00488281,0.16601562,-0.00000000,-0.01464844,0.01464844,0.05859375,-2.87208557,0.05431747,0.02708435,0.21972656
1.65669250,570,3.09991645,-1.53845103,-3.09798439,-0.00686646,1.54334164,0.26245117,3.09991645,-1.44323984,-3.09798439,0.09210144,1.54435696,0.26228889,3.09953498,-1.57049449,-3.09836586,0.07705688,1.54868222,0.25329590,-0.00488281,0.16113281,0.00976562,0.05859375,0.01464844,0.05859375,-2.87170410,0.05599418,0.02975464,0.07324219
1.66941309,575,3.09991645,-1.53234751,-3.09798439,-0.00686646,1.54105282,0.26283264,3.09991645,-1.43721292,-3.09798439,0.09275841,1.54260671,0.26258415,3.09953498,-1.56820567,-3.09836586,0.07820129,1.54868222,0.25367737,-0.00976562,0.16113281,0.00976562,0.07324219,-0.00000000,0.02929688,-2.86750793,0.06018692,0.03128052,0.17089844
1.68534327,580,3.09991645,-1.52662547,-3.09798439,-0.00648499,1.53876401,0.26473999,3.09991645,-1.43121617,-3.09798439,0.09319110,1.54041576,0.26359362,3.09953498,-1.56553538,-3.09836586,0.07972717,1.54868222,0.25405884,0.00000000,0.17578125,0.00976562,0.07324219,-0.00000000,0.01464844,-2.86369324,0.06696363,0.03623962,0.19531250
1.70091534,585,3.09991645,-1.52052195,-3.09798439,-0.00648499,1.53571225,0.26779175,3.09991645,-1.42507586,-3.09798439,0.09328405,1.53779500,0.26569443,3.09953498,-1.56248362,-3.09798439,0.08125305,1.54830075,0.25444031,-0.00488281,0.17089844,0.00488281,0.08789062,-0.00000000,0.00000000,-2.86102295,0.07439394,0.04005432,0.04882812
1.71602249,590,3.09991645,-1.51479991,-3.09798439,-0.00648499,1.53189755,0.27236938,3.09991645,-1.41952096,-3.09798439,0.09340240,1.53483393,0.26907667,3.09953498,-1.55981333,-3.09798439,0.08277893,1.54791928,0.25482178,-0.00488281,0.18066406,0.00488281,0.08789062,-0.01464844,0.01464844,-2.85911560,0.07835629,0.04081726,0.07324219
1.73340726,595,3.09991645,-1.50869639,-3.09798439,-0.00648499,1.52655697,0.27770996,3.09991645,-1.41348295,-3.09798439,0.09339235,1.53050159,0.27374087,3.09953498,-1.55676158,-3.09798439,0.08392334,1.54753781,0.25634766,-0.00488281,0.17089844,0.00488281,0.04394531,-0.02929688,0.08789062,-2.85644531,0.08420423,0.04692078,0.21972656
1.75240421,600,3.09991645,-1.50526316,-3.09798439,-0.00648499,1.52312375,0.28228760,3.09991645,-1.40855410,-3.09798439,0.09343789,1.52604522,0.27874482,3.09953498,-1.55370982,-3.09798439,0.08430481,1.54677487,0.25939941,-0.00488281,0.18554688,0.00488281,0.01464844,-0.07324219,0.13183594,-2.85568237,0.08711121,0.05111694,0.19531250
1.76271844,605,3.09991645,-1.49954112,-3.09798439,-0.00686646,1.51663876,0.28991699,3.09991645,-1.40369500,-3.09798439,0.09337652,1.52084558,0.28499877,3.09953498,-1.55065806,-3.09798439,0.08468628,1.54448605,0.26054382,-0.00488281,0.19042969,0.00488281,0.01464844,-0.11718750,0.07324219,-2.85110474,0.09179716,0.05378723,0.24414062
1.77698731,610,3.09991645,-1.49534495,-3.09798439,-0.00686646,1.51129818,0.29563904,3.09991645,-1.39909215,-3.09798439,0.09317623,1.51573136,0.29084775,3.09953498,-1.54760630,-3.09798439,0.08506775,1.54067135,0.26206970,-0.00488281,0.20507812,0.00488281,0.02929688,-0.29296875,0.10253906,-2.85034180,0.09675600,0.06256104,0.43945312
1.79433680,615,3.09991645,-1.49229319,-3.09798439,-0.00686646,1.50557614,0.30174255,3.09991645,-1.39509170,-3.09798439,0.09311060,1.50988183,0.29711444,3.09953498,-1.54417308,-3.09798439,0.08583069,1.53800107,0.26321411,-0.00488281,0.20019531,0.00488281,0.04394531,-0.05859375,0.05859375,-2.85034180,0.09858110,0.06408691,0.14648438
1.81112242,620,3.09991645,-1.48809703,-3.09798439,-0.00686646,1.49794674,0.30860901,3.09991645,-1.39128095,-3.09798439,0.09308909,1.50344406,0.30333612,3.09953498,-1.54073985,-3.09798439,0.08697510,1.53418637,0.26779175,-0.00488281,0.21972656,0.00976562,0.02929688,-0.23437500,0.33691406,-2.84919739,0.10047969,0.06828308,0.09765625
1.82854366,625,3.09991645,-1.48504527,-3.09798439,-0.00686646,1.49108029,0.31433105,3.09991645,-1.38776906,-3.09798439,0.09308205,1.49678839,0.30957247,3.09953498,-1.53692515,-3.09798439,0.08735657,1.53113461,0.27122498,-0.00488281,0.20507812,0.00488281,0.01464844,-0.14648438,0.04394531,-2.84614563,0.10416530,0.07324219,0.29296875
1.84401536,630,3.09991645,-1.48275645,-3.09798439,-0.00686646,1.48535824,0.31661987,3.09991645,-1.38504822,-3.09798439,0.09307974,1.49054899,0.31384720,3.09953498,-1.53387339,-3.09798439,0.08735657,1.52999020,0.27275085,-0.00488281,0.20996094,0.00488281,-0.01464844,-0.05859375,0.13183594,-2.84576416,0.10698848,0.07400513,0.07324219
1.85704374,635,3.09991645,-1.48046763,-3.09798439,-0.00686646,1.47963620,0.31700134,3.09991645,-1.38240641,-3.09798439,0.09307898,1.48431757,0.31584865,3.09953498,-1.53158457,-3.09798439,0.08735657,1.52960873,0.27503967,0.00000000,0.19042969,0.00488281,-0.01464844,-0.00000000,0.16113281,-2.84576416,0.10824951,0.07820129,0.34179688
1.87559271,640,3.09991645,-1.47894175,-3.09798439,-0.00686646,1.47048092,0.31700134,3.09991645,-1.38039572,-3.09798439,0.09307873,1.47662820,0.31668466,3.09953498,-1.52738841,-3.09798439,0.08773804,1.52808285,0.27923584,-0.00488281,0.18554688,0.00976562,0.01464844,-0.11718750,0.07324219,-2.84576416,0.10880335,0.08392334,0.36621094
1.88821387,645,3.09991645,-1.47856028,-3.09798439,-0.00686646,1.46475888,0.31738281,3.09991645,-1.37931779,-3.09798439,0.09307865,1.46982107,0.31697387,3.09953498,-1.52548106,-3.09798439,0.08811951,1.52503110,0.28114319,0.00000000,0.19042969,0.00976562,0.00000000,-0.27832031,0.17578125,-2.84538269,0.10925949,0.08430481,0.04882812
1.90469742,650,3.09991645,-1.47665293,-3.09798439,-0.00686646,1.45674801,0.31776428,3.09991645,-1.37788389,-3.09798439,0.09307863,1.46252349,0.31729385,3.09953498,-1.52204783,-3.09798439,0.08850098,1.52007199,0.28457642,-0.00488281,0.17578125,0.00976562,0.01464844,-0.27832031,0.21972656,-2.84500122,0.10992190,0.08773804,0.21972656
1.91946507,655,3.09991645,-1.47627146,-3.09798439,-0.00686646,1.44950009,0.31852722,3.09991645,-1.37686800,-3.09798439,0.09307862,1.45511965,0.31797268,3.09953498,-1.51937754,-3.09798439,0.08888245,1.51358700,0.28762817,-0.00488281,0.18066406,0.00488281,0.01464844,-0.43945312,0.21972656,-2.84500122,0.11013896,0.09117126,0.12207031
1.93302488,660,3.09991645,-1.47550852,-3.09798439,-0.00686646,1.44301510,0.31890869,3.09991645,-1.37611007,-3.09798439,0.09307861,1.44825594,0.31853167,3.09953498,-1.51670726,-3.09798439,0.08964539,1.50862790,0.28915405,-0.00488281,0.18066406,-0.00000000,0.01464844,-0.30761719,0.05859375,-2.84500122,0.11021009,0.09689331,0.39062500
1.94596863,665,3.09991645,-1.47550852,-3.09798439,-0.00686646,1.43729306,0.31929016,3.09991645,-1.37574257,-3.09798439,0.09307861,1.44201721,0.31897131,3.09953498,-1.51441844,-3.09798439,0.09002686,1.50405026,0.29067993,-0.00488281,0.19042969,0.00488281,0.00000000,-0.38085938,0.14648438,-2.84500122,0.11023339,0.10070801,0.26855469
1.96152401,670,3.09991645,-1.47550852,-3.09798439,-0.00686646,1.43157101,0.32196045,3.09991645,-1.37562215,-3.09798439,0.09307861,1.43597303,0.32037306,3.09953498,-1.51098521,-3.09798439,0.09040833,1.49794674,0.29678345,-0.00488281,0.19042969,0.00488281,0.02929688,-0.36621094,0.27832031,-2.84500122,0.11024103,0.10032654,-0.02441406
1.97656727,675,3.09991645,-1.47550852,-3.09798439,-0.00686646,1.42432309,0.32653809,3.09991645,-1.37558269,-3.09798439,0.09307861,1.42957609,0.32369469,3.09953498,-1.50831492,-3.09798439,0.09078979,1.49298764,0.29678345,-0.00488281,0.20019531,0.00488281,0.01464844,-0.33691406,-0.02929688,-2.84500122,0.11030603,0.10032654,-0.02441406
1.99078298,680,3.09991645,-1.47550852,-3.09798439,-0.00686646,1.41783810,0.33111572,3.09991645,-1.37556976,-3.09798439,0.09307861,1.42297005,0.32768009,3.09953498,-1.50564463,-3.09798439,0.09078979,1.48802853,0.29830933,-0.00488281,0.17578125,0.00488281,-0.01464844,-0.36621094,0.05859375,-2.84500122,0.11026483,0.10032654,0.00000000
2.00563383,685,3.09991645,-1.47550852,-3.09798439,-0.00686646,1.41287900,0.33645630,3.09991645,-1.37556552,-3.09798439,0.09307861,1.41758602,0.33203901,3.09953498,-1.50259288,-3.09798439,0.09078979,1.48345089,0.29945374,0.00000000,0.18554688,0.00488281,-0.01464844,-0.23437500,0.13183594,-2.84500122,0.11025133,0.10032654,-0.02441406
2.02072144,690,3.09991645,-1.47550852,-3.09798439,-0.00686646,1.40830136,0.34141541,3.09991645,-1.37556413,-3.09798439,0.09307861,1.41245411,0.33729363,3.09953498,-1.50030406,-3.09798439,0.09078979,1.47772885,0.30250549,-0.00976562,0.17089844,0.00488281,-0.01464844,-0.35156250,0.14648438,-2.84500122,0.11024691,0.10070801,-0.04882812
2.03434467,695,3.09991645,-1.47550852,-3.09798439,-0.00686646,1.40334225,0.34484863,3.09991645,-1.37556368,-3.09798439,0.09307861,1.40732363,0.34177828,3.09953498,-1.49763377,-3.09798439,0.09078979,1.47353268,0.30555725,-0.00488281,0.17089844,0.00488281,-0.01464844,-0.29296875,0.16113281,-2.84500122,0.11002573,0.10147095,0.00000000
2.05131960,700,3.09991645,-1.47550852,-3.09798439,-0.00686646,1.39800168,0.34904480,3.09991645,-1.37556353,-3.09798439,0.09307861,1.40230629,0.34562513,3.09953498,-1.49572642,-3.09798439,0.09117126,1.46971798,0.30746460,-0.00488281,0.14648438,-0.00000000,0.00000000,-0.27832031,0.16113281,-2.84500122,0.11017298,0.10185242,0.04882812
2.06604671,705,3.09991645,-1.47550852,-3.09798439,-0.00686646,1.39342404,0.35324097,3.09991645,-1.37556348,-3.09798439,0.09307861,1.39715391,0.35009404,3.09953498,-1.49305613,-3.09798439,0.09117126,1.46475888,0.30975342,-0.00488281,0.14648438,0.00488281,-0.01464844,-0.29296875,0.16113281,-2.84538269,0.10980595,0.10490417,0.19531250
2.07958961,710,3.09991645,-1.47550852,-3.09798439,-0.00686646,1.38960934,0.35514832,3.09991645,-1.37556346,-3.09798439,0.09307861,1.39272217,0.35310346,3.09953498,-1.49114878,-3.09798439,0.09117126,1.45827389,0.31394958,-0.00488281,0.12695312,0.00976562,-0.01464844,-0.41015625,0.27832031,-2.84538269,0.10958803,0.10528564,0.00000000
2.09181952,715,3.09991645,-1.47550852,-3.09798439,-0.00686646,1.38579464,0.35705566,3.09991645,-1.37556346,-3.09798439,0.09310986,1.38885714,0.35524986,3.09953498,-1.48962290,-3.09798439,0.09117126,1.45598507,0.31585693,-0.00976562,0.11718750,0.00488281,-0.01464844,-0.20507812,0.05859375,-2.84538269,0.10951662,0.10528564,-0.02441406
2.10729051,720,3.09991645,-1.47550852,-3.09798439,-0.00686646,1.38159848,0.35972595,3.09991645,-1.37556346,-3.09798439,0.09308885,1.38501703,0.35748872,3.09953498,-1.48771556,-3.09798439,0.09155273,1.45102597,0.31852722,-0.00488281,0.13671875,0.00488281,-0.01464844,-0.32226562,0.26367188,-2.84576416,0.10921856,0.10528564,-0.02441406
2.11918354,725,3.09991645,-1.47550852,-3.09798439,-0.00648499,1.37854672,0.36087036,3.09991645,-1.37556346,-3.09798439,0.09333844,1.38143742,0.35954156,3.09953498,-1.48580821,-3.09798439,0.09155273,1.44759274,0.32386780,-0.00976562,0.14648438,0.00488281,0.00000000,-0.30761719,0.36621094,-2.84576416,0.10888261,0.10528564,-0.02441406
2.13253856,730,3.09991645,-1.47550852,-3.09798439,-0.00610352,1.37549496,0.36163330,3.09991645,-1.37556346,-3.09798439,0.09364544,1.37824394,0.36079749,3.09953498,-1.48351939,-3.09798439,0.09193420,1.44263363,0.32577515,-0.00488281,0.13671875,0.00976562,0.00000000,-0.38085938,0.08789062,-2.84576416,0.10889460,0.10566711,0.00000000
2.14820695,735,3.09991645,-1.47550852,-3.09760292,-0.00610352,1.37091733,0.36277771,3.09991645,-1.37556346,-3.09779824,0.09377729,1.37426049,0.36193938,3.09953498,-1.48084910,-3.09798439,0.09193420,1.43614865,0.32730103,-0.00488281,0.16601562,0.00488281,-0.01464844,-0.39550781,0.13183594,-2.84576416,0.10877645,0.10528564,-0.04882812
2.16244197,740,3.09991645,-1.47512706,-3.09683998,-0.00610352,1.36748410,0.36315918,3.09991645,-1.37542613,-3.09740447,0.09382050,1.37048437,0.36268916,3.09953498,-1.47856028,-3.09798439,0.09193420,1.43118954,0.33035278,-0.00488281,0.15625000,0.00976562,-0.01464844,-0.30761719,0.24902344,-2.84576416,0.10873774,0.10528564,-0.02441406
2.17745900,745,3.09991645,-1.47474559,-3.09607704,-0.00610352,1.36328793,0.36315918,3.09991645,-1.37507583,-3.09670147,0.09383465,1.36646686,0.36293485,3.09953498,-1.47665293,-3.09798439,0.09193420,1.42775631,0.33149719,0.00000000,0.15136719,0.00488281,-0.01464844,-0.27832031,0.07324219,-2.84538269,0.10894014,0.10566711,-0.02441406
2.19155431,750,3.09991645,-1.47436412,-3.09493264,-0.00610352,1.35871029,0.36315918,3.09991645,-1.37481444,-3.09576274,0.09383929,1.36232619,0.36308567,3.09953498,-1.47436412,-3.09798439,0.09231567,1.42203427,0.33416748,-0.00488281,0.13183594,0.00488281,-0.01464844,-0.30761719,0.11718750,-2.84576416,0.10879138,0.10566711,-0.02441406
2.20562363,755,3.09991645,-1.47436412,-3.09302529,-0.00610352,1.35413266,0.36315918,3.09991645,-1.37454861,-3.09443255,0.09384081,1.35801820,0.36313509,3.09953498,-1.47245677,-3.09798439,0.09231567,1.41707516,0.33569336,-0.00488281,0.11230469,0.00488281,0.00000000,-0.32226562,0.08789062,-2.84538269,0.10889522,0.10566711,-0.02441406
2.22084260,760,3.09991645,-1.47398265,-3.09111794,-0.00610352,1.34802914,0.36315918,3.09991645,-1.37432417,-3.09263620,0.09384131,1.35255528,0.36315129,3.09953498,-1.47054942,-3.09760292,0.09269714,1.41173459,0.33912659,0.00000000,0.10742188,0.00976562,-0.01464844,-0.35156250,0.14648438,-2.84576416,0.10889873,0.10566711,0.00000000
2.23644733,765,3.09991645,-1.47398265,-3.08921059,-0.00572205,1.34192563,0.36315918,3.09991645,-1.37413149,-3.09077303,0.09391777,1.34668170,0.36315659,3.09953498,-1.46864207,-3.09760292,0.09269714,1.40524960,0.34103394,-0.00488281,0.11230469,0.00976562,-0.01464844,-0.33691406,0.10253906,-2.84538269,0.10910618,0.10604858,-0.02441406
2.25251079,770,3.09991645,-1.47398265,-3.08692177,-0.00572205,1.33582211,0.36315918,3.09991645,-1.37406835,-3.08871598,0.09412300,1.34072677,0.36315833,3.09953498,-1.46673472,-3.09760292,0.09269714,1.40257931,0.34217834,-0.00488281,0.10742188,0.00488281,0.01464844,-0.30761719,0.05859375,-2.84576416,0.10914364,0.10604858,-0.02441406
2.26612306,775,3.09991645,-1.47398265,-3.08501442,-0.00572205,1.33048153,0.36315918,3.09991645,-1.37404766,-3.08662823,0.09419025,1.33494905,0.36315890,3.09953498,-1.46520884,-3.09760292,0.09307861,1.39800168,0.34446716,-0.00488281,0.09277344,0.00488281,0.00000000,-0.24902344,0.16113281,-2.84538269,0.10913272,0.10604858,-0.02441406
2.28187394,780,3.09991645,-1.47398265,-3.08310707,-0.00572205,1.32475949,0.36315918,3.09991645,-1.37404088,-3.08477163,0.09421228,1.32954274,0.36315909,3.09953498,-1.46368296,-3.09760292,0.09346008,1.39571286,0.34828186,-0.00488281,0.12207031,0.00976562,0.00000000,-0.19042969,0.27832031,-2.84538269,0.10918285,0.10604858,0.00000000
2.29465771,785,3.09991645,-1.47398265,-3.08158120,-0.00572205,1.32132626,0.36315918,3.09991645,-1.37403866,-3.08281609,0.09421950,1.32445028,0.36315915,3.09953498,-1.46177561,-3.09760292,0.09346008,1.39151669,0.34904480,-0.00488281,0.11718750,0.01953125,-0.01464844,-0.26367188,-0.02929688,-2.84538269,0.10938385,0.10643005,-0.02441406
2.30858493,790,3.09991645,-1.47398265,-3.07967385,-0.00572205,1.31484128,0.36315918,3.09991645,-1.37403793,-3.08107313,0.09422187,1.31921017,0.36315917,3.09953498,-1.46024974,-3.09683998,0.09346008,1.38808346,0.34942627,-0.00488281,0.12695312,0.05371094,-0.01464844,-0.27832031,0.02929688,-2.84538269,0.10944971,0.10643005,-0.02441406
2.32200861,795,3.09991645,-1.47398265,-3.07814797,-0.00572205,1.31064511,0.36315918,3.09991645,-1.37403769,-3.07946830,0.09422264,1.31430376,0.36315918,3.09953498,-1.45910533,-3.09645851,0.09346008,1.38426877,0.34942627,0.00000000,0.11718750,0.04394531,-0.01464844,-0.36621094,-0.01464844,-2.84538269,0.10947129,0.10681152,0.02441406
2.33831668,800,3.09991645,-1.47398265,-3.07700356,-0.00572205,1.30683041,0.36315918,3.09991645,-1.37403762,-3.07809294,0.09422290,1.31011229,0.36315918,3.09953498,-1.45643504,-3.09569558,0.09346008,1.37511349,0.35018921,-0.00488281,0.13183594,0.02441406,-0.01464844,-0.43945312,0.04394531,-2.84538269,0.10947836,0.10719299,0.04882812
2.35083604,805,3.09991645,-1.47398265,-3.07662209,-0.00572205,1.30377865,0.36315918,3.09991645,-1.37403759,-3.07713531,0.09422298,1.30652740,0.36315918,3.09953498,-1.45529063,-3.09569558,0.09346008,1.37206173,0.35133362,-0.00488281,0.11718750,0.01464844,-0.01464844,-0.32226562,0.07324219,-2.84538269,0.10948068,0.10719299,0.00000000
2.36541724,810,3.09991645,-1.47398265,-3.07585915,-0.00610352,1.30110837,0.36315918,3.09991645,-1.37403758,-3.07639646,0.09408568,1.30331620,0.36315918,3.09953498,-1.45300181,-3.09569558,0.09346008,1.36633969,0.35247803,-0.00488281,0.12207031,0.01464844,-0.01464844,-0.41015625,0.02929688,-2.84538269,0.10948144,0.10948181,0.19531250
2.38035917,815,3.09991645,-1.47398265,-3.07509621,-0.00610352,1.29843808,0.36315918,3.09991645,-1.37403758,-3.07573370,0.09392155,1.30058781,0.36315918,3.09953498,-1.45185740,-3.09493264,0.09346008,1.35947323,0.35285950,-0.00488281,0.11230469,0.04882812,-0.01464844,-0.41015625,0.01464844,-2.84538269,0.10948169,0.11062622,-0.02441406
2.39386797,820,3.09991645,-1.47398265,-3.07471474,-0.00610352,1.29576779,0.36315918,3.09991645,-1.37403758,-3.07516777,0.09386777,1.29774028,0.36315918,3.09953498,-1.44995005,-3.09455117,0.09346008,1.35260678,0.35324097,-0.00488281,0.10253906,0.03906250,0.00000000,-0.42480469,0.01464844,-2.84576416,0.10904696,0.11062622,0.00000000
2.40738797,825,3.09991645,-1.47398265,-3.07357033,-0.00610352,1.29309750,0.36315918,3.09991645,-1.37403758,-3.07434427,0.09385014,1.29505879,0.36315918,3.09953498,-1.44842417,-3.09416970,0.09346008,1.34955502,0.35400391,-0.00488281,0.07812500,0.03417969,-0.02929688,-0.27832031,0.04394531,-2.84576416,0.10918673,0.11062622,-0.04882812
2.42281342,830,3.09991645,-1.47398265,-3.07204445,-0.00610352,1.28966427,0.36315918,3.09991645,-1.37403758,-3.07315987,0.09384437,1.29219464,0.36315918,3.09953498,-1.44727977,-3.09416970,0.09346008,1.34650326,0.35552979,-0.00488281,0.10742188,0.01464844,-0.02929688,-0.20507812,0.13183594,-2.84538269,0.10938512,0.11062622,-0.07324219
2.43493152,835,3.09991645,-1.47398265,-3.07090004,-0.00572205,1.28699399,0.36315918,3.09991645,-1.37403758,-3.07177336,0.09391877,1.28915175,0.36315918,3.09953498,-1.44575389,-3.09378823,0.09384155,1.34459591,0.35629272,-0.00976562,0.11230469,0.01464844,0.00000000,-0.07324219,-0.01464844,-2.84538269,0.10945013,0.11062622,-0.02441406
2.45176172,840,3.09991645,-1.47398265,-3.06784829,-0.00610352,1.28241635,0.36315918,3.09991645,-1.37403758,-3.06970574,0.09400797,1.28543737,0.36315918,3.09953498,-1.44460948,-3.09378823,0.09384155,1.34268857,0.35629272,-0.00488281,0.05859375,0.02441406,-0.01464844,-0.16113281,-0.01464844,-2.84538269,0.10939330,0.11062622,-0.02441406
2.46476030,845,3.09991645,-1.47398265,-3.06517800,-0.00572205,1.27822018,0.36315918,3.09991645,-1.37403758,-3.06712503,0.09401144,1.28133023,0.36319824,3.09953498,-1.44346507,-3.09302529,0.09346008,1.33887387,0.35667419,-0.00488281,0.07812500,0.05371094,0.00000000,-0.23437500,-0.01464844,-2.84538269,0.10945281,0.11062622,-0.02441406
2.47863054,850,3.09991645,-1.47398265,-3.06250771,-0.00572205,1.27326108,0.36354065,3.09991645,-1.37403758,-3.06459395,0.09415369,1.27695937,0.36330931,3.09953498,-1.44232066,-3.09226235,0.09346008,1.33505917,0.35667419,-0.00488281,0.08789062,0.05859375,0.00000000,-0.27832031,0.00000000,-2.84538269,0.10940981,0.11062622,-0.04882812
2.49208379,855,3.09991645,-1.47398265,-3.05983742,-0.00572205,1.26868344,0.36354065,3.09991645,-1.37403758,-3.06199858,0.09420030,1.27239872,0.36343359,3.09953498,-1.44117625,-3.09188088,0.09346008,1.33010006,0.35705566,-0.00488281,0.06835938,0.02441406,-0.01464844,-0.36621094,0.00000000,-2.84538269,0.10955587,0.11062622,-0.04882812
2.50828934,860,3.09991645,-1.47398265,-3.05564125,-0.00572205,1.26105404,0.36354065,3.09991645,-1.37403758,-3.05860626,0.09421558,1.26631395,0.36338643,3.09953498,-1.43926890,-3.09149941,0.09346008,1.32285214,0.35743713,-0.00488281,0.08300781,0.03906250,-0.01464844,-0.39550781,0.02929688,-2.84538269,0.10950608,0.11062622,-0.02441406
2.52270889,865,3.09991645,-1.47398265,-3.05220803,-0.00572205,1.25571347,0.36354065,3.09991645,-1.37403758,-3.05502628,0.09422058,1.26022951,0.36345886,3.09953498,-1.43812449,-3.09111794,0.09346008,1.31941891,0.35781860,-0.00488281,0.10253906,0.03906250,0.00000000,-0.21972656,0.01464844,-2.84500122,0.11000270,0.11062622,-0.02441406
2.53622794,870,3.09991645,-1.47398265,-3.04877480,-0.00572205,1.24999142,0.36354065,3.09991645,-1.37403758,-3.05141362,0.09422222,1.25451763,0.36347479,3.09953498,-1.43736155,-3.08997353,0.09346008,1.31522275,0.35820007,0.00000000,0.07324219,0.06835938,-0.01464844,-0.38085938,0.01464844,-2.84500122,0.11016544,0.11062622,0.00000000
2.54996109,875,3.09991645,-1.47398265,-3.04496010,-0.00572205,1.24350644,0.36354065,3.09991645,-1.37403758,-3.04786434,0.09422276,1.24863558,0.36351907,3.09953498,-1.43583567,-3.08921059,0.09346008,1.30988217,0.35896301,-0.00488281,0.10253906,0.08300781,-0.02929688,-0.24902344,0.01464844,-2.84461975,0.11073170,0.11062622,-0.02441406
2.56523252,880,3.09991645,-1.47398265,-3.04076393,-0.00572205,1.23511410,0.36354065,3.09991645,-1.37403758,-3.04403493,0.09422294,1.24149453,0.36353358,3.09953498,-1.43430979,-3.08806618,0.09346008,1.30492306,0.35934448,-0.00488281,0.09765625,0.06835938,-0.01464844,-0.36621094,0.02929688,-2.84423828,0.11119191,0.11062622,0.00000000
2.57761741,885,3.09991645,-1.47398265,-3.03733071,-0.00572205,1.22977353,0.36354065,3.09991645,-1.37403758,-3.04024923,0.09422299,1.23468799,0.36353833,3.09953498,-1.43354686,-3.08768471,0.09346008,1.30187131,0.35934448,-0.00488281,0.05371094,0.06347656,-0.01464844,-0.21972656,0.00000000,-2.84347534,0.11210590,0.11062622,-0.04882812
2.59212661,890,3.09991645,-1.47398265,-3.03237160,-0.00572205,1.22290707,0.36392212,3.09991645,-1.37403758,-3.03597150,0.09422301,1.22850377,0.36376511,3.09953498,-1.43202098,-3.08692177,0.09346008,1.29729367,0.35934448,-0.00488281,0.07812500,0.05859375,-0.01464844,-0.27832031,0.01464844,-2.84042358,0.11539563,0.11062622,0.00000000
2.60520506,895,3.09991645,-1.47398265,-3.02893837,-0.00572205,1.21680356,0.36392212,3.09991645,-1.37403758,-3.03199592,0.09422302,1.22193192,0.36387067,3.09953498,-1.43125804,-3.08615883,0.09346008,1.29347897,0.35972595,-0.00488281,0.06835938,0.06347656,-0.01464844,-0.33691406,0.01464844,-2.84080505,0.11757492,0.11062622,-0.02441406
2.62353396,900,3.09991645,-1.47398265,-3.02359780,-0.00572205,1.20612240,0.36468506,3.09991645,-1.37403758,-3.02763534,0.09422302,1.21376429,0.36423802,3.09953498,-1.43011363,-3.08463295,0.09346008,1.28813839,0.35972595,-0.00488281,0.05371094,0.07812500,-0.01464844,-0.35156250,0.00000000,-2.84042358,0.11866135,0.11062622,0.00000000
2.63937473,905,3.09991645,-1.47398265,-3.01787575,-0.00572205,1.19773007,0.36697388,3.09991645,-1.37403758,-3.02216606,0.09422302,1.20443778,0.36538940,3.09953498,-1.42858775,-3.08348854,0.09346008,1.28050900,0.36010742,-0.00488281,0.06835938,0.09277344,-0.02929688,-0.41015625,0.00000000,-2.84004211,0.11953029,0.11062622,-0.02441406
2.65513635,910,3.09991645,-1.47398265,-3.01291664,-0.00572205,1.18857480,0.36888123,3.09991645,-1.37403758,-3.01668773,0.09422302,1.19523176,0.36744601,3.09953498,-1.42782481,-3.08196266,0.09346008,1.27326108,0.36010742,-0.00488281,0.05371094,0.07324219,-0.01464844,-0.43945312,0.02929688,-2.83966064,0.12023031,0.11062622,-0.02441406
2.67134070,915,3.09991645,-1.47398265,-3.00833901,-0.00534058,1.17903805,0.37193298,3.09991645,-1.37403758,-3.01189552,0.09440918,1.18605632,0.36982353,3.09953498,-1.42668040,-3.08081826,0.09346008,1.26715756,0.36048889,-0.00488281,0.07812500,0.08300781,-0.02929688,-0.33691406,0.00000000,-2.84004211,0.12054538,0.11138916,0.00000000
2.68533874,920,3.09991645,-1.47398265,-3.00223549,-0.00534058,1.16911984,0.37651062,3.09991645,-1.37403758,-3.00676515,0.09454049,1.17678580,0.37316803,3.09953498,-1.42591746,-3.08005532,0.09346008,1.26448727,0.36087036,-0.00488281,0.07324219,0.08300781,-0.01464844,-0.29296875,0.01464844,-2.83966064,0.12073871,0.11177063,0.00000000
2.69793820,925,3.09991645,-1.47398265,-2.99880226,-0.00534058,1.16225339,0.38032532,3.09991645,-1.37403758,-3.00199357,0.09449563,1.16815794,0.37734916,3.09953498,-1.42477305,-3.07852944,0.09384155,1.25571347,0.36201477,0.00000000,0.06347656,0.10253906,-0.01464844,-0.42480469,0.08789062,-2.83966064,0.12086457,0.11177063,0.00000000
2.71346927,930,3.09991645,-1.47398265,-2.99269875,-0.00572205,1.14890194,0.38681030,3.09991645,-1.37403758,-2.99681577,0.09443149,1.15731673,0.38248839,3.09953498,-1.42401011,-3.07662209,0.09346008,1.24846554,0.36430359,-0.00488281,0.05859375,0.12695312,-0.01464844,-0.46875000,0.13183594,-2.83966064,0.12090580,0.11291504,0.04882812
2.72789454,935,3.09991645,-1.47398265,-2.98735817,-0.00572205,1.13898373,0.39215088,3.09991645,-1.37403758,-2.99163302,0.09429133,1.14691199,0.38794024,3.09953498,-1.42286570,-3.07509621,0.09384155,1.24198056,0.36544800,-0.00488281,0.06347656,0.11230469,-0.02929688,-0.39550781,0.05859375,-2.83966064,0.12091932,0.11444092,0.12207031
2.74062824,940,3.09991645,-1.47398265,-2.98392495,-0.00572205,1.13173581,0.39443970,3.09991645,-1.37403758,-2.98715239,0.09427666,1.13823120,0.39193886,3.09953498,-1.42210276,-3.07357033,0.09346008,1.23740292,0.36697388,-0.00488281,0.07324219,0.10253906,-0.01464844,-0.39550781,0.13183594,-2.83966064,0.12092375,0.11672974,0.14648438
2.75585842,945,3.09991645,-1.47398265,-2.97820290,-0.00572205,1.12067318,0.39596558,3.09991645,-1.37403758,-2.98253781,0.09424060,1.12891048,0.39432530,3.09953498,-1.42095835,-3.07204445,0.09384155,1.22824765,0.36811829,-0.00488281,0.04882812,0.13183594,0.00000000,-0.55664062,0.02929688,-2.83966064,0.12092520,0.11672974,0.00000000
2.77031398,950,3.09991645,-1.47398265,-2.97362526,-0.00572205,1.11266232,0.39634705,3.09991645,-1.37403758,-2.97777815,0.09422878,1.12006415,0.39561425,3.09953498,-1.42057688,-3.06975563,0.09384155,1.21985531,0.37002563,-0.00488281,0.04394531,0.14648438,-0.01464844,-0.55664062,0.16113281,-2.83966064,0.12092567,0.11672974,-0.02441406
2.78438997,955,3.09991645,-1.47398265,-2.96942910,-0.00572205,1.10350705,0.39634705,3.09991645,-1.37403758,-2.97335827,0.09422491,1.11154771,0.39610692,3.09953498,-1.41943248,-3.06822975,0.09384155,1.21375180,0.37384033,0.00000000,0.06347656,0.11718750,-0.04394531,-0.48339844,0.30761719,-2.84004211,0.12077324,0.11672974,-0.02441406
2.80076599,960,3.09991645,-1.47398265,-2.96408852,-0.00572205,1.09473324,0.39634705,3.09991645,-1.37403758,-2.96823931,0.09422364,1.10210776,0.39626836,3.09953498,-1.41866954,-3.06670388,0.09384155,1.20612240,0.37651062,0.00000000,0.03906250,0.10253906,-0.02929688,-0.49804688,0.00000000,-2.83966064,0.12077822,0.11711121,-0.02441406
2.81707859,965,3.09991645,-1.47398265,-2.95951088,-0.00572205,1.08634091,0.39634705,3.09991645,-1.37403758,-2.96341545,0.09422323,1.09343366,0.39632126,3.09953498,-1.41752513,-3.06403359,0.09384155,1.19544125,0.37689209,0.00000000,0.06347656,0.15136719,-0.01464844,-0.57128906,0.01464844,-2.83966064,0.12087751,0.11711121,0.02441406
2.82937026,970,3.09991645,-1.47398265,-2.95569619,-0.00572205,1.07833005,0.39634705,3.09991645,-1.37403758,-2.95911968,0.09422309,1.08499648,0.39633860,3.09953498,-1.41714366,-3.06212624,0.09384155,1.18895627,0.37803650,-0.00488281,0.02929688,0.17089844,-0.01464844,-0.54199219,0.08789062,-2.83966064,0.12091005,0.11711121,-0.02441406
2.84509683,975,3.09991645,-1.47398265,-2.95111855,-0.00572205,1.07108212,0.39634705,3.09991645,-1.37403758,-2.95472180,0.09425429,1.07698435,0.39634428,3.09953498,-1.41561778,-3.06021889,0.09384155,1.18170834,0.37879944,-0.00488281,0.07812500,0.12207031,-0.02929688,-0.46875000,0.02929688,-2.83966064,0.12092071,0.11749268,0.00000000
2.85904074,980,3.09991645,-1.47398265,-2.94615944,-0.00534058,1.06307126,0.39672852,3.09991645,-1.37403758,-2.94980744,0.09448974,1.06897503,0.39660261,3.09953498,-1.41523631,-3.05907448,0.09384155,1.17522336,0.37994385,-0.00488281,0.04394531,0.13183594,-0.01464844,-0.54199219,0.04394531,-2.83966064,0.12092420,0.11787415,-0.02441406
2.87384391,985,3.09991645,-1.47398265,-2.94081887,-0.00534058,1.05239010,0.39710999,3.09991645,-1.37403758,-2.94508895,0.09456689,1.06044428,0.39694373,3.09953498,-1.41409190,-3.05640419,0.09384155,1.16644955,0.38146973,-0.00488281,0.05371094,0.18554688,-0.01464844,-0.60058594,0.11718750,-2.83966064,0.12092535,0.11787415,0.00000000
2.88969636,990,3.09991645,-1.47398265,-2.93700417,-0.00495911,1.04552365,0.39710999,3.09991645,-1.37403758,-2.94035310,0.09484864,1.05174194,0.39705551,3.09953498,-1.41332896,-3.05373391,0.09384155,1.15653134,0.38261414,-0.00488281,0.03906250,0.12207031,-0.01464844,-0.51269531,-0.01464844,-2.83966064,0.12092572,0.11940002,0.07324219
2.90478110,995,3.09991645,-1.47398265,-2.93128212,-0.00495911,1.03636838,0.39710999,3.09991645,-1.37403758,-2.93533800,0.09494096,1.04344944,0.39709213,3.09953498,-1.41218455,-3.05182656,0.09384155,1.15004635,0.38337708,-0.00488281,0.04882812,0.14160156,-0.01464844,-0.46875000,0.01464844,-2.83966064,0.12092584,0.12283325,0.17089844
2.91874266,1000,3.09991645,-1.47398265,-2.92708596,-0.00419617,1.02645016,0.39710999,3.09991645,-1.37403758,-2.93066205,0.09530398,1.03417527,0.39710414,3.09953498,-1.41180308,-3.04991921,0.09384155,1.14127255,0.38375854,-0.00488281,0.03906250,0.17578125,-0.01464844,-0.55664062,0.04394531,-2.83966064,0.12092588,0.12245178,-0.04882812
2.93334603,1005,3.09991645,-1.47398265,-2.92174538,-0.00343323,1.01805783,0.39710999,3.09991645,-1.37403758,-2.92587911,0.09592660,1.02502376,0.39710807,3.09953498,-1.41142161,-3.04724892,0.09384155,1.13364316,0.38528442,-0.00976562,0.02929688,0.16601562,-0.01464844,-0.42480469,0.07324219,-2.83966064,0.12092590,0.12245178,0.00000000
2.94913077,1010,3.09991645,-1.47398265,-2.91716774,-0.00305176,1.00890256,0.39710999,3.09991645,-1.37403758,-2.92081135,0.09645740,1.01584336,0.39710936,3.09953498,-1.41027720,-3.04457863,0.09384155,1.12639523,0.38604736,-0.00488281,0.05371094,0.15625000,-0.02929688,-0.45410156,0.02929688,-2.83966064,0.12092590,0.12245178,-0.07324219
2.96458101,1015,3.09991645,-1.47398265,-2.91182717,-0.00267029,0.99745846,0.39710999,3.09991645,-1.37403758,-2.91559581,0.09693663,1.00547062,0.39710978,3.09953498,-1.40951426,-3.04190834,0.09384155,1.11609555,0.38681030,-0.00488281,0.02441406,0.17578125,0.00000000,-0.61523438,0.01464844,-2.84004211,0.12057312,0.12283325,-0.02441406
2.98003268,1020,3.09991645,-1.47398265,-2.90648659,-0.00190735,0.98754025,0.39710999,3.09991645,-1.37403758,-2.91056476,0.09746549,0.99555337,0.39710992,3.09953498,-1.40875132,-3.03961953,0.09384155,1.10732174,0.38719177,-0.00488281,0.05371094,0.17578125,-0.02929688,-0.51269531,0.04394531,-2.83966064,0.12081030,0.12283325,-0.02441406
2.99415016,1025,3.09991645,-1.47398265,-2.90229042,-0.00190735,0.97838498,0.39710999,3.09991645,-1.37403758,-2.90590313,0.09785021,0.98587156,0.39710996,3.09953498,-1.40798838,-3.03694924,0.09422302,1.09892941,0.38833618,-0.00488281,0.05371094,0.16601562,0.00000000,-0.55664062,0.05859375,-2.84004211,0.12073544,0.12245178,-0.02441406
3.01116967,1030,3.09991645,-1.47398265,-2.89542397,-0.00076294,0.96350766,0.39710999,3.09991645,-1.37403758,-2.90016051,0.09853426,0.97347258,0.39710998,3.09953498,-1.40722544,-3.03351601,0.09460449,1.08672238,0.39024353,-0.00488281,0.04882812,0.19042969,0.01464844,-0.64453125,0.08789062,-2.84004211,0.12035055,0.12245178,-0.04882812
3.02504396,1035,3.09991645,-1.47398265,-2.89237221,0.00000000,0.95587826,0.39710999,3.09991645,-1.37403758,-2.89545797,0.09936363,0.96292775,0.39710998,3.09953498,-1.40646250,-3.03122719,0.09460449,1.07985592,0.39062500,-0.00488281,0.04882812,0.18066406,-0.01464844,-0.46875000,0.00000000,-2.84004211,0.12022443,0.12245178,-0.02441406
3.03889489,1040,3.09991645,-1.47398265,-2.88817604,0.00038147,0.94634152,0.39710999,3.09991645,-1.37403758,-2.89128533,0.09997976,0.95346107,0.39710998,3.09953498,-1.40608103,-3.02893837,0.09460449,1.07222653,0.39062500,-0.00976562,0.02929688,0.17578125,0.00000000,-0.54199219,0.00000000,-2.84004211,0.12018311,0.12245178,0.00000000
3.05561590,1045,3.09991645,-1.47398265,-2.88359841,0.00038147,0.93680478,0.39710999,3.09991645,-1.37403758,-2.88713044,0.10021291,0.94415236,0.39710999,3.09953498,-1.40531810,-3.02626808,0.09498596,1.06345273,0.39100647,-0.00488281,0.04394531,0.20507812,0.01464844,-0.64453125,0.00000000,-2.84004211,0.12016956,0.12245178,-0.02441406
3.06819630,1050,3.09991645,-1.47398265,-2.87978371,0.00038147,0.92726803,0.39710999,3.09991645,-1.37403758,-2.88276433,0.10040844,0.93454581,0.39710999,3.09953498,-1.40493663,-3.02321633,0.09498596,1.05467892,0.39138794,-0.00488281,0.03906250,0.19531250,0.01464844,-0.54199219,0.01464844,-2.84004211,0.12016513,0.12245178,-0.04882812
3.08152819,1055,3.09991645,-1.47398265,-2.87596901,0.00076294,0.91773129,0.39710999,3.09991645,-1.37403758,-2.87886855,0.10046873,0.92508775,0.39710999,3.09953498,-1.40417369,-3.02130898,0.09536743,1.04666806,0.39215088,-0.00488281,0.02929688,0.17089844,0.01464844,-0.60058594,0.07324219,-2.84004211,0.12016367,0.12245178,0.00000000
3.09893966,1060,3.09991645,-1.47398265,-2.87100991,0.00038147,0.90705014,0.39710999,3.09991645,-1.37403758,-2.87477643,0.10037313,0.91541383,0.39710999,3.09953498,-1.40379222,-3.01749428,0.09574890,1.03407956,0.39291382,-0.00488281,0.03906250,0.20996094,0.00000000,-0.67382812,0.00000000,-2.84042358,0.11965026,0.12245178,-0.04882812
3.11361337,1065,3.09991645,-1.47398265,-2.86719521,0.00038147,0.89789486,0.39710999,3.09991645,-1.37403758,-2.87015208,0.10034181,0.90501146,0.39710999,3.09953498,-1.40302928,-3.01482399,0.09613037,1.02606869,0.39291382,-0.00488281,0.03417969,0.18554688,0.01464844,-0.60058594,-0.01464844,-2.84080505,0.11920736,0.12245178,-0.02441406
3.12712026,1070,3.09991645,-1.47398265,-2.86261757,0.00038147,0.88835812,0.39710999,3.09991645,-1.37403758,-2.86610748,0.10037060,0.89564175,0.39710999,3.09953498,-1.40226634,-3.01291664,0.09613037,1.01805783,0.39329529,-0.00488281,0.04394531,0.19531250,0.00000000,-0.57128906,-0.02929688,-2.84042358,0.11933689,0.12245178,0.00000000
3.14218736,1075,3.09991645,-1.47398265,-2.85880287,0.00038147,0.87920285,0.39710999,3.09991645,-1.37403758,-2.86196695,0.10034098,0.88650019,0.39710999,3.09953498,-1.40188487,-3.00910195,0.09689331,1.00737668,0.39329529,-0.00488281,0.03906250,0.21484375,0.01464844,-0.71777344,0.01464844,-2.84042358,0.11937934,0.12207031,-0.07324219
3.15879893,1080,3.09991645,-1.47398265,-2.85346230,0.00038147,0.86814023,0.39710999,3.09991645,-1.37403758,-2.85719198,0.10037033,0.87640251,0.39707092,3.09953498,-1.40112193,-3.00643166,0.09727478,0.99936581,0.39329529,-0.00488281,0.04394531,0.19042969,0.01464844,-0.57128906,0.01464844,-2.84042358,0.11921746,0.12245178,-0.04882812
3.17021322,1085,3.09991645,-1.47398265,-2.85041054,0.00076294,0.86165524,0.39710999,3.09991645,-1.37403758,-2.85307409,0.10047822,0.86737044,0.39700929,3.09953498,-1.40074046,-3.00452431,0.09765625,0.99097348,0.39367676,-0.00488281,0.04882812,0.20507812,0.01464844,-0.64453125,0.00000000,-2.84042358,0.11934020,0.12245178,-0.02441406
3.18454337,1090,3.09991645,-1.47398265,-2.84621437,0.00038147,0.85211850,0.39710999,3.09991645,-1.37403758,-2.84899537,0.10042507,0.85846000,0.39695785,3.09953498,-1.40035899,-3.00109108,0.09803772,0.97991086,0.39367676,-0.00488281,0.03417969,0.22460938,0.00000000,-0.68847656,-0.01464844,-2.84042358,0.11938042,0.12245178,0.00000000
3.19793510,1095,3.09991645,-1.47398265,-2.84163674,0.00076294,0.84296322,0.39672852,3.09991645,-1.37403758,-2.84479167,0.10054498,0.84941865,0.39680366,3.09953498,-1.39959605,-2.99803933,0.09803772,0.97304440,0.39367676,-0.00488281,0.04394531,0.20019531,0.00000000,-0.57128906,-0.01464844,-2.84080505,0.11924101,0.12245178,-0.02441406
3.21118426,1100,3.09991645,-1.47398265,-2.83705910,0.00038147,0.83342648,0.39710999,3.09991645,-1.37403758,-2.84044349,0.10044695,0.84042900,0.39689047,3.09953498,-1.39921458,-2.99536904,0.09803772,0.96427060,0.39367676,-0.00488281,0.03417969,0.20019531,-0.01464844,-0.62988281,-0.01464844,-2.84042358,0.11922585,0.12207031,-0.02441406
3.22698021,1105,3.09991645,-1.47398265,-2.83209999,0.00038147,0.82312680,0.39710999,3.09991645,-1.37403758,-2.83592970,0.10036599,0.83122607,0.39699899,3.09953498,-1.39883311,-2.99231728,0.09803772,0.95587826,0.39405823,-0.00488281,0.00976562,0.21972656,0.00000000,-0.65917969,0.00000000,-2.84042358,0.11934295,0.12207031,-0.02441406
3.24030399,1110,3.09991645,-1.47398265,-2.82790383,0.00038147,0.81359006,0.39710999,3.09991645,-1.37403758,-2.83131353,0.10044933,0.82111805,0.39701258,3.09953498,-1.39845164,-2.98926552,0.09841919,0.94596005,0.39405823,-0.00488281,0.01953125,0.22460938,0.00000000,-0.65917969,0.00000000,-2.84042358,0.11938132,0.12207031,-0.04882812
3.25868440,1115,3.09991645,-1.47398265,-2.82103737,0.00038147,0.80100155,0.39710999,3.09991645,-1.37403758,-2.82593249,0.10045906,0.81041608,0.39702924,3.09953498,-1.39768870,-2.98506935,0.09880066,0.93299008,0.39443970,-0.00488281,0.01464844,0.22949219,0.01464844,-0.62988281,0.00000000,-2.84042358,0.11939390,0.12207031,0.00000000
3.27476597,1120,3.09991645,-1.47398265,-2.81645974,0.00076294,0.79222775,0.39710999,3.09991645,-1.37403758,-2.82047930,0.10062643,0.80002657,0.39708353,3.09953498,-1.39730723,-2.98201760,0.09880066,0.92383481,0.39443970,-0.00488281,0.03906250,0.20019531,0.01464844,-0.51269531,-0.01464844,-2.84004211,0.11991096,0.12207031,-0.02441406
3.28911138,1125,3.09991645,-1.47398265,-2.81150063,0.00076294,0.78307248,0.39710999,3.09991645,-1.37403758,-2.81558436,0.10063245,0.79056354,0.39699145,3.09953498,-1.39692576,-2.97934731,0.09918213,0.91620541,0.39482117,-0.00488281,0.01464844,0.20507812,0.00000000,-0.55664062,0.00000000,-2.84004211,0.12025617,0.12207031,-0.02441406
3.30182672,1130,3.09991645,-1.47398265,-2.80730446,0.00038147,0.77658749,0.39710999,3.09991645,-1.37403758,-2.81085063,0.10055813,0.78262029,0.39707114,3.09953498,-1.39654429,-2.97629555,0.09918213,0.90552426,0.39482117,-0.00488281,0.01953125,0.23437500,0.01464844,-0.73242188,-0.01464844,-2.83966064,0.12064394,0.12207031,-0.02441406
3.31767702,1135,3.09991645,-1.47398265,-2.80272683,0.00076294,0.76895810,0.39710999,3.09991645,-1.37403758,-2.80637028,0.10065889,0.77502819,0.39709726,3.09953498,-1.39578135,-2.97209938,0.09956360,0.89522458,0.39520264,-0.00488281,0.03906250,0.23437500,0.01464844,-0.61523438,0.01464844,-2.83889771,0.12143654,0.12207031,-0.02441406
3.33561254,1140,3.09991645,-1.47398265,-2.79738625,0.00076294,0.76018429,0.39710999,3.09991645,-1.37403758,-2.80156256,0.10069191,0.76682227,0.39710581,3.09953498,-1.39539988,-2.96828469,0.10032654,0.88378048,0.39596558,0.00000000,0.03417969,0.22949219,0.01464844,-0.68847656,0.04394531,-2.83699036,0.12346212,0.12207031,-0.02441406
3.35204053,1145,3.09991645,-1.47398265,-2.79280861,0.00076294,0.75331784,0.39710999,3.09991645,-1.37403758,-2.79659019,0.10055381,0.75910576,0.39710862,3.09953498,-1.39501841,-2.96446999,0.10070801,0.87386227,0.39787292,-0.00488281,0.00976562,0.24414062,0.00000000,-0.52734375,0.07324219,-2.83355713,0.12921303,0.12207031,-0.02441406
3.36460853,1150,3.09991645,-1.47398265,-2.78899391,0.00038147,0.74797726,0.39710999,3.09991645,-1.37403758,-2.79224380,0.10044984,0.75257404,0.39710954,3.09953498,-1.39463694,-2.96218117,0.10070801,0.86737729,0.39825439,0.00000000,0.02929688,0.21484375,0.00000000,-0.57128906,0.00000000,-2.82936096,0.13559040,0.12207031,-0.02441406
3.38235974,1155,3.09991645,-1.47398265,-2.78441628,0.00038147,0.74149228,0.39710999,3.09991645,-1.37403758,-2.78799439,0.10036694,0.74642775,0.39710984,3.09953498,-1.39387400,-2.95760353,0.10108948,0.85631466,0.39825439,-0.00976562,0.01953125,0.24902344,-0.02929688,-0.61523438,-0.02929688,-2.82173157,0.14705221,0.12207031,0.00000000
3.39783716,1160,3.09991645,-1.47398265,-2.77945717,0.00038147,0.73500729,0.39710999,3.09991645,-1.37403758,-2.78337769,0.10033978,0.74015433,0.39710994,3.09953498,-1.39349253,-2.95455178,0.10108948,0.84715939,0.39825439,-0.00488281,0.02929688,0.21972656,-0.02929688,-0.57128906,-0.02929688,-2.81219482,0.16130338,0.12245178,-0.02441406
3.41511893,1165,3.09991645,-1.47398265,-2.77449807,0.00038147,0.73004818,0.39710999,3.09991645,-1.37403758,-2.77858889,0.10033088,0.73457998,0.39710997,3.09953498,-1.39311106,-2.95073708,0.10108948,0.83876706,0.39825439,-0.00488281,0.00976562,0.22460938,-0.01464844,-0.52734375,-0.01464844,-2.80380249,0.17833404,0.12283325,0.02441406
3.42985654,1170,3.09991645,-1.47398265,-2.77106484,0.00038147,0.72585202,0.39710999,3.09991645,-1.37403758,-2.77423198,0.10032796,0.72948397,0.39710998,3.09953498,-1.39311106,-2.94768532,0.10108948,0.82999325,0.39825439,-0.00488281,0.00976562,0.22460938,-0.01464844,-0.61523438,-0.02929688,-2.79693604,0.19468076,0.12435913,0.12207031
3.44477296,1175,3.09991645,-1.47398265,-2.76648720,0.00038147,0.71974850,0.39710999,3.09991645,-1.37403758,-2.76990685,0.10032700,0.72404116,0.39710998,3.09953498,-1.39272959,-2.94348915,0.10108948,0.82160092,0.39825439,0.00000000,0.00488281,0.21972656,-0.01464844,-0.42480469,-0.01464844,-2.78892517,0.21063320,0.13465881,0.63476562
3.45793676,1180,3.09991645,-1.47398265,-2.76267250,0.00038147,0.71440793,0.39710999,3.09991645,-1.37403758,-2.76597616,0.10032669,0.71899863,0.39710998,3.09953498,-1.39272959,-2.94120034,0.10108948,0.81626034,0.39825439,-0.00488281,0.01464844,0.21484375,-0.01464844,-0.43945312,0.00000000,-2.78434753,0.22306753,0.14152527,0.61035156
3.47186995,1185,3.09991645,-1.47398265,-2.75885781,0.00038147,0.70868588,0.39710999,3.09991645,-1.37403758,-2.76217228,0.10026555,0.71339915,0.39710999,3.09953498,-1.39234812,-2.93853005,0.10108948,0.80786801,0.39825439,-0.00488281,0.01464844,0.24414062,-0.01464844,-0.55664062,-0.01464844,-2.78434753,0.22877189,0.14724731,0.26855469
3.48593259,1190,3.09991645,-1.47398265,-2.75504311,0.00038147,0.70334530,0.39710999,3.09991645,-1.37403758,-2.75826884,0.10030655,0.70796934,0.39710999,3.09953498,-1.39196665,-2.93395241,0.10108948,0.80023861,0.39825439,0.00000000,0.01953125,0.26367188,-0.01464844,-0.51269531,-0.02929688,-2.78472900,0.23048851,0.15640259,0.68359375
3.50197911,1195,3.09991645,-1.47398265,-2.75084694,0.00038147,0.69571591,0.39710999,3.09991645,-1.37403758,-2.75419985,0.10031999,0.70141031,0.39710999,3.09953498,-1.39158519,-2.93013771,0.10070801,0.79413510,0.39825439,0.00000000,0.01953125,0.22460938,-0.02929688,-0.39550781,0.00000000,-2.78472900,0.23092894,0.16746521,0.68359375
3.51636147,1200,3.09991645,-1.47398265,-2.74779518,0.00038147,0.68961239,0.39710999,3.09991645,-1.37403758,-2.75058625,0.10032439,0.69486310,0.39710999,3.09953498,-1.39120372,-2.92784890,0.10108948,0.78803158,0.39787292,-0.00488281,0.01464844,0.22460938,-0.01464844,-0.46875000,-0.02929688,-2.78472900,0.23083498,0.17471313,0.61035156
3.53208303,1205,3.09991645,-1.47398265,-2.74398049,0.00076294,0.68236447,0.39710999,3.09991645,-1.37403758,-2.74681987,0.10058230,0.68752789,0.39710999,3.09953498,-1.39082225,-2.92365273,0.10108948,0.77925778,0.39825439,0.00000000,0.01953125,0.26855469,0.00000000,-0.58593750,-0.02929688,-2.78434753,0.23103490,0.17814636,0.04882812
3.54665327,1210,3.09991645,-1.47398265,-2.74092873,0.00076294,0.67549801,0.39710999,3.09991645,-1.37403758,-2.74347144,0.10066682,0.68077151,0.39710999,3.09953498,-1.39044078,-2.91945656,0.10070801,0.77200985,0.39787292,-0.00488281,0.01953125,0.25390625,-0.02929688,-0.48339844,-0.01464844,-2.78434753,0.23124202,0.18310547,0.41503906
3.56118512,1215,3.09991645,-1.47398265,-2.73825844,0.00076294,0.66977597,0.39710999,3.09991645,-1.37403758,-2.74047884,0.10069451,0.67450350,0.39710999,3.09953498,-1.39005931,-2.91640480,0.10070801,0.76628781,0.39825439,-0.00488281,0.03417969,0.22460938,0.00000000,-0.38085938,0.00000000,-2.78472900,0.23123542,0.18997192,0.46386719
3.57515359,1220,3.09991645,-1.47398265,-2.73635109,0.00114441,0.66329098,0.39710999,3.09991645,-1.37403758,-2.73818463,0.10084091,0.66861940,0.39710999,3.09953498,-1.38967784,-2.91297158,0.10070801,0.75942135,0.39787292,-0.00488281,0.00976562,0.24902344,-0.01464844,-0.45410156,-0.01464844,-2.78472900,0.23111119,0.19569397,0.31738281
3.58870053,1225,3.09991645,-1.47398265,-2.73482521,0.00114441,0.65833188,0.39710999,3.09991645,-1.37403758,-2.73632691,0.10100803,0.66296656,0.39710999,3.09953498,-1.38967784,-2.90953835,0.10108948,0.75217343,0.39787292,-0.00488281,0.00488281,0.23925781,0.00000000,-0.54199219,0.00000000,-2.78511047,0.23074211,0.20141602,0.34179688
3.60514092,1230,3.09991645,-1.47398265,-2.73329933,0.00114441,0.65299130,0.39710999,3.09991645,-1.37403758,-2.73451211,0.10106279,0.65705345,0.39710999,3.09953498,-1.38929637,-2.90572365,0.10070801,0.74454403,0.39787292,0.00000000,0.00976562,0.24414062,-0.01464844,-0.48339844,-0.01464844,-2.78549194,0.22988851,0.20484924,0.19531250
3.62068653,1235,3.09991645,-1.47398265,-2.73253640,0.00114441,0.64726925,0.39710999,3.09991645,-1.37403758,-2.73321505,0.10108073,0.65127710,0.39710999,3.09953498,-1.38891490,-2.90267189,0.10070801,0.73805905,0.39787292,-0.00488281,0.00976562,0.20996094,0.00000000,-0.41015625,-0.01464844,-2.78549194,0.22924844,0.20523071,0.02441406
3.63632631,1240,3.09991645,-1.47398265,-2.73139199,0.00114441,0.64154721,0.39710999,3.09991645,-1.37403758,-2.73213976,0.10108661,0.64581118,0.39710999,3.09953498,-1.38891490,-2.89885720,0.10108948,0.73042965,0.39787292,-0.00488281,0.01464844,0.24902344,-0.01464844,-0.46875000,-0.01464844,-2.78587341,0.22890565,0.20904541,0.29296875
3.65221000,1245,3.10029792,-1.47360118,-2.73139199,0.00114441,0.63582516,0.39672852,3.09999274,-1.37390025,-2.73163702,0.10108854,0.64040988,0.39692383,3.09953498,-1.38853343,-2.89542397,0.10108948,0.72470761,0.39787292,-0.00488281,0.00488281,0.23437500,-0.01464844,-0.46875000,-0.02929688,-2.78663635,0.22820592,0.21324158,0.21972656
3.66548753,1250,3.09991645,-1.47283824,-2.73139199,0.00114441,0.63124753,0.39672852,3.10012162,-1.37343459,-2.73147228,0.10108917,0.63526742,0.39679252,3.09953498,-1.38853343,-2.89237221,0.10108948,0.71822262,0.39787292,-0.00488281,0.01464844,0.21972656,0.01464844,-0.35156250,-0.01464844,-2.78739929,0.22685310,0.21514893,-0.02441406
3.68090987,1255,3.10029792,-1.47245677,-2.73139199,0.00114441,0.62781430,0.39672852,3.10020890,-1.37284536,-2.73141830,0.10108938,0.63090156,0.39674949,3.09953498,-1.38777049,-2.88893898,0.10070801,0.71173764,0.39787292,-0.00488281,0.02929688,0.21484375,-0.01464844,-0.42480469,-0.01464844,-2.78892517,0.22458071,0.21514893,-0.04882812
3.69388223,1260,3.09991645,-1.47093089,-2.73139199,0.00114441,0.62209225,0.39672852,3.10012214,-1.37192572,-2.73140061,0.10094052,0.62631824,0.39673539,3.09953498,-1.38738902,-2.88550576,0.10070801,0.70487118,0.39787292,-0.00488281,0.01464844,0.23925781,-0.01464844,-0.45410156,-0.01464844,-2.79426575,0.21807388,0.21553040,0.00000000
3.70848632,1265,3.10029792,-1.46978648,-2.73139199,0.00114441,0.61865902,0.39672852,3.10009920,-1.37080614,-2.73139481,0.10094057,0.62191391,0.39673077,3.09953498,-1.38738902,-2.88245400,0.10108948,0.69876767,0.39787292,-0.00488281,0.01464844,0.20996094,-0.02929688,-0.42480469,0.00000000,-2.79808044,0.21008089,0.21553040,-0.02441406
3.72423148,1270,3.09991645,-1.46787913,-2.73139199,0.00076294,0.61369992,0.39672852,3.10000758,-1.36935614,-2.73139291,0.10078421,0.61754285,0.39672925,3.09953498,-1.38662608,-2.87978371,0.10070801,0.69380856,0.39787292,-0.00488281,0.03906250,0.19042969,-0.01464844,-0.33691406,-0.01464844,-2.80113220,0.20404377,0.21553040,-0.02441406
3.73872495,1275,3.09991645,-1.46635325,-2.73139199,0.00076294,0.60874081,0.39672852,3.09994631,-1.36782388,-2.73139229,0.10073298,0.61272321,0.39672876,3.09953498,-1.38624461,-2.87673195,0.10070801,0.68770505,0.39787292,-0.00488281,0.02929688,0.19042969,-0.01464844,-0.35156250,-0.01464844,-2.80685425,0.19465562,0.21514893,-0.04882812
3.75076985,1280,3.10029792,-1.46482737,-2.73139199,0.00076294,0.60568905,0.39672852,3.10000253,-1.36623780,-2.73139209,0.10071619,0.60877721,0.39672859,3.09953498,-1.38586314,-2.87520607,0.10070801,0.68465329,0.39787292,-0.00488281,0.02929688,0.20019531,-0.01464844,-0.39550781,-0.01464844,-2.81066895,0.18533761,0.21514893,-0.04882812
3.76537347,1285,3.09991645,-1.46215708,-2.73139199,0.00076294,0.60149289,0.39672852,3.09994465,-1.36405120,-2.73139202,0.10071069,0.60455022,0.39672854,3.09953498,-1.38548167,-2.87215432,0.10108948,0.67702389,0.39787292,-0.00488281,0.00976562,0.22460938,-0.01464844,-0.46875000,-0.01464844,-2.81524658,0.17592784,0.21514893,-0.04882812
3.77856803,1290,3.09991645,-1.46063121,-2.73139199,0.00076294,0.59920407,0.39672852,3.09992569,-1.36199193,-2.73139200,0.10070889,0.60122933,0.39672852,3.09953498,-1.38548167,-2.86986550,0.10108948,0.67206479,0.39787292,-0.00976562,0.00488281,0.18554688,0.00000000,-0.41015625,-0.01464844,-2.81867981,0.16805123,0.21476746,-0.04882812
3.79056954,1295,3.09991645,-1.45757945,-2.73139199,0.00076294,0.59424496,0.39634705,3.09991947,-1.35959449,-2.73139199,0.10070830,0.59714542,0.39665222,3.09953498,-1.38510020,-2.86681374,0.10070801,0.66710568,0.39787292,-0.00488281,0.03417969,0.16601562,-0.01464844,-0.27832031,-0.01464844,-2.82478333,0.15825734,0.21438599,-0.04882812
3.80404043,1300,3.09991645,-1.45452769,-2.73139199,0.00076294,0.59004880,0.39672852,3.09996627,-1.35698614,-2.73139199,0.10070810,0.59332490,0.39670352,3.09953498,-1.38433726,-2.86490639,0.10108948,0.66290951,0.39787292,0.00000000,0.03417969,0.18066406,0.00000000,-0.29296875,-0.01464844,-2.82630920,0.15183225,0.21362305,-0.09765625
3.81743956,1305,3.10029792,-1.45147593,-2.73139199,0.00076294,0.58623410,0.39634705,3.10010916,-1.35379111,-2.73139199,0.10070804,0.58928076,0.39646385,3.09953498,-1.38395579,-2.86261757,0.10108948,0.65909482,0.39749146,-0.00488281,0.04882812,0.17578125,0.00000000,-0.32226562,-0.02929688,-2.82821655,0.14718367,0.20980835,-0.41503906
3.83267379,1310,3.10029792,-1.44766123,-2.73139199,0.00076294,0.58203793,0.39634705,3.10008714,-1.35045973,-2.73139199,0.10070802,0.58542444,0.39643415,3.09953498,-1.38357432,-2.85918434,0.10108948,0.65222836,0.39749146,-0.00488281,0.03417969,0.20507812,-0.02929688,-0.39550781,-0.02929688,-2.82974243,0.14328932,0.20179749,-0.56152344
3.84503698,1315,3.09991645,-1.44460948,-2.73139199,0.00076294,0.57860470,0.39672852,3.10003341,-1.34710248,-2.73139199,0.10070801,0.58155863,0.39663206,3.09953498,-1.38281138,-2.85765847,0.10070801,0.64803219,0.39749146,-0.00488281,0.04882812,0.18554688,-0.01464844,-0.41015625,-0.02929688,-2.82936096,0.14191874,0.19721985,-0.46386719
3.85775280,1320,3.10029792,-1.44079478,-2.73139199,0.00076294,0.57517148,0.39634705,3.10003107,-1.34358905,-2.73139199,0.10070801,0.57795485,0.39651075,3.09953498,-1.38204844,-2.85536965,0.10070801,0.64345456,0.39749146,-0.00488281,0.06347656,0.18066406,-0.02929688,-0.29296875,-0.01464844,-2.82974243,0.14136099,0.19340515,-0.41503906
3.87146497,1325,3.10029792,-1.43698008,-2.73139199,0.00076294,0.57250119,0.39634705,3.10003030,-1.33983547,-2.73139199,0.10070801,0.57490983,0.39650079,3.09953498,-1.38128550,-2.85384377,0.10070801,0.63925839,0.39749146,-0.00976562,0.06347656,0.16113281,0.00000000,-0.30761719,0.00000000,-2.82936096,0.14139331,0.18463135,-0.58593750
3.88502502,1330,3.09991645,-1.43316539,-2.73139199,0.00076294,0.56906796,0.39634705,3.09995375,-1.33616385,-2.73139199,0.10070801,0.57175810,0.39639742,3.09953498,-1.38014109,-2.85079201,0.10070801,0.63506222,0.39749146,-0.00976562,0.08300781,0.15625000,-0.01464844,-0.26367188,-0.01464844,-2.82936096,0.14148203,0.17738342,-0.48828125
3.89917827,1335,3.09991645,-1.42973216,-2.73139199,0.00076294,0.56601620,0.39634705,3.09992867,-1.33259831,-2.73139199,0.10070801,0.56858814,0.39636355,3.09953498,-1.37975962,-2.84850319,0.10108948,0.63124753,0.39749146,-0.00976562,0.04882812,0.17578125,-0.01464844,-0.30761719,-0.01464844,-2.82936096,0.14151110,0.17509460,-0.09765625
3.91294193,1340,3.09991645,-1.42591746,-2.73139199,0.00076294,0.56220151,0.39634705,3.09995951,-1.32905519,-2.73139199,0.10070801,0.56523715,0.39635246,3.09953498,-1.37823374,-2.84583290,0.10070801,0.62552548,0.39710999,-0.00488281,0.05859375,0.16601562,-0.01464844,-0.36621094,-0.01464844,-2.82936096,0.14152063,0.17395020,-0.14648438
3.92849183,1345,3.09991645,-1.42210276,-2.73139199,0.00076294,0.55838681,0.39634705,3.09993056,-1.32528066,-2.73139199,0.10070801,0.56149432,0.39634882,3.09953498,-1.37785227,-2.84354409,0.10070801,0.61942196,0.39710999,-0.00488281,0.04882812,0.15625000,-0.02929688,-0.30761719,-0.02929688,-2.82897949,0.14167634,0.17013550,-0.21972656
3.94228196,1350,3.09991645,-1.41905101,-2.73139199,0.00076294,0.55571652,0.39596558,3.09992107,-1.32209753,-2.73139199,0.10070801,0.55846819,0.39621030,3.09953498,-1.37670787,-2.84163674,0.10108948,0.61522580,0.39710999,-0.00976562,0.07324219,0.13671875,-0.01464844,-0.32226562,-0.01464844,-2.82859802,0.14224030,0.16937256,-0.09765625
3.95804977,1355,3.09991645,-1.41599925,-2.73139199,0.00076294,0.55304623,0.39596558,3.09995702,-1.31866825,-2.73139199,0.10070801,0.55527651,0.39615563,3.09953498,-1.37594493,-2.83934792,0.10108948,0.61141110,0.39710999,-0.00488281,0.03906250,0.17578125,0.00000000,-0.24902344,0.00000000,-2.82859802,0.14278545,0.16479492,-0.41503906
3.96936488,1360,3.09991645,-1.41332896,-2.73139199,0.00076294,0.55037594,0.39596558,3.09992974,-1.31551635,-2.73139199,0.10070801,0.55235139,0.39602785,3.09953498,-1.37480052,-2.83744057,0.10070801,0.60797787,0.39710999,-0.00488281,0.06347656,0.15136719,-0.01464844,-0.23437500,-0.01464844,-2.82821655,0.14341452,0.16098022,-0.29296875
3.98369527,1365,3.09991645,-1.41104014,-2.73139199,0.00076294,0.54694272,0.39596558,3.09996963,-1.31291493,-2.73139199,0.10070801,0.54935419,0.39602505,3.09953498,-1.37403758,-2.83591469,0.10070801,0.60492611,0.39710999,-0.00976562,0.04394531,0.16113281,-0.01464844,-0.21972656,-0.02929688,-2.82783508,0.14395782,0.15907288,-0.07324219
3.99940944,1370,3.09991645,-1.40913279,-2.73139199,0.00076294,0.54503537,0.39596558,3.09998270,-1.31062976,-2.73139199,0.10070801,0.54667126,0.39598506,3.09953498,-1.37289317,-2.83324440,0.10070801,0.60034848,0.39710999,-0.00488281,0.07324219,0.14648438,-0.01464844,-0.30761719,-0.01464844,-2.82630920,0.14598448,0.15869141,-0.07324219
4.01326013,1375,3.09991645,-1.40608103,-2.73139199,0.00076294,0.54236508,0.39596558,3.10004802,-1.30818027,-2.73139199,0.10070801,0.54431666,0.39597196,3.09953498,-1.37213023,-2.83171852,0.10070801,0.59653378,0.39710999,0.00000000,0.06347656,0.14160156,0.00000000,-0.27832031,-0.02929688,-2.82363892,0.15032020,0.15792847,-0.07324219
4.02624130,1380,3.09991645,-1.40455516,-2.73139199,0.00076294,0.54122067,0.39596558,3.09995956,-1.30618084,-2.73139199,0.10070801,0.54238555,0.39596767,3.09953498,-1.37060435,-2.82981118,0.10070801,0.59271908,0.39710999,-0.00488281,0.10253906,0.13183594,-0.01464844,-0.24902344,-0.01464844,-2.82325745,0.15237594,0.15640259,-0.14648438
4.04223943,1385,3.10029792,-1.40226634,-2.73139199,0.00076294,0.53893185,0.39596558,3.10000687,-1.30405717,-2.73139199,0.10070801,0.54053475,0.39596626,3.09953498,-1.36869700,-2.82790383,0.10070801,0.58737851,0.39672852,-0.00488281,0.10253906,0.14160156,-0.02929688,-0.26367188,-0.02929688,-2.82325745,0.15312769,0.15220642,-0.09765625
4.05600309,1390,3.09991645,-1.40112193,-2.73139199,0.00076294,0.53778744,0.39596558,3.09994608,-1.30240242,-2.73139199,0.10070801,0.53911835,0.39596580,3.09953498,-1.36831553,-2.82637795,0.10070801,0.58432675,0.39672852,-0.00488281,0.06835938,0.15625000,-0.01464844,-0.21972656,-0.02929688,-2.82325745,0.15353418,0.15220642,-0.04882812
4.06881547,1395,3.09991645,-1.40074046,-2.73139199,0.00076294,0.53702450,0.39596558,3.09998719,-1.30135323,-2.73139199,0.10070801,0.53774186,0.39596565,3.09953498,-1.36678965,-2.82408913,0.10070801,0.58127499,0.39672852,-0.00488281,0.06835938,0.14160156,-0.01464844,-0.16113281,0.00000000,-2.82249451,0.15419228,0.15220642,-0.02441406
4.08424211,1400,3.09991645,-1.39997752,-2.73139199,0.00076294,0.53664303,0.39596558,3.09993963,-1.30061563,-2.73139199,0.10070801,0.53700310,0.39596560,3.09953498,-1.36564524,-2.82218178,0.10070801,0.57936764,0.39672852,-0.00488281,0.09277344,0.14648438,0.00000000,-0.16113281,-0.02929688,-2.81982422,0.15700241,0.15220642,-0.02441406
4.09922934,1405,3.09991645,-1.39883311,-2.73139199,0.00076294,0.53740597,0.39596558,3.09992404,-1.29964359,-2.73139199,0.10070801,0.53697464,0.39596558,3.09953498,-1.36411936,-2.81989296,0.10070801,0.57555295,0.39672852,-0.00488281,0.06835938,0.13183594,0.00000000,-0.19042969,-0.01464844,-2.81410217,0.16367397,0.15220642,0.00000000
4.11648893,1410,3.09991645,-1.39845164,-2.73139199,0.00038147,0.53893185,0.39596558,3.09991894,-1.29887915,-2.73139199,0.10045154,0.53800878,0.39596558,3.09953498,-1.36259349,-2.81836708,0.10070801,0.57173825,0.39672852,-0.00488281,0.08300781,0.09277344,-0.02929688,-0.26367188,0.00000000,-2.81105042,0.17304370,0.15220642,-0.02441406
4.13114047,1415,3.09991645,-1.39730723,-2.73139199,0.00038147,0.54083920,0.39596558,3.09991726,-1.29804870,-2.73139199,0.10036750,0.53955040,0.39596558,3.09953498,-1.36106761,-2.81645974,0.10070801,0.56754208,0.39634705,-0.00488281,0.08789062,0.11230469,0.00000000,-0.24902344,0.00000000,-2.80609131,0.18237300,0.15258789,-0.02441406
4.14680243,1420,3.09991645,-1.39616282,-2.73139199,0.00000000,0.54312802,0.39596558,3.09991671,-1.29688803,-2.73139199,0.10015380,0.54166469,0.39596558,3.09953498,-1.35992320,-2.81531533,0.10070801,0.56525326,0.39634705,-0.00488281,0.09277344,0.11230469,-0.01464844,-0.20507812,-0.02929688,-2.80036926,0.19246396,0.15258789,0.02441406
4.16232181,1425,3.09991645,-1.39539988,-2.73139199,-0.00038147,0.54465390,0.39596558,3.09991653,-1.29599476,-2.73139199,0.09982731,0.54339266,0.39596558,3.09953498,-1.35877879,-2.81378945,0.10070801,0.56258297,0.39634705,-0.00488281,0.06347656,0.12695312,0.00000000,-0.14648438,-0.02929688,-2.79426575,0.20392194,0.15335083,0.04882812
4.17726064,1430,3.09991645,-1.39425547,-2.73139199,-0.00038147,0.54770566,0.39596558,3.09991647,-1.29505179,-2.73139199,0.09965001,0.54574110,0.39596558,3.09953498,-1.35725291,-2.81150063,0.10070801,0.56220151,0.39634705,-0.00488281,0.06347656,0.11718750,-0.02929688,0.02929688,-0.01464844,-2.78663635,0.21629270,0.15411377,0.07324219
4.19012070,1435,3.09991645,-1.39311106,-2.73139199,-0.00114441,0.54999447,0.39596558,3.09991646,-1.29400464,-2.73139199,0.09922937,0.54804946,0.39596558,3.09953498,-1.35648997,-2.80997475,0.10070801,0.56182004,0.39596558,-0.00488281,0.08300781,0.13671875,-0.02929688,-0.02929688,-0.01464844,-2.78282166,0.22725113,0.15754700,0.26855469
4.20440817,1440,3.09991645,-1.39196665,-2.73139199,-0.00190735,0.55266476,0.39596558,3.09991645,-1.29280420,-2.73139199,0.09852976,0.55076765,0.39596558,3.09953498,-1.35534556,-2.80844887,0.10070801,0.56143857,0.39596558,-0.00488281,0.04882812,0.11718750,-0.01464844,-0.02929688,-0.02929688,-2.77671814,0.23871797,0.16593933,0.58593750
4.22145677,1445,3.09991645,-1.39005931,-2.73139199,-0.00534058,0.55647946,0.39596558,3.09991645,-1.29131649,-2.73139199,0.09640098,0.55402725,0.39596558,3.09953498,-1.35381968,-2.80654152,0.10070801,0.56067563,0.39520264,-0.00488281,0.10742188,0.10742188,-0.02929688,-0.01464844,-0.05859375,-2.76794434,0.25310311,0.17700195,0.61035156
4.23888540,1450,3.09991645,-1.38891490,-2.73139199,-0.00801086,0.56067563,0.39596558,3.09991645,-1.28992042,-2.73139199,0.09379094,0.55755421,0.39596558,3.09953498,-1.35267527,-2.80539711,0.10070801,0.56067563,0.39329529,-0.00488281,0.09277344,0.07812500,-0.02929688,-0.00000000,-0.16113281,-2.75688171,0.27066864,0.18005371,0.21972656
4.25359344,1455,3.09991645,-1.38700755,-2.73139199,-0.00801086,0.56449032,0.39596558,3.09991645,-1.28854878,-2.73139199,0.09268373,0.56117453,0.39596558,3.09953498,-1.35114939,-2.80387123,0.10032654,0.56029416,0.39329529,-0.00488281,0.06347656,0.11718750,-0.04394531,-0.01464844,-0.02929688,-2.74734497,0.28826126,0.19073486,0.68359375
4.26939774,1460,3.09991645,-1.38548167,-2.73139199,-0.00915527,0.56868649,0.39596558,3.09991645,-1.28692451,-2.73139199,0.09174097,0.56529040,0.39596558,3.09953498,-1.34962352,-2.80196389,0.09994507,0.55991269,0.39329529,-0.00488281,0.07324219,0.11718750,0.00000000,0.01464844,0.00000000,-2.73704529,0.30817822,0.20484924,0.83007812
4.28586221,1465,3.09991645,-1.38395579,-2.73139199,-0.01182556,0.57250119,0.39596558,3.09991645,-1.28535711,-2.73139199,0.09006742,0.56934588,0.39596558,3.09953498,-1.34809764,-2.80043801,0.09956360,0.56029416,0.39329529,-0.00976562,0.09765625,0.11230469,-0.05859375,0.04394531,-0.01464844,-2.72789001,0.32755462,0.21514893,0.73242188
4.30132771,1470,3.09991645,-1.38281138,-2.73139199,-0.01487732,0.57631589,0.39596558,3.09991645,-1.28393299,-2.73139199,0.08749852,0.57310812,0.39596558,3.09953498,-1.34733470,-2.79929360,0.09841919,0.56067563,0.39329529,-0.00488281,0.07324219,0.08789062,-0.10253906,0.05859375,0.00000000,-2.71644592,0.34728371,0.22430420,0.65917969
4.31530046,1475,3.09991645,-1.38128550,-2.73139199,-0.01678467,0.57936764,0.39596558,3.09991645,-1.28252053,-2.73139199,0.08498279,0.57658508,0.39596558,3.09953498,-1.34580882,-2.79776772,0.09574890,0.56105710,0.39329529,-0.00488281,0.06347656,0.07812500,-0.14648438,0.02929688,0.00000000,-2.70614624,0.36728371,0.23994446,0.90332031
4.32941151,1480,3.09991645,-1.38052256,-2.73139199,-0.01754761,0.58165646,0.39596558,3.09991645,-1.28142561,-2.73139199,0.08349511,0.57947465,0.39596558,3.09953498,-1.34466441,-2.79662331,0.09422302,0.56105710,0.39329529,0.00000000,0.09277344,0.09277344,-0.14648438,0.01464844,-0.02929688,-2.69699097,0.38728371,0.24871826,0.75683594
