MingxuanLei/DMarm_date_collection/data/episode_03/trajectory/teach_record_20260628_204948.csv
time_s,loop_count,master_q1,master_q2,master_q3,master_q4,master_q5,master_q6,slave_target_q1,slave_target_q2,slave_target_q3,slave_target_q4,slave_target_q5,slave_target_q6,slave_actual_q1,slave_actual_q2,slave_actual_q3,slave_actual_q4,slave_actual_q5,slave_actual_q6,slave_actual_v1,slave_actual_v2,slave_actual_v3,slave_actual_v4,slave_actual_v5,slave_actual_v6,master_tool,slave_tool_target,slave_tool_actual,slave_tool_actual_vel
0.02491474,5,3.09991645,-1.78106578,-3.13384255,-0.01373291,1.57309628,0.25367737,3.09979145,-1.62063060,-3.11917673,-0.00895703,1.56886142,0.25230237,3.09953498,-1.59986766,-3.09951027,-0.00038147,1.56050778,0.24948120,-0.00488281,-0.00488281,0.00488281,0.00000000,0.01464844,0.00000000,-2.97889709,-0.11943860,-0.11558533,-0.02441406
0.04106832,10,3.09991645,-1.78106578,-3.13384255,-0.01602173,1.57309628,0.25367737,3.09987549,-1.64063060,-3.12903685,-0.01333567,1.57167735,0.25322681,3.09953498,-1.59986766,-3.09951027,-0.00038147,1.56050778,0.24948120,0.00000000,-0.00976562,-0.00000000,-0.02929688,0.02929688,-0.01464844,-2.97927856,-0.12071320,-0.11558533,-0.02441406
0.05588245,15,3.09991645,-1.78106578,-3.13384255,-0.01678467,1.57271481,0.25367737,3.09990302,-1.66063060,-3.13226782,-0.01550411,1.57248472,0.25352973,3.09953498,-1.59986766,-3.09989174,-0.00076294,1.56050778,0.24948120,-0.00488281,-0.00488281,-0.00976562,-0.02929688,0.01464844,-0.01464844,-2.97927856,-0.12130664,-0.11596680,-0.07324219
0.07292533,20,3.09991645,-1.78106578,-3.13384255,-0.01831055,1.57271481,0.25367737,3.09991205,-1.68063060,-3.13332654,-0.01699006,1.57272731,0.25362899,3.09953498,-1.60024913,-3.10027321,-0.00114441,1.56165219,0.24948120,-0.00488281,-0.03906250,-0.03906250,-0.05859375,0.07324219,-0.01464844,-2.97927856,-0.12140345,-0.11558533,-0.02441406
0.08854699,25,3.09991645,-1.78068431,-3.13384255,-0.01945496,1.57271481,0.25367737,3.09991501,-1.70063060,-3.13367346,-0.01842655,1.57278922,0.25366152,3.09953498,-1.60101206,-3.10103615,-0.00190735,1.56241513,0.24948120,-0.00976562,-0.04882812,-0.03417969,-0.07324219,0.08789062,-0.01464844,-2.97889709,-0.12126696,-0.11558533,0.00000000
0.10090566,30,3.09991645,-1.77953990,-3.13384255,-0.02059937,1.57271481,0.25367737,3.09991597,-1.72063060,-3.13378714,-0.01960564,1.57273919,0.25367217,3.09953498,-1.60253794,-3.10141762,-0.00305176,1.56317807,0.24986267,-0.00488281,-0.12695312,-0.01953125,-0.08789062,0.07324219,0.00000000,-2.97927856,-0.12155060,-0.11558533,-0.02441406
0.11571717,35,3.09991645,-1.77763255,-3.13384255,-0.02136230,1.57271481,0.25405884,3.09991629,-1.74063060,-3.13382439,-0.02053619,1.57272280,0.25375196,3.09953498,-1.60444529,-3.10179909,-0.00381470,1.56355954,0.24986267,-0.00488281,-0.14160156,-0.01953125,-0.05859375,0.02929688,0.00000000,-2.97927856,-0.12164354,-0.11596680,-0.04882812
0.12883711,40,3.09991645,-1.77648814,-3.13384255,-0.02212524,1.57271481,0.25367737,3.09991640,-1.76063060,-3.13383660,-0.02150298,1.57275649,0.25378189,3.09953498,-1.60673411,-3.10218056,-0.00419617,1.56394101,0.24986267,-0.00488281,-0.18554688,-0.01953125,-0.04394531,0.04394531,0.00000000,-2.97889709,-0.12139934,-0.11596680,0.00000000
0.14601183,45,3.09991645,-1.77534373,-3.13384255,-0.02288818,1.57271481,0.25367737,3.09991643,-1.77113935,-3.13384060,-0.02225410,1.57283833,0.25371162,3.09953498,-1.61093028,-3.10294350,-0.00534058,1.56508542,0.24986267,-0.00488281,-0.22460938,-0.04394531,-0.07324219,0.05859375,0.00000000,-2.97737122,-0.12025096,-0.11596680,-0.04882812
0.16052628,50,3.09991645,-1.77343638,-3.13384255,-0.02288818,1.57271481,0.25367737,3.09991644,-1.77344114,-3.13384191,-0.02268041,1.57275529,0.25371984,3.09953498,-1.61436351,-3.10370644,-0.00686646,1.56584836,0.24986267,-0.00488281,-0.24902344,-0.03906250,-0.13183594,0.05859375,-0.02929688,-2.97660828,-0.11783023,-0.11634827,-0.04882812
0.17569876,55,3.09991645,-1.77114756,-3.13384255,-0.02288818,1.57271481,0.25367737,3.09991644,-1.77251692,-3.13384234,-0.02282010,1.57272807,0.25369129,3.09991645,-1.61855967,-3.10485085,-0.00915527,1.56622983,0.24986267,-0.00488281,-0.26855469,-0.05859375,-0.14648438,0.05859375,-0.01464844,-2.97660828,-0.11683388,-0.11596680,-0.02441406
0.19148517,60,3.09991645,-1.76962168,-3.13384255,-0.02288818,1.57271481,0.25367737,3.09991645,-1.77100851,-3.13384248,-0.02298501,1.57271916,0.25368193,3.09953498,-1.62161143,-3.10561379,-0.01106262,1.56737423,0.24986267,-0.00488281,-0.26367188,-0.04882812,-0.16113281,0.10253906,-0.01464844,-2.97660828,-0.11650739,-0.11634827,-0.04882812
0.20681596,65,3.09991645,-1.76695140,-3.13384255,-0.02288818,1.57271481,0.25367737,3.09991645,-1.76890693,-3.13384253,-0.02296874,1.57271624,0.25367886,3.09953498,-1.62618907,-3.10637673,-0.01220703,1.56813717,0.24986267,-0.00976562,-0.24414062,-0.04882812,-0.08789062,0.07324219,-0.01464844,-2.97660828,-0.11640041,-0.11596680,-0.02441406
0.22059631,70,3.09991645,-1.76389964,-3.13384255,-0.02288818,1.57271481,0.25367737,3.09991645,-1.76642629,-3.13384254,-0.02297562,1.57271528,0.25367786,3.09953498,-1.62885936,-3.10713967,-0.01296997,1.56928158,0.24986267,-0.00488281,-0.23437500,-0.03906250,-0.07324219,0.10253906,-0.01464844,-2.97660828,-0.11636535,-0.11634827,-0.04882812
0.23436046,75,3.09991645,-1.76161082,-3.13384255,-0.02326965,1.57271481,0.25367737,3.09991645,-1.76375382,-3.13384255,-0.02312448,1.57271496,0.25367753,3.09953498,-1.63191111,-3.10752114,-0.01335144,1.56966305,0.25024414,-0.00488281,-0.20019531,-0.02441406,-0.02929688,0.07324219,-0.01464844,-2.97660828,-0.11635387,-0.11634827,-0.04882812
0.24894428,80,3.09991645,-1.75855906,-3.13384255,-0.02326965,1.57271481,0.25367737,3.09991645,-1.76116912,-3.13384255,-0.02322208,1.57271486,0.25367742,3.09953498,-1.63458140,-3.10828408,-0.01373291,1.57042599,0.25024414,-0.00488281,-0.17089844,-0.02441406,-0.05859375,0.05859375,-0.01464844,-2.97660828,-0.11635010,-0.11634827,-0.04882812
0.26538301,85,3.09991645,-1.75588877,-3.13384255,-0.02326965,1.57271481,0.25367737,3.09991645,-1.75855373,-3.13384255,-0.02325406,1.57271483,0.25367739,3.09953498,-1.63610728,-3.10866555,-0.01411438,1.57118893,0.25024414,-0.00488281,-0.14160156,-0.03417969,-0.04394531,0.08789062,-0.01464844,-2.97660828,-0.11634887,-0.11634827,0.00000000
0.27804589,90,3.09991645,-1.75321849,-3.13384255,-0.02326965,1.57271481,0.25367737,3.09991645,-1.75580573,-3.13384255,-0.02326455,1.57271482,0.25367737,3.09953498,-1.63801463,-3.10904702,-0.01487732,1.57195187,0.25024414,-0.00488281,-0.13183594,-0.01464844,-0.04394531,0.04394531,0.00000000,-2.97660828,-0.11634846,-0.11634827,-0.04882812
0.29323864,95,3.09991645,-1.75016673,-3.13384255,-0.02365112,1.57271481,0.25367737,3.09991645,-1.75287108,-3.13384255,-0.02349320,1.57277585,0.25367737,3.09953498,-1.63954051,-3.10904702,-0.01525879,1.57157040,0.25024414,-0.00488281,-0.12207031,-0.00976562,-0.05859375,-0.00000000,-0.01464844,-2.97660828,-0.11634833,-0.11634827,-0.02441406
0.30940437,100,3.09991645,-1.74711497,-3.13384255,-0.02403259,1.57271481,0.25367737,3.09991645,-1.74980106,-3.13384255,-0.02382459,1.57279585,0.25367737,3.09953498,-1.64144786,-3.10942849,-0.01640320,1.57118893,0.25062561,-0.00488281,-0.12695312,-0.00000000,-0.10253906,-0.00000000,-0.01464844,-2.97660828,-0.11634829,-0.11634827,-0.02441406
0.32363677,105,3.09991645,-1.74330027,-3.13384255,-0.02441406,1.57271481,0.25367737,3.09991645,-1.74643985,-3.13384255,-0.02418966,1.57274136,0.25367737,3.09953498,-1.64373667,-3.10942849,-0.01831055,1.57157040,0.25062561,0.00000000,-0.13671875,-0.01953125,-0.11718750,0.02929688,0.00000000,-2.97660828,-0.11628577,-0.11634827,-0.02441406
0.34142494,110,3.09991645,-1.73986705,-3.13384255,-0.02517700,1.57271481,0.25367737,3.09991645,-1.74296919,-3.13384255,-0.02470308,1.57276257,0.25371643,3.09953498,-1.64640696,-3.11019142,-0.01945496,1.57157040,0.25100708,-0.00488281,-0.14648438,-0.03417969,-0.05859375,0.02929688,0.01464844,-2.97660828,-0.11632779,-0.11672974,-0.04882812
0.35769010,115,3.09991645,-1.73605235,-3.13384255,-0.02632141,1.57271481,0.25367737,3.09991645,-1.73943812,-3.13384255,-0.02560166,1.57273046,0.25369017,3.09953498,-1.64869578,-3.11095436,-0.02021790,1.57157040,0.25100708,-0.00488281,-0.14160156,-0.03417969,-0.04394531,0.01464844,0.00000000,-2.97660828,-0.11634156,-0.11672974,-0.02441406
0.37588739,120,3.09991645,-1.73223765,-3.13384255,-0.02708435,1.57271481,0.25405884,3.09991645,-1.73559429,-3.13384255,-0.02652819,1.57271994,0.25375786,3.09953498,-1.65098460,-3.11171730,-0.01983643,1.57157040,0.25138855,-0.00488281,-0.16113281,-0.04882812,0.01464844,-0.00000000,0.00000000,-2.97660828,-0.11628357,-0.11634827,-0.02441406
0.38989162,125,3.09991645,-1.72804148,-3.13384255,-0.02784729,1.57271481,0.25367737,3.09991645,-1.73156485,-3.13384255,-0.02723487,1.57271649,0.25376478,3.09953498,-1.65327342,-3.11248024,-0.01983643,1.57195187,0.25177002,0.00000000,-0.15136719,-0.03906250,0.00000000,0.04394531,0.01464844,-2.97660828,-0.11610734,-0.11634827,-0.02441406
0.40344882,130,3.09991645,-1.72498973,-3.13384255,-0.02822876,1.57271481,0.25367737,3.09991645,-1.72792075,-3.13384255,-0.02778394,1.57271536,0.25370601,3.09953498,-1.65479930,-3.11286171,-0.01983643,1.57233334,0.25177002,0.00000000,-0.13183594,-0.01953125,-0.01464844,0.05859375,0.00000000,-2.97660828,-0.11626932,-0.11634827,-0.02441406
0.41779947,135,3.09991645,-1.72155650,-3.13384255,-0.02937317,1.57271481,0.25367737,3.09991645,-1.72456882,-3.13384255,-0.02870202,1.57271499,0.25371800,3.09953498,-1.65670665,-3.11324318,-0.02021790,1.57271481,0.25215149,-0.00488281,-0.12207031,-0.03417969,-0.04394531,0.04394531,0.01464844,-2.97660828,-0.11632240,-0.11672974,-0.04882812
0.43157578,140,3.09991645,-1.71774180,-3.13384255,-0.03051758,1.57271481,0.25367737,3.09991645,-1.72108593,-3.13384255,-0.02973320,1.57271487,0.25369068,3.09953498,-1.65861399,-3.11362465,-0.02059937,1.57309628,0.25215149,-0.00976562,-0.09765625,-0.01953125,-0.05859375,0.05859375,-0.01464844,-2.97622681,-0.11598701,-0.11634827,-0.02441406
0.44606686,145,3.09991645,-1.71354563,-3.13384255,-0.03089905,1.57271481,0.25367737,3.09991645,-1.71753267,-3.13384255,-0.03039788,1.57271483,0.25368173,3.09953498,-1.65937693,-3.11400612,-0.02136230,1.57385922,0.25215149,-0.00488281,-0.07812500,-0.02441406,-0.04394531,0.05859375,-0.02929688,-2.97622681,-0.11571695,-0.11672974,-0.07324219
0.45994616,150,3.09991645,-1.71049388,-3.13384255,-0.03128052,1.57271481,0.25367737,3.09991645,-1.71357830,-3.13384255,-0.03099130,1.57271482,0.25367880,3.09953498,-1.66052134,-3.11438759,-0.02174377,1.57424069,0.25215149,-0.00488281,-0.07324219,-0.02441406,-0.07324219,0.04394531,-0.01464844,-2.97622681,-0.11562846,-0.11672974,-0.04882812
0.47474861,155,3.09991645,-1.70667918,-3.13384255,-0.03166199,1.57271481,0.25367737,3.09991645,-1.70977887,-3.13384255,-0.03144222,1.57271481,0.25367784,3.09953498,-1.66128428,-3.11476906,-0.02250671,1.57424069,0.25215149,-0.00488281,-0.06347656,-0.00976562,-0.08789062,0.01464844,-0.01464844,-2.97622681,-0.11559946,-0.11634827,-0.02441406
0.49106550,160,3.09991645,-1.70210154,-3.13384255,-0.03166199,1.57233334,0.25405884,3.09991645,-1.70580634,-3.13384255,-0.03158997,1.57249740,0.25381485,3.09953498,-1.66204722,-3.11476906,-0.02326965,1.57385922,0.25253296,-0.00488281,-0.04394531,-0.00488281,-0.05859375,-0.00000000,0.00000000,-2.97622681,-0.11558996,-0.11634827,0.00000000
0.50397468,165,3.09991645,-1.69904978,-3.13384255,-0.03166199,1.57195187,0.25405884,3.09991645,-1.70211057,-3.13384255,-0.03163839,1.57216188,0.25379871,3.09953498,-1.66281016,-3.11476906,-0.02365112,1.57385922,0.25253296,-0.00488281,-0.04394531,-0.00000000,-0.04394531,0.01464844,-0.01464844,-2.97622681,-0.11558684,-0.11672974,-0.02441406
0.52003551,170,3.09991645,-1.69447215,-3.13384255,-0.03166199,1.57195187,0.25405884,3.09991645,-1.69800355,-3.13384255,-0.03165425,1.57202069,0.25383249,3.09953498,-1.66319163,-3.11515053,-0.02441406,1.57385922,0.25253296,-0.00976562,-0.04394531,-0.01464844,-0.07324219,-0.00000000,-0.01464844,-2.97622681,-0.11546375,-0.11634827,-0.02441406
0.53549719,175,3.09991645,-1.69027598,-3.13384255,-0.03166199,1.57157040,0.25367737,3.09991645,-1.69404655,-3.13384255,-0.03165945,1.57171795,0.25372820,3.09953498,-1.66395457,-3.11553200,-0.02593994,1.57385922,0.25253296,0.00000000,-0.04394531,-0.01953125,-0.13183594,0.01464844,-0.01464844,-2.97622681,-0.11532576,-0.11634827,-0.02441406
0.55027723,180,3.09991645,-1.68684275,-3.13384255,-0.03166199,1.57042599,0.25367737,3.09991645,-1.69009892,-3.13384255,-0.03166116,1.57099973,0.25372527,3.09953498,-1.66471751,-3.11629494,-0.02708435,1.57347775,0.25253296,-0.00488281,-0.05371094,-0.02929688,-0.10253906,-0.00000000,-0.01464844,-2.97584534,-0.11517190,-0.11634827,-0.04882812
0.56605458,185,3.09991645,-1.68188365,-3.13384255,-0.03166199,1.56775570,0.25367737,3.09991645,-1.68599860,-3.13384255,-0.03166172,1.56949205,0.25372432,3.09953498,-1.66509898,-3.11667641,-0.02746582,1.57347775,0.25253296,-0.00488281,-0.04882812,-0.01464844,0.00000000,-0.00000000,-0.01464844,-2.97584534,-0.11499942,-0.11634827,0.00000000
0.57804012,190,3.09991645,-1.67883189,-3.13384255,-0.03166199,1.56622983,0.25367737,3.09991645,-1.68211644,-3.13384255,-0.03166190,1.56772652,0.25374158,3.09953498,-1.66586192,-3.11705788,-0.02746582,1.57347775,0.25253296,-0.00488281,-0.06347656,-0.02441406,-0.01464844,0.01464844,-0.01464844,-2.97584534,-0.11488040,-0.11672974,-0.07324219
0.59225583,195,3.09991645,-1.67501719,-3.13384255,-0.03166199,1.56470395,0.25367737,3.09991645,-1.67826498,-3.13384255,-0.03166196,1.56597612,0.25383952,3.09953498,-1.66662486,-3.11743935,-0.02746582,1.57347775,0.25291443,-0.00976562,-0.05859375,-0.02441406,0.00000000,0.02929688,0.01464844,-2.97546387,-0.11468881,-0.11634827,0.00000000
0.60612130,200,3.09991645,-1.67082102,-3.13384255,-0.03128052,1.56279660,0.25367737,3.09991645,-1.67437513,-3.13384255,-0.03146654,1.56402792,0.25376957,3.09953498,-1.66662486,-3.11782082,-0.02746582,1.57385922,0.25291443,-0.00488281,-0.03417969,-0.02441406,-0.01464844,0.02929688,0.00000000,-2.97584534,-0.11457842,-0.11672974,-0.04882812
0.62035656,205,3.09991645,-1.66700633,-3.13384255,-0.03128052,1.56088925,0.25367737,3.09991645,-1.67053043,-3.13384255,-0.03134147,1.56241870,0.25373883,3.09953498,-1.66738780,-3.11820229,-0.02784729,1.57347775,0.25291443,-0.00488281,-0.03417969,-0.02929688,-0.04394531,-0.00000000,-0.01464844,-2.97546387,-0.11422951,-0.11634827,-0.02441406
0.63459396,210,3.09991645,-1.66204722,-3.13384255,-0.03128052,1.55860043,0.25405884,3.09991645,-1.66598240,-3.13384255,-0.03130049,1.56026176,0.25386609,3.09953498,-1.66738780,-3.11858376,-0.02822876,1.57347775,0.25291443,0.00000000,-0.01953125,-0.01464844,-0.05859375,-0.00000000,-0.01464844,-2.97546387,-0.11403705,-0.11634827,-0.02441406
0.65152121,215,3.09991645,-1.65823252,-3.13384255,-0.03128052,1.55593014,0.25367737,3.09991645,-1.66161050,-3.13384255,-0.03128706,1.55783000,0.25380952,3.09953498,-1.66776927,-3.11858376,-0.02861023,1.57271481,0.25291443,-0.00488281,-0.00976562,-0.00000000,-0.04394531,-0.01464844,-0.01464844,-2.97546387,-0.11397398,-0.11634827,0.00000000
0.66666937,220,3.09991645,-1.65289195,-3.13384255,-0.03128052,1.55211545,0.25405884,3.09991645,-1.65679877,-3.13384255,-0.03128266,1.55460957,0.25384579,3.09953498,-1.66776927,-3.11896523,-0.02899170,1.57233334,0.25291443,-0.00488281,-0.00976562,-0.01464844,-0.05859375,-0.01464844,0.00000000,-2.97508240,-0.11359663,-0.11634827,-0.02441406
0.67887235,225,3.09991645,-1.64869578,-3.13384255,-0.03128052,1.55020810,0.25367737,3.09991645,-1.65250148,-3.13384255,-0.03128122,1.55193211,0.25383266,3.09953498,-1.66776927,-3.11896523,-0.02899170,1.57118893,0.25291443,-0.00976562,-0.00488281,-0.01464844,-0.05859375,-0.04394531,-0.02929688,-2.97508240,-0.11347298,-0.11634827,-0.02441406
0.69317818,230,3.09991645,-1.64411814,-3.13384255,-0.03128052,1.54830075,0.25405884,3.09991645,-1.64826180,-3.13384255,-0.03128075,1.54975044,0.25386558,3.09953498,-1.66776927,-3.11934670,-0.02937317,1.57042599,0.25291443,-0.00488281,-0.00488281,-0.00976562,-0.01464844,-0.07324219,-0.01464844,-2.97470093,-0.11298202,-0.11634827,0.00000000
0.70910287,235,3.09991645,-1.64068492,-3.13384255,-0.03128052,1.54715634,0.25405884,3.09991645,-1.64430846,-3.13384255,-0.03128059,1.54825686,0.25384659,3.09953498,-1.66738780,-3.11934670,-0.02975464,1.56775570,0.25291443,-0.00976562,0.00488281,-0.00976562,-0.04394531,-0.20507812,0.00000000,-2.97470093,-0.11246079,-0.11634827,-0.04882812
0.72293377,240,3.09991645,-1.63687022,-3.13384255,-0.03128052,1.54524899,0.25367737,3.09991645,-1.64031259,-3.13384255,-0.03128054,1.54656518,0.25373282,3.09953498,-1.66738780,-3.11972817,-0.02975464,1.56470395,0.25291443,0.00000000,0.00488281,-0.01953125,-0.02929688,-0.20507812,0.00000000,-2.97355652,-0.11147188,-0.11634827,-0.02441406
0.73867035,245,3.09991645,-1.63305552,-3.13384255,-0.03128052,1.54372311,0.25367737,3.09991645,-1.63628032,-3.13384255,-0.03128053,1.54487510,0.25372679,3.09953498,-1.66700633,-3.12049111,-0.02975464,1.56394101,0.25291443,0.00000000,0.01464844,-0.01953125,-0.01464844,0.01464844,-0.01464844,-2.97012329,-0.10735169,-0.11634827,-0.02441406
0.75359058,250,3.09991645,-1.62885936,-3.13384255,-0.03128052,1.54257870,0.25367737,3.09991645,-1.63255876,-3.13384255,-0.03128052,1.54358168,0.25376387,3.09953498,-1.66662486,-3.12087258,-0.02975464,1.56241513,0.25291443,0.00000000,0.02441406,-0.01953125,-0.02929688,-0.10253906,-0.01464844,-2.96897888,-0.10364246,-0.11634827,-0.02441406
0.76965642,255,3.09991645,-1.62542613,-3.13384255,-0.03166199,1.54067135,0.25367737,3.09991645,-1.62884355,-3.13384255,-0.03135681,1.54201807,0.25376675,3.09953498,-1.66624339,-3.12087258,-0.02975464,1.56165219,0.25291443,-0.00488281,0.01953125,-0.00976562,-0.01464844,-0.01464844,-0.01464844,-2.96401978,-0.09758497,-0.11634827,-0.02441406
0.78292632,260,3.09991645,-1.62351878,-3.13384255,-0.03128052,1.53876401,0.25367737,3.09991645,-1.62581108,-3.13384255,-0.03137583,1.54012131,0.25370666,3.09953498,-1.66586192,-3.12125405,-0.02975464,1.56088925,0.25291443,-0.00488281,0.03906250,-0.00488281,-0.02929688,-0.07324219,-0.01464844,-2.96440125,-0.09378585,-0.11634827,-0.02441406
0.79608011,265,3.09991645,-1.62122996,-3.13384255,-0.03128052,1.53685666,0.25367737,3.09991645,-1.62344656,-3.13384255,-0.03131175,1.53829751,0.25368697,3.09953498,-1.66471751,-3.12125405,-0.02975464,1.56012631,0.25291443,0.00000000,0.06835938,-0.00976562,-0.01464844,0.02929688,0.00000000,-2.96401978,-0.09216864,-0.11596680,-0.02441406
0.81249571,270,3.09991645,-1.61817820,-3.13384255,-0.03128052,1.53418637,0.25367737,3.09991645,-1.62068103,-3.13384255,-0.03129075,1.53616339,0.25374155,3.09953498,-1.66395457,-3.12125405,-0.03013611,1.55936337,0.25291443,-0.00488281,0.03417969,-0.00000000,-0.01464844,-0.05859375,-0.01464844,-2.96401978,-0.09149808,-0.11558533,-0.02441406
0.82677507,275,3.09991645,-1.61665232,-3.13384255,-0.03128052,1.53189755,0.25367737,3.09991645,-1.61841056,-3.13384255,-0.03128387,1.53377634,0.25374723,3.09953498,-1.66281016,-3.12163552,-0.03013611,1.55783749,0.25291443,-0.00488281,0.05859375,-0.00000000,-0.01464844,-0.10253906,-0.01464844,-2.96401978,-0.09118070,-0.11558533,-0.04882812
0.84188414,280,3.09991645,-1.61512644,-3.13384255,-0.03128052,1.52884579,0.25405884,3.09991645,-1.61674079,-3.13384255,-0.03139148,1.53113477,0.25381562,3.09953498,-1.66204722,-3.12201699,-0.03013611,1.55593014,0.25291443,-0.00488281,0.04882812,-0.01953125,-0.01464844,-0.07324219,-0.02929688,-2.96401978,-0.09117436,-0.11482239,0.04882812
0.85602379,285,3.09991645,-1.61398204,-3.13384255,-0.03128052,1.52655697,0.25367737,3.09991645,-1.61520499,-3.13384255,-0.03131688,1.52834023,0.25372267,3.09953498,-1.66090281,-3.12201699,-0.03013611,1.55478573,0.25291443,-0.00488281,0.06347656,-0.01464844,-0.02929688,-0.05859375,-0.01464844,-2.96401978,-0.09117228,-0.11444092,0.04882812
0.86998725,290,3.09991645,-1.61321910,-3.13384255,-0.03166199,1.52350522,0.25367737,3.09991645,-1.61424545,-3.13384255,-0.03136873,1.52564082,0.25373127,3.09953498,-1.66013987,-3.12239846,-0.03051758,1.55287839,0.25291443,-0.00976562,0.04394531,0.00488281,-0.02929688,-0.14648438,0.00000000,-2.96401978,-0.09117160,-0.11367798,0.02441406
0.88456297,295,3.09991645,-1.61245616,-3.13384255,-0.03128052,1.51930905,0.25367737,3.09991645,-1.61347912,-3.13384255,-0.03130942,1.52222515,0.25369503,3.09953498,-1.65937693,-3.12239846,-0.03051758,1.55020810,0.25291443,-0.00976562,0.05371094,0.00976562,-0.01464844,-0.16113281,-0.01464844,-2.96401978,-0.09117137,-0.10948181,0.31738281
0.90214658,300,3.09991645,-1.61245616,-3.13384255,-0.03128052,1.51663876,0.25367737,3.09991645,-1.61304783,-3.13384255,-0.03128999,1.51897175,0.25373198,3.09953498,-1.65861399,-3.12239846,-0.03051758,1.54791928,0.25291443,-0.00488281,0.03906250,-0.00000000,-0.01464844,-0.13183594,0.00000000,-2.96401978,-0.09117130,-0.10871887,0.02441406
0.91627479,305,3.09991645,-1.61245616,-3.13384255,-0.03128052,1.51206112,0.25367737,3.09991645,-1.61290651,-3.13384255,-0.03128362,1.51538712,0.25369526,3.09953498,-1.65746958,-3.12277993,-0.03051758,1.54486752,0.25291443,-0.00488281,0.06347656,-0.01953125,-0.02929688,-0.16113281,-0.01464844,-2.96401978,-0.09117128,-0.10757446,0.07324219
0.92940760,310,3.09991645,-1.61245616,-3.13384255,-0.03128052,1.50900937,0.25367737,3.09991645,-1.61286020,-3.13384255,-0.03128153,1.51184288,0.25368323,3.09953498,-1.65670665,-3.12316140,-0.03051758,1.54219723,0.25291443,-0.00976562,0.04394531,-0.01464844,-0.01464844,-0.19042969,-0.01464844,-2.96401978,-0.09117127,-0.10223389,0.19531250
0.94202924,315,3.09991645,-1.61245616,-3.13384255,-0.03128052,1.50519467,0.25367737,3.09991645,-1.61284502,-3.13384255,-0.03128085,1.50806359,0.25367929,3.09953498,-1.65594371,-3.12316140,-0.03051758,1.53952694,0.25291443,-0.00488281,0.05859375,-0.00488281,-0.02929688,-0.19042969,-0.02929688,-2.96401978,-0.09140955,-0.09994507,0.17089844
0.95593882,320,3.09991645,-1.61245616,-3.13384255,-0.03128052,1.50061703,0.25367737,3.09991645,-1.61284005,-3.13384255,-0.03128063,1.50400927,0.25367800,3.09953498,-1.65518077,-3.12354287,-0.03051758,1.53723813,0.25291443,-0.00488281,0.05859375,-0.01953125,-0.02929688,-0.13183594,-0.01464844,-2.96401978,-0.09124935,-0.09880066,0.00000000
0.97084713,325,3.09991645,-1.61245616,-3.13384255,-0.03089905,1.49680234,0.25367737,3.09991645,-1.61283842,-3.13384255,-0.03114322,1.49992660,0.25367757,3.09953498,-1.65479930,-3.12392433,-0.03051758,1.53609372,0.25291443,-0.00488281,0.01953125,-0.02929688,-0.01464844,-0.08789062,-0.01464844,-2.96401978,-0.09119685,-0.09880066,-0.02441406
0.98623276,330,3.09991645,-1.61245616,-3.13384255,-0.03089905,1.49298764,0.25367737,3.09991645,-1.61283789,-3.13384255,-0.03097906,1.49596550,0.25367744,3.09953498,-1.65365489,-3.12430580,-0.03051758,1.53342343,0.25291443,0.00000000,0.05859375,-0.00000000,-0.01464844,-0.11718750,-0.01464844,-2.96440125,-0.09155196,-0.09880066,-0.02441406
0.99911427,335,3.09991645,-1.61245616,-3.13384255,-0.03089905,1.49108029,0.25367737,3.09991645,-1.61283771,-3.13384255,-0.03092527,1.49308195,0.25367739,3.09953498,-1.65289195,-3.12430580,-0.03051758,1.53113461,0.25291443,-0.00488281,0.02929688,-0.00000000,0.00000000,-0.13183594,-0.02929688,-2.96401978,-0.09147179,-0.09841919,0.00000000
1.01397038,340,3.09991645,-1.61245616,-3.13384255,-0.03089905,1.48802853,0.25405884,3.09991645,-1.61283765,-3.13384255,-0.03090764,1.49030455,0.25381470,3.09953498,-1.65212901,-3.12430580,-0.03089905,1.52922726,0.25291443,-0.00488281,0.05859375,-0.00000000,-0.01464844,-0.11718750,-0.01464844,-2.96401978,-0.09142990,-0.09803772,0.00000000
1.02747011,345,3.09991645,-1.61245616,-3.13384255,-0.03089905,1.48535824,0.25405884,3.09991645,-1.61283764,-3.13384255,-0.03090186,1.48753032,0.25385970,3.09953498,-1.65136607,-3.12430580,-0.03089905,1.52731991,0.25291443,-0.00488281,0.06347656,-0.00976562,-0.01464844,-0.17578125,-0.02929688,-2.96401978,-0.09133414,-0.09689331,0.07324219
1.04424047,350,3.09991645,-1.61207469,-3.13384255,-0.03051758,1.48306943,0.25405884,3.09991645,-1.61276134,-3.13384255,-0.03077485,1.48501994,0.25381341,3.09953498,-1.65060313,-3.12468727,-0.03089905,1.52350522,0.25291443,-0.00488281,0.04882812,-0.00488281,-0.02929688,-0.21972656,-0.02929688,-2.96440125,-0.09159695,-0.09078979,0.39062500
1.05569720,355,3.09991645,-1.61207469,-3.13384255,-0.03089905,1.48116208,0.25367737,3.09991645,-1.61264405,-3.13384255,-0.03073921,1.48272700,0.25372195,3.09953498,-1.64984019,-3.12468727,-0.03051758,1.52083493,0.25291443,-0.00488281,0.04882812,-0.00000000,-0.01464844,-0.23437500,-0.01464844,-2.96401978,-0.09154903,-0.08850098,0.09765625
1.07009554,360,3.09991645,-1.61207469,-3.13384255,-0.03051758,1.47887326,0.25367737,3.09991645,-1.61251773,-3.13384255,-0.03070934,1.48041926,0.25369198,3.09953498,-1.64907725,-3.12468727,-0.03089905,1.51702023,0.25291443,-0.00976562,0.04394531,-0.00976562,-0.01464844,-0.21972656,-0.01464844,-2.96440125,-0.09174549,-0.08850098,-0.02441406
1.08451343,365,3.09991645,-1.61207469,-3.13384255,-0.03089905,1.47505856,0.25405884,3.09991645,-1.61247633,-3.13384255,-0.03071774,1.47749777,0.25375845,3.09953498,-1.64831431,-3.12506874,-0.03089905,1.51282406,0.25291443,-0.00488281,0.04882812,-0.00976562,-0.02929688,-0.24902344,-0.01464844,-2.96440125,-0.09165264,-0.08850098,0.00000000
1.09731531,370,3.09991645,-1.61207469,-3.13346108,-0.03051758,1.47276974,0.25367737,3.09991645,-1.61246277,-3.13364711,-0.03063200,1.47483904,0.25376497,3.09953498,-1.64793284,-3.12506874,-0.03089905,1.50977231,0.25291443,-0.00488281,0.04394531,-0.00488281,0.00000000,-0.21972656,0.00000000,-2.96440125,-0.09184194,-0.08850098,-0.02441406
1.11054659,375,3.09991645,-1.61207469,-3.13346108,-0.03051758,1.47086239,0.25405884,3.09991645,-1.61245832,-3.13357087,-0.03055507,1.47262738,0.25383120,3.09953498,-1.64716990,-3.12545021,-0.03089905,1.50748349,0.25329590,-0.00488281,0.02929688,-0.01953125,-0.01464844,-0.19042969,-0.02929688,-2.96401978,-0.09139103,-0.08850098,-0.02441406
1.12500906,380,3.09991645,-1.61207469,-3.13384255,-0.03051758,1.46857358,0.25367737,3.09991645,-1.61245687,-3.13372227,-0.03052986,1.47039509,0.25376684,3.09953498,-1.64640696,-3.12583168,-0.03089905,1.50557614,0.25291443,-0.00488281,0.04882812,-0.00976562,-0.01464844,-0.10253906,-0.01464844,-2.96440125,-0.09145837,-0.08888245,0.00000000
1.13961005,385,3.09991645,-1.61207469,-3.13346108,-0.03013611,1.46628476,0.25367737,3.09991645,-1.61245639,-3.13358573,-0.03033545,1.46805399,0.25384780,3.09953498,-1.64602549,-3.12583168,-0.03089905,1.50443173,0.25329590,-0.00488281,0.04394531,-0.00000000,0.00000000,-0.07324219,-0.01464844,-2.96401978,-0.09136300,-0.08850098,-0.02441406
1.15307117,390,3.09991645,-1.61207469,-3.13346108,-0.03013611,1.46399594,0.25367737,3.09991645,-1.61245623,-3.13353317,-0.03020143,1.46579687,0.25388214,3.09953498,-1.64526255,-3.12583168,-0.03089905,1.50328732,0.25329590,-0.00488281,0.01953125,-0.00000000,-0.01464844,-0.07324219,-0.01464844,-2.96401978,-0.09123409,-0.08888245,-0.02441406
1.16804290,395,3.09991645,-1.61207469,-3.13346108,-0.03013611,1.46170712,0.25405884,3.09991645,-1.61245618,-3.13360384,-0.03015751,1.46336952,0.25391305,3.09953498,-1.64449961,-3.12583168,-0.03089905,1.50176144,0.25329590,-0.00976562,0.04394531,-0.00488281,-0.01464844,-0.08789062,-0.01464844,-2.96287537,-0.09009444,-0.08888245,-0.02441406
1.18071914,400,3.09991645,-1.61207469,-3.13384255,-0.03013611,1.45979977,0.25367737,3.09991645,-1.61245616,-3.13365447,-0.03014312,1.46129958,0.25386446,3.09953498,-1.64411814,-3.12583168,-0.03089905,1.49870968,0.25329590,-0.00488281,0.03906250,0.00488281,-0.01464844,-0.20507812,-0.01464844,-2.95867920,-0.08517730,-0.08850098,-0.02441406
1.19478321,405,3.09991645,-1.61207469,-3.13346108,-0.03013611,1.45865536,0.25405884,3.09991645,-1.61245616,-3.13352445,-0.02998948,1.45973325,0.25384622,3.09953498,-1.64373667,-3.12583168,-0.03089905,1.49565793,0.25329590,-0.00976562,0.01953125,-0.00000000,-0.01464844,-0.24902344,-0.01464844,-2.95333862,-0.07778626,-0.08888245,-0.04882812
1.20988822,410,3.09991645,-1.61207469,-3.13384255,-0.03013611,1.45789242,0.25367737,3.09991645,-1.61245616,-3.13358939,-0.03005681,1.45874611,0.25373270,3.09953498,-1.64297373,-3.12621315,-0.03089905,1.49146176,0.25329590,-0.00488281,0.05859375,-0.00976562,-0.01464844,-0.27832031,-0.01464844,-2.94609070,-0.06602086,-0.08888245,-0.02441406
1.22399473,415,3.09991645,-1.61207469,-3.13346108,-0.03013611,1.45751095,0.25405884,3.09991645,-1.61245616,-3.13350312,-0.03011012,1.45798600,0.25380304,3.09953498,-1.64182933,-3.12659462,-0.03089905,1.48688412,0.25329590,0.00000000,0.05371094,-0.02441406,-0.01464844,-0.24902344,-0.01464844,-2.93769836,-0.05113189,-0.08850098,-0.02441406
1.23774028,420,3.09991645,-1.61207469,-3.13346108,-0.03013611,1.45712948,0.25405884,3.09991645,-1.61245616,-3.13360620,-0.03012759,1.45741015,0.25393596,3.09953498,-1.64144786,-3.12659462,-0.03089905,1.48383236,0.25329590,-0.00488281,0.03417969,-0.00488281,0.00000000,-0.13183594,0.00000000,-2.92968750,-0.03527431,-0.08850098,-0.02441406
1.25098133,425,3.09991645,-1.61207469,-3.13384255,-0.03051758,1.45598507,0.25367737,3.09991645,-1.61245616,-3.13366500,-0.03027065,1.45670253,0.25383241,3.09953498,-1.64068492,-3.12697609,-0.03089905,1.48230649,0.25329590,-0.00976562,0.05859375,-0.00976562,-0.01464844,-0.11718750,0.00000000,-2.91900635,-0.01696384,-0.08811951,0.02441406
1.26700115,430,3.09991645,-1.61207469,-3.13384255,-0.03051758,1.45522214,0.25367737,3.09991645,-1.61245616,-3.13364326,-0.03043666,1.45585762,0.25385952,3.09953498,-1.63992198,-3.12697609,-0.03089905,1.48078061,0.25329590,-0.00488281,0.04394531,0.00488281,-0.01464844,-0.08789062,-0.01464844,-2.90832520,0.00203363,-0.08392334,0.36621094
1.28378439,435,3.09991645,-1.61207469,-3.13384255,-0.03051758,1.45445920,0.25405884,3.09991645,-1.61245616,-3.13363613,-0.03049106,1.45494868,0.25392321,3.09953498,-1.63915904,-3.12697609,-0.03089905,1.48001767,0.25329590,0.00000000,0.04394531,0.00488281,-0.01464844,-0.01464844,-0.02929688,-2.89573669,0.02203363,-0.07209778,0.61035156
1.29690075,440,3.09991645,-1.61207469,-3.13384255,-0.03051758,1.45369626,0.25367737,3.09991645,-1.61245616,-3.13366505,-0.03050889,1.45428683,0.25375793,3.09953498,-1.63877757,-3.12697609,-0.03089905,1.47925473,0.25329590,-0.00976562,0.03417969,-0.00000000,-0.01464844,-0.04394531,-0.01464844,-2.88505554,0.04203363,-0.06256104,0.80566406
1.31281066,445,3.09991645,-1.61207469,-3.13346108,-0.03051758,1.45217038,0.25367737,3.09991645,-1.61245616,-3.13355916,-0.03051473,1.45318470,0.25381363,3.09953498,-1.63801463,-3.12697609,-0.03089905,1.47734738,0.25329590,-0.00488281,0.02441406,-0.00488281,-0.01464844,-0.10253906,-0.01464844,-2.87704468,0.06203363,-0.04920959,0.68359375
1.32742524,450,3.09991645,-1.61207469,-3.13346108,-0.03051758,1.44988156,0.25367737,3.09991645,-1.61245616,-3.13364214,-0.03051665,1.45147174,0.25380991,3.09953498,-1.63801463,-3.12735756,-0.03089905,1.47620297,0.25329590,-0.00976562,0.00976562,-0.01464844,-0.01464844,-0.08789062,-0.01464844,-2.87170410,0.08056852,-0.04234314,0.53710938
1.34219742,455,3.09991645,-1.61207469,-3.13384255,-0.02975464,1.44721127,0.25367737,3.09991645,-1.61245616,-3.13359670,-0.03019379,1.44910539,0.25376963,3.09953498,-1.63763316,-3.12773903,-0.03089905,1.47429562,0.25329590,-0.00488281,0.01953125,-0.00488281,-0.01464844,-0.10253906,-0.01464844,-2.87132263,0.08938836,-0.02861023,0.95214844
1.35839748,460,3.09991645,-1.61207469,-3.13346108,-0.02861023,1.44492245,0.25405884,3.09991645,-1.61245616,-3.13365445,-0.02931858,1.44669400,0.25387178,3.09953498,-1.63725169,-3.12773903,-0.03089905,1.47200680,0.25367737,-0.00976562,0.00976562,-0.00000000,-0.01464844,-0.13183594,0.01464844,-2.87170410,0.09236414,-0.01335144,0.80566406
1.37282395,465,3.09991645,-1.61207469,-3.13346108,-0.02593994,1.44301510,0.25367737,3.09991645,-1.61245616,-3.13356350,-0.02756707,1.44462148,0.25374107,3.09953498,-1.63687022,-3.12773903,-0.03089905,1.46971798,0.25329590,-0.00488281,0.01464844,0.00488281,0.00000000,-0.16113281,-0.01464844,-2.87208557,0.09294838,-0.00495911,0.65917969
1.38564491,470,3.09991645,-1.61207469,-3.13346108,-0.02441406,1.44187069,0.25367737,3.09991645,-1.61255625,-3.13352589,-0.02577781,1.44302256,0.25369824,3.09953498,-1.63648875,-3.12773903,-0.03089905,1.46742917,0.25329590,-0.00488281,0.04394531,-0.00000000,-0.02929688,-0.13183594,-0.02929688,-2.87170410,0.09329241,0.00457764,0.73242188
1.39780712,475,3.09991645,-1.61207469,-3.13346108,-0.02250671,1.44110776,0.25367737,3.09991645,-1.61248896,-3.13354335,-0.02408933,1.44198569,0.25368421,3.09953498,-1.63610728,-3.12773903,-0.03089905,1.46590329,0.25329590,-0.00488281,0.01464844,-0.00000000,-0.01464844,-0.11718750,0.00000000,-2.87170410,0.09340514,0.01373291,0.56152344
1.41230369,480,3.09991645,-1.61207469,-3.13346108,-0.02021790,1.43996335,0.25367737,3.09991645,-1.61246690,-3.13363696,-0.02205533,1.44081548,0.25367961,3.09953498,-1.63534434,-3.12812050,-0.03089905,1.46285153,0.25329590,-0.00488281,0.03417969,-0.00000000,-0.01464844,-0.17578125,0.00000000,-2.87170410,0.09337958,0.02403259,0.68359375
1.42525029,485,3.09991645,-1.61207469,-3.13384255,-0.01716614,1.43996335,0.25367737,3.09991645,-1.61245968,-3.13368290,-0.01956999,1.44024257,0.25373914,3.09953498,-1.63496287,-3.12812050,-0.03051758,1.46056271,0.25367737,-0.00976562,0.02441406,-0.00000000,0.01464844,-0.17578125,0.00000000,-2.87170410,0.09333605,0.03089905,0.46386719
1.43945694,490,3.09991645,-1.61207469,-3.13384255,-0.01411438,1.43996335,0.25367737,3.09991645,-1.61245731,-3.13371016,-0.01660227,1.44005484,0.25369761,3.09953498,-1.63458140,-3.12812050,-0.03051758,1.45903683,0.25329590,-0.00488281,0.04882812,0.00488281,-0.01464844,-0.10253906,-0.01464844,-2.87170410,0.09332178,0.03738403,0.56152344
1.45372081,495,3.09991645,-1.61207469,-3.13384255,-0.01106262,1.43958188,0.25367737,3.09991645,-1.61248778,-3.13365805,-0.01356047,1.43985600,0.25377629,3.09953498,-1.63381846,-3.12812050,-0.03013611,1.45789242,0.25329590,-0.00488281,0.02929688,-0.00488281,0.00000000,-0.07324219,-0.02929688,-2.87170410,0.09341476,0.04463196,0.43945312
1.46601605,500,3.09991645,-1.61207469,-3.13384255,-0.00762939,1.43881894,0.25405884,3.09991645,-1.61257638,-3.13367223,-0.01032435,1.43940925,0.25378608,3.09953498,-1.63343699,-3.12812050,-0.03013611,1.45751095,0.25329590,-0.00488281,0.04394531,-0.00000000,0.00000000,-0.01464844,-0.02929688,-2.87170410,0.09344523,0.04806519,0.26855469
1.47979593,505,3.09991645,-1.61207469,-3.13346108,-0.00457764,1.43729306,0.25367737,3.09991645,-1.61249555,-3.13360058,-0.00707303,1.43844841,0.25377402,3.09953498,-1.63305552,-3.12812050,-0.02975464,1.45712948,0.25329590,-0.00488281,0.01464844,0.00488281,0.00000000,0.01464844,-0.01464844,-2.87132263,0.09372988,0.05187988,0.19531250
1.49675441,510,3.09991645,-1.61207469,-3.13384255,-0.00038147,1.43576718,0.25405884,3.09991645,-1.61250813,-3.13361433,-0.00344623,1.43710768,0.25378533,3.09953498,-1.63267405,-3.12812050,-0.02899170,1.45636654,0.25329590,-0.00976562,0.01464844,-0.00000000,0.02929688,-0.04394531,-0.02929688,-2.87132263,0.09390127,0.06141663,0.58593750
1.50969696,515,3.09991645,-1.61207469,-3.13384255,0.00190735,1.43500424,0.25367737,3.09991645,-1.61247319,-3.13370673,-0.00023803,1.43579506,0.25377378,3.09953498,-1.63229258,-3.12812050,-0.02822876,1.45522214,0.25329590,-0.00488281,0.00976562,-0.00976562,0.05859375,-0.08789062,0.00000000,-2.87132263,0.09387931,0.06294250,0.07324219
1.52679825,520,3.09991645,-1.61207469,-3.13384255,0.00495911,1.43347836,0.25367737,3.09991645,-1.61246174,-3.13373701,0.00270484,1.43460712,0.25378904,3.09953498,-1.63229258,-3.12850197,-0.02593994,1.45255185,0.25329590,-0.00488281,0.00488281,-0.00976562,0.08789062,-0.13183594,0.00000000,-2.86827087,0.09639946,0.06752014,0.19531250
1.54147792,525,3.09991645,-1.61207469,-3.13346108,0.00686646,1.43271542,0.25367737,3.09991645,-1.61252830,-3.13362181,0.00489975,1.43343686,0.25371396,3.09953498,-1.63191111,-3.12888344,-0.02403259,1.45102597,0.25329590,-0.00488281,0.01953125,-0.01464844,0.13183594,-0.07324219,-0.02929688,-2.86102295,0.10451017,0.06866455,0.12207031
1.55432534,530,3.09991645,-1.61207469,-3.13384255,0.00801086,1.43233395,0.25367737,3.09991645,-1.61252862,-3.13369990,0.00677071,1.43269535,0.25368936,3.09953498,-1.63152964,-3.12888344,-0.02174377,1.45064450,0.25367737,-0.00488281,0.01464844,-0.01953125,0.17578125,-0.01464844,0.00000000,-2.85415649,0.11746232,0.07324219,0.26855469
1.56923985,535,3.09991645,-1.61207469,-3.13384255,0.00877380,1.43195248,0.25367737,3.09991645,-1.61247990,-3.13367667,0.00804712,1.43219591,0.25381264,3.09953498,-1.63114817,-3.12926491,-0.01869202,1.45064450,0.25329590,-0.00488281,0.02441406,-0.00488281,0.17578125,-0.00000000,-0.01464844,-2.84080505,0.13411635,0.07514954,0.14648438
1.58371449,540,3.09991645,-1.61207469,-3.13384255,0.00915527,1.43157101,0.25367737,3.09991645,-1.61246394,-3.13367833,0.00879215,1.43177578,0.25377052,3.09953498,-1.63076670,-3.12926491,-0.01754761,1.45026303,0.25367737,-0.00488281,0.01953125,0.00488281,0.04394531,-0.00000000,0.00000000,-2.82402039,0.15411635,0.07972717,0.39062500
1.59757805,545,3.09991645,-1.61207469,-3.13346108,0.00915527,1.43080807,0.25367737,3.09991645,-1.61245871,-3.13367338,0.00903629,1.43119548,0.25370789,3.09953498,-1.63076670,-3.12926491,-0.01602173,1.44950009,0.25367737,-0.00976562,0.01464844,-0.00000000,0.07324219,-0.05859375,-0.01464844,-2.80227661,0.17411635,0.08850098,0.46386719
1.61236715,550,3.09991645,-1.61207469,-3.13346108,0.00877380,1.43004513,0.25405884,3.09991645,-1.61245699,-3.13371082,0.00889106,1.43049239,0.25386376,3.09953498,-1.63038523,-3.12926491,-0.01411438,1.44682980,0.25329590,-0.00488281,0.01464844,-0.00000000,0.11718750,-0.17578125,-0.01464844,-2.77633667,0.19411635,0.09880066,0.80566406
1.62917590,555,3.09991645,-1.61207469,-3.13346108,0.00877380,1.42890072,0.25367737,3.09991645,-1.61248768,-3.13364301,0.00881223,1.42967277,0.25373845,3.09953498,-1.63000376,-3.12926491,-0.01220703,1.44339657,0.25329590,-0.00488281,0.02441406,0.00488281,0.11718750,-0.21972656,-0.01464844,-2.75001526,0.21411635,0.10871887,0.43945312
1.64520216,560,3.09991645,-1.61207469,-3.13384255,0.00877380,1.42775631,0.25367737,3.09991645,-1.61246649,-3.13368927,0.00872536,1.42866604,0.25369738,3.09953498,-1.62924082,-3.12964638,-0.01029968,1.44110776,0.25329590,-0.00976562,0.01953125,-0.00488281,0.08789062,-0.13183594,-0.01464844,-2.71644592,0.23411635,0.12016296,0.63476562
1.66022587,565,3.09991645,-1.61245616,-3.13384255,0.00839233,1.42661191,0.25367737,3.09991645,-1.61253584,-3.13373129,0.00850146,1.42756674,0.25368393,3.09953498,-1.62885936,-3.12964638,-0.00915527,1.43958188,0.25329590,-0.00488281,0.01953125,0.00488281,0.05859375,-0.08789062,-0.02929688,-2.69050598,0.25411635,0.13198853,0.85449219
1.67439580,570,3.09991645,-1.61207469,-3.13384255,0.00801086,1.42470456,0.25367737,3.09991645,-1.61251352,-3.13372601,0.00820287,1.42596470,0.25367952,3.09953498,-1.62885936,-3.12964638,-0.00762939,1.43920041,0.25367737,-0.00488281,0.00976562,-0.00000000,0.08789062,-0.01464844,-0.01464844,-2.66571045,0.27411635,0.14533997,0.73242188
1.68935633,575,3.09991645,-1.61207469,-3.13346108,0.00762939,1.42203427,0.25367737,3.09991645,-1.61253599,-3.13364018,0.00784856,1.42384221,0.25367807,3.09953498,-1.62847789,-3.12964638,-0.00610352,1.43920041,0.25367737,-0.00488281,0.01464844,0.00976562,0.08789062,0.01464844,-0.02929688,-2.63977051,0.29411635,0.15563965,0.73242188
1.70557833,580,3.09991645,-1.61207469,-3.13384255,0.00724792,1.41898251,0.25367737,3.09991645,-1.61248232,-3.13368834,0.00762492,1.42118675,0.25367760,3.09953498,-1.62771495,-3.12964638,-0.00419617,1.43843747,0.25367737,0.00000000,0.02929688,0.00488281,0.10253906,-0.05859375,-0.02929688,-2.62031555,0.31411635,0.17127991,0.92773438
1.72196460,585,3.09991645,-1.61207469,-3.13384255,0.00762939,1.41707516,0.25367737,3.09991645,-1.61250379,-3.13361184,0.00755761,1.41870419,0.25367744,3.09953498,-1.62771495,-3.12964638,-0.00267029,1.43653012,0.25367737,-0.00488281,0.00976562,0.00488281,0.10253906,-0.13183594,-0.01464844,-2.59246826,0.33411635,0.18157959,0.63476562
1.73760796,590,3.09991645,-1.61207469,-3.13384255,0.00762939,1.41554928,0.25367737,3.09991645,-1.61247177,-3.13363560,0.00760587,1.41686482,0.25367739,3.09953498,-1.62733348,-3.12964638,-0.00228882,1.43385983,0.25367737,-0.00488281,0.00976562,-0.00000000,0.00000000,-0.14648438,-0.01464844,-2.56919861,0.35411635,0.19187927,0.75683594
1.75141764,595,3.09991645,-1.61245616,-3.13384255,0.00762939,1.41440487,0.25367737,3.09991645,-1.61253757,-3.13370442,0.00762169,1.41540040,0.25374769,3.09953498,-1.62695201,-3.13002785,-0.00152588,1.43233395,0.25329590,-0.00488281,0.01464844,-0.00488281,0.01464844,-0.08789062,-0.01464844,-2.55126953,0.37411635,0.20637512,0.87890625
1.76835990,600,3.09991645,-1.61207469,-3.13346108,0.00762939,1.41326047,0.25367737,3.09991645,-1.61248283,-3.13362871,0.00762687,1.41403199,0.25370041,3.09953498,-1.62695201,-3.13002785,-0.00114441,1.43157101,0.25367737,0.00000000,0.00488281,-0.00000000,0.02929688,-0.02929688,-0.01464844,-2.53105164,0.39411635,0.21781921,0.73242188
1.78139019,605,3.09991645,-1.61207469,-3.13346108,0.00762939,1.41287900,0.25367737,3.09991645,-1.61246490,-3.13366493,0.00762857,1.41325681,0.25377281,3.09953498,-1.62657054,-3.13002785,-0.00038147,1.43118954,0.25329590,-0.00976562,0.01953125,0.00488281,0.02929688,-0.01464844,-0.01464844,-2.50778198,0.41411635,0.22926331,0.75683594
1.79647374,610,3.09991645,-1.61207469,-3.13384255,0.00762939,1.41326047,0.25367737,3.09991645,-1.61245902,-3.13378435,0.00762912,1.41311034,0.25370864,3.09953498,-1.62618907,-3.13002785,0.00000000,1.43080807,0.25329590,-0.00488281,0.02441406,0.00976562,0.01464844,-0.00000000,0.00000000,-2.48947144,0.43411635,0.24223328,0.85449219
1.80859900,615,3.09991645,-1.61207469,-3.13384255,0.00762939,1.41326047,0.25367737,3.09991645,-1.61250592,-3.13373559,0.00762931,1.41303110,0.25374865,3.09953498,-1.62580760,-3.13002785,0.00038147,1.43042660,0.25329590,-0.00488281,0.02441406,0.00488281,0.01464844,-0.05859375,-0.01464844,-2.46925354,0.45411635,0.25138855,0.78125000
1.82350755,620,3.09991645,-1.61207469,-3.13346108,0.00762939,1.41287900,0.25405884,3.09991645,-1.61247246,-3.13373120,0.00762937,1.41292884,0.25381608,3.09953498,-1.62542613,-3.13002785,0.00038147,1.42813778,0.25329590,-0.00976562,0.02441406,0.00488281,-0.01464844,-0.11718750,-0.02929688,-2.45018005,0.47411635,0.26321411,0.73242188
1.83815193,625,3.09991645,-1.61207469,-3.13384255,0.00762939,1.41326047,0.25367737,3.09991645,-1.61246150,-3.13380606,0.00762938,1.41308148,0.25390300,3.09953498,-1.62504466,-3.13002785,0.00076294,1.42623044,0.25329590,-0.00976562,0.00976562,-0.00488281,0.00000000,-0.11718750,-0.01464844,-2.42919922,0.49411635,0.27542114,0.75683594
1.85196567,630,3.09991645,-1.61207469,-3.13384255,0.00762939,1.41326047,0.25405884,3.09991645,-1.61250674,-3.13365042,0.00762939,1.41315299,0.25392769,3.09953498,-1.62504466,-3.13040932,0.00114441,1.42546750,0.25329590,-0.00488281,0.01464844,-0.00976562,0.01464844,-0.04394531,-0.01464844,-2.40745544,0.51411635,0.28648376,0.80566406
1.86776924,635,3.09991645,-1.61207469,-3.13384255,0.00762939,1.41287900,0.25405884,3.09991645,-1.61247273,-3.13369951,0.00762939,1.41303909,0.25401586,3.09953498,-1.62466319,-3.13040932,0.00152588,1.42470456,0.25329590,-0.00976562,0.01464844,-0.00976562,0.02929688,-0.01464844,-0.01464844,-2.38571167,0.53411635,0.30059814,0.75683594
1.88481021,640,3.09991645,-1.61207469,-3.13384255,0.00762939,1.41287900,0.25405884,3.09991645,-1.61246159,-3.13373464,0.00762939,1.41293146,0.25404476,3.09953498,-1.62428172,-3.13040932,0.00228882,1.42470456,0.25329590,-0.00488281,0.00976562,-0.00000000,0.02929688,-0.00000000,0.00000000,-2.35900879,0.55411635,0.31280518,0.70800781
1.89783859,645,3.09991645,-1.61207469,-3.13346108,0.00762939,1.41249753,0.25405884,3.09991645,-1.61245794,-3.13373090,0.00762939,1.41271003,0.25405422,3.09953498,-1.62428172,-3.13079079,0.00267029,1.42432309,0.25329590,-0.00976562,0.00488281,0.00488281,0.05859375,-0.01464844,0.00000000,-2.33726501,0.57411635,0.32196045,0.80566406
1.91083527,650,3.09991645,-1.61207469,-3.13346108,0.00762939,1.41211606,0.25405884,3.09991645,-1.61245674,-3.13366863,0.00762939,1.41242983,0.25405733,3.09953498,-1.62428172,-3.13079079,0.00381470,1.42394162,0.25329590,-0.00976562,0.00000000,-0.00488281,0.07324219,-0.01464844,-0.01464844,-2.31437683,0.59411635,0.33378601,0.78125000
1.92601848,655,3.09991645,-1.61207469,-3.13384255,0.00762939,1.41135312,0.25405884,3.09991645,-1.61250518,-3.13365421,0.00762939,1.41191736,0.25405834,3.09953498,-1.62390025,-3.13079079,0.00457764,1.42317868,0.25329590,0.00000000,0.00488281,-0.00000000,0.00000000,-0.04394531,-0.01464844,-2.28805542,0.61411635,0.34370422,0.61035156
1.93754601,660,3.09991645,-1.61207469,-3.13384255,0.00762939,1.41020871,0.25405884,3.09991645,-1.61247222,-3.13363972,0.00762939,1.41109916,0.25405868,3.09953498,-1.62390025,-3.13079079,0.00495911,1.42241574,0.25329590,-0.00488281,0.00000000,-0.00488281,-0.01464844,-0.05859375,-0.02929688,-2.26936340,0.63411635,0.35285950,0.83007812
1.95050120,665,3.09991645,-1.61245616,-3.13384255,0.00762939,1.40944577,0.25405884,3.09991645,-1.61258654,-3.13366622,0.00762939,1.41013794,0.25405878,3.09953498,-1.62390025,-3.13079079,0.00495911,1.42127133,0.25329590,0.00000000,0.00488281,-0.00000000,0.00000000,-0.07324219,-0.01464844,-2.24876404,0.65411635,0.36582947,1.00097656
1.96427631,670,3.09991645,-1.61207469,-3.13346108,0.00762939,1.40791989,0.25405884,3.09991645,-1.61249888,-3.13360838,0.00762939,1.40901633,0.25405882,3.09953498,-1.62351878,-3.13117226,0.00457764,1.41974545,0.25329590,-0.00488281,0.01953125,-0.00000000,0.00000000,-0.07324219,-0.01464844,-2.22320557,0.67411635,0.37384033,0.53710938
1.98047900,675,3.09991645,-1.61207469,-3.13384255,0.00762939,1.40601254,0.25405884,3.09991645,-1.61247016,-3.13376581,0.00762939,1.40748559,0.25405883,3.09953498,-1.62313731,-3.13117226,0.00495911,1.41860104,0.25329590,-0.00488281,0.01464844,-0.00488281,-0.01464844,-0.07324219,-0.01464844,-2.19535828,0.69411635,0.38414001,0.78125000
1.99237251,680,3.09991645,-1.61207469,-3.13384255,0.00762939,1.40524960,0.25405884,3.09991645,-1.61246074,-3.13376858,0.00762939,1.40612292,0.25405884,3.09953498,-1.62313731,-3.13117226,0.00457764,1.41745663,0.25329590,-0.00488281,0.00976562,0.00488281,-0.02929688,-0.07324219,-0.01464844,-2.17971802,0.71411635,0.39939880,0.90332031
2.00675321,685,3.09991645,-1.61245616,-3.13384255,0.00762939,1.40334225,0.25405884,3.09991645,-1.61259499,-3.13381831,0.00762939,1.40452295,0.25405884,3.09953498,-1.62275584,-3.13117226,0.00495911,1.41631222,0.25329590,-0.00488281,0.01464844,0.00488281,-0.01464844,-0.05859375,-0.02929688,-2.15187073,0.73411635,0.40626526,0.56152344
2.02374864,690,3.09991645,-1.61207469,-3.13384255,0.00762939,1.40029049,0.25405884,3.09991645,-1.61250165,-3.13374232,0.00762939,1.40227748,0.25405884,3.09953498,-1.62237437,-3.13117226,0.00495911,1.41516781,0.25329590,-0.00488281,0.02929688,0.00488281,0.00000000,-0.04394531,-0.02929688,-2.11791992,0.75411635,0.42419434,0.92773438
2.03828263,695,3.09991645,-1.61207469,-3.13346108,0.00762939,1.39494992,0.25405884,3.09991645,-1.61247106,-3.13364113,0.00762939,1.39860248,0.25405884,3.09953498,-1.62237437,-3.13117226,0.00534058,1.41478634,0.25329590,-0.00488281,0.00976562,0.00488281,0.00000000,-0.02929688,-0.01464844,-2.08015442,0.77411635,0.43525696,0.83007812
2.05359769,700,3.09991645,-1.61207469,-3.13346108,0.00762939,1.39304257,0.25405884,3.09991645,-1.61246104,-3.13355133,0.00762939,1.39526532,0.25405884,3.09953498,-1.62199290,-3.13117226,0.00572205,1.41364193,0.25329590,-0.00488281,0.00976562,0.00976562,-0.01464844,-0.04394531,-0.02929688,-2.04734802,0.79411635,0.44593811,0.65917969
2.06825829,705,3.09991645,-1.61207469,-3.13384255,0.00762939,1.39151669,0.25405884,3.09991645,-1.61245776,-3.13370806,0.00762939,1.39307561,0.25405884,3.09953498,-1.62161143,-3.13117226,0.00572205,1.41249753,0.25329590,-0.00488281,0.00976562,0.00488281,0.00000000,-0.07324219,-0.01464844,-2.02140808,0.81411635,0.46005249,0.92773438
2.08076334,710,3.09991645,-1.61207469,-3.13346108,0.00762939,1.39037228,0.25405884,3.09991645,-1.61245668,-3.13365187,0.00762939,1.39144756,0.25405884,3.09953498,-1.62161143,-3.13117226,0.00572205,1.41097165,0.25367737,-0.00488281,0.00488281,-0.00000000,-0.01464844,-0.10253906,0.00000000,-1.98974609,0.83411635,0.46768188,0.65917969
2.09457278,715,3.09991645,-1.61207469,-3.13346108,0.00762939,1.38922787,0.25405884,3.09991645,-1.61245633,-3.13359391,0.00762939,1.39017592,0.25405884,3.09953498,-1.62161143,-3.13155373,0.00572205,1.40868283,0.25367737,-0.00488281,-0.00488281,-0.00000000,0.00000000,-0.19042969,0.00000000,-1.95922852,0.85411635,0.47988892,0.78125000
2.11240721,720,3.09991645,-1.61207469,-3.13384255,0.00762939,1.38770199,0.25405884,3.09991645,-1.61250504,-3.13366098,0.00762939,1.38873335,0.25405884,3.09953498,-1.62122996,-3.13155373,0.00610352,1.40639401,0.25329590,-0.00488281,0.00000000,-0.00488281,0.00000000,-0.08789062,-0.01464844,-1.94015503,0.87411635,0.49400330,0.78125000
2.12793207,725,3.09991645,-1.61207469,-3.13384255,0.00801086,1.38732052,0.25405884,3.09991645,-1.61247218,-3.13363412,0.00785461,1.38772244,0.25417798,3.09953498,-1.62122996,-3.13155373,0.00610352,1.40524960,0.25329590,-0.00488281,0.00488281,0.00488281,-0.02929688,-0.02929688,-0.01464844,-1.94015503,0.89411635,0.50506592,0.65917969
2.14136291,730,3.09991645,-1.61207469,-3.13346108,0.00839233,1.38732052,0.25444031,3.09991645,-1.61249266,-3.13362765,0.00814582,1.38739119,0.25417417,3.09953498,-1.62122996,-3.13155373,0.00648499,1.40486813,0.25367737,-0.00488281,0.00488281,0.00488281,0.00000000,-0.00000000,0.00000000,-1.94015503,0.91411635,0.51803589,0.90332031
2.15530992,735,3.09991645,-1.61207469,-3.13384255,0.00839233,1.38732052,0.25405884,3.09991645,-1.61246812,-3.13368424,0.00831156,1.38734368,0.25412788,3.09953498,-1.62122996,-3.13155373,0.00648499,1.40486813,0.25367737,-0.00488281,0.00000000,0.00488281,0.01464844,0.01464844,-0.02929688,-1.94015503,0.93411635,0.52833557,0.63476562
2.16957712,740,3.09991645,-1.61245616,-3.13384255,0.00839233,1.38732052,0.25405884,3.09991645,-1.61256762,-3.13369839,0.00836586,1.38732811,0.25408146,3.09953498,-1.62084849,-3.13155373,0.00686646,1.40410519,0.25329590,0.00000000,0.00488281,-0.00000000,0.00000000,-0.04394531,-0.01464844,-1.94015503,0.95411635,0.53901672,0.75683594
2.18336749,745,3.09991645,-1.61207469,-3.13384255,0.00839233,1.38693905,0.25444031,3.09991645,-1.61259278,-3.13373427,0.00838366,1.38709779,0.25428366,3.09953498,-1.62084849,-3.13155373,0.00686646,1.40257931,0.25367737,-0.00976562,0.00000000,0.00488281,0.00000000,-0.11718750,-0.02929688,-1.94015503,0.97411635,0.55274963,1.04980469
2.19739461,750,3.09991645,-1.61245616,-3.13384255,0.00839233,1.38617611,0.25444031,3.09991645,-1.61268708,-3.13366596,0.00838949,1.38668956,0.25438898,3.09953498,-1.62084849,-3.13155373,0.00686646,1.40029049,0.25367737,-0.00488281,0.00000000,0.00488281,-0.01464844,-0.13183594,-0.01464844,-1.93977356,0.99411635,0.56190491,0.65917969
2.21077275,755,3.09991645,-1.61207469,-3.13384255,0.00915527,1.38617611,0.25444031,3.09991645,-1.61262411,-3.13367482,0.00869292,1.38634436,0.25442349,3.09953498,-1.62084849,-3.13155373,0.00686646,1.39876462,0.25367737,-0.00488281,0.00488281,0.00488281,0.00000000,-0.08789062,-0.01464844,-1.93977356,1.01411635,0.57067871,0.75683594
2.22534013,760,3.09991645,-1.61245616,-3.13384255,0.00991821,1.38579464,0.25444031,3.09991645,-1.61276766,-3.13365624,0.00926622,1.38597478,0.25443480,3.09953498,-1.62046702,-3.13155373,0.00724792,1.39838315,0.25367737,-0.00488281,0.00488281,-0.00000000,-0.02929688,-0.00000000,-0.02929688,-1.93977356,1.03411635,0.58631897,0.95214844
2.24060440,765,3.09991645,-1.61245616,-3.13384255,0.01029968,1.38503171,0.25405884,3.09991645,-1.61266577,-3.13367163,0.00984190,1.38545987,0.25432315,3.09953498,-1.62046702,-3.13155373,0.00724792,1.39876462,0.25367737,-0.00488281,0.00488281,0.00488281,0.00000000,0.02929688,0.00000000,-1.93977356,1.05411635,0.59623718,0.48828125
2.25873709,770,3.09991645,-1.61207469,-3.13346108,0.01029968,1.38503171,0.25405884,3.09991645,-1.61255609,-3.13364921,0.01014968,1.38517201,0.25414545,3.09953498,-1.62008555,-3.13155373,0.00724792,1.39838315,0.25367737,-0.00488281,0.00000000,-0.00000000,0.01464844,-0.01464844,-0.01464844,-1.93977356,1.07411635,0.60882568,0.78125000
2.27050066,775,3.09991645,-1.61207469,-3.13384255,0.01029968,1.38503171,0.25405884,3.09991645,-1.61253773,-3.13359902,0.01025053,1.38507768,0.25408722,3.09953498,-1.62008555,-3.13155373,0.00724792,1.39800168,0.25367737,-0.00488281,0.00488281,0.00488281,-0.01464844,-0.04394531,0.00000000,-1.94015503,1.09411635,0.62332153,0.92773438
2.28738832,780,3.09991645,-1.61207469,-3.13346108,0.01029968,1.38503171,0.25405884,3.09991645,-1.61259275,-3.13365520,0.01028358,1.38504677,0.25406814,3.09953498,-1.62008555,-3.13155373,0.00762939,1.39609433,0.25367737,-0.00488281,0.00976562,-0.00000000,0.00000000,-0.10253906,-0.02929688,-1.93977356,1.11411635,0.63247681,0.58593750
2.30031919,785,3.09991645,-1.61245616,-3.13384255,0.01029968,1.38503171,0.25405884,3.09991645,-1.61269635,-3.13372012,0.01029440,1.38503664,0.25406189,3.09953498,-1.61970408,-3.13155373,0.00762939,1.39456845,0.25367737,-0.00488281,0.00488281,0.00976562,0.00000000,-0.07324219,0.00000000,-1.93977356,1.13411635,0.64353943,0.75683594
2.31426787,790,3.09991645,-1.61207469,-3.13346108,0.01029968,1.38503171,0.25405884,3.09991645,-1.61260518,-3.13362604,0.01029795,1.38503332,0.25405984,3.09953498,-1.61970408,-3.13155373,0.00762939,1.39342404,0.25367737,-0.00976562,0.00976562,0.00976562,0.00000000,-0.08789062,-0.02929688,-1.94015503,1.15411635,0.65536499,0.87890625
2.32669544,795,3.09991645,-1.61207469,-3.13346108,0.01029968,1.38503171,0.25405884,3.09991645,-1.61262413,-3.13354638,0.01029912,1.38503224,0.25405917,3.09953498,-1.61970408,-3.13155373,0.00762939,1.39189816,0.25367737,0.00000000,0.00000000,-0.00000000,-0.01464844,-0.07324219,-0.01464844,-1.94015503,1.17411635,0.66680908,0.70800781
2.34080982,800,3.09991645,-1.61207469,-3.13346108,0.01029968,1.38503171,0.25405884,3.09991645,-1.61257223,-3.13348903,0.01029950,1.38503188,0.25405895,3.09953498,-1.61932261,-3.13155373,0.00762939,1.39113522,0.25367737,-0.00976562,0.00000000,0.00488281,-0.01464844,-0.04394531,-0.01464844,-1.94015503,1.19411635,0.67520142,0.70800781
2.35376453,805,3.09991645,-1.61207469,-3.13346108,0.00991821,1.38503171,0.25405884,3.09991645,-1.61267437,-3.13351907,0.01007440,1.38503176,0.25405887,3.09953498,-1.61932261,-3.13155373,0.00762939,1.39113522,0.25367737,-0.00488281,0.00488281,0.00488281,0.00000000,0.01464844,-0.02929688,-1.94015503,1.21411635,0.68817139,0.97656250
2.36823964,810,3.09991645,-1.61207469,-3.13384255,0.01029968,1.38503171,0.25405884,3.09991645,-1.61259797,-3.13368772,0.01004569,1.38503172,0.25405885,3.09953498,-1.61932261,-3.13155373,0.00801086,1.39113522,0.25367737,-0.00488281,0.00000000,0.00488281,-0.01464844,0.01464844,0.00000000,-1.94015503,1.23411635,0.69847107,0.80566406
2.38228059,815,3.09991645,-1.61207469,-3.13346108,0.00991821,1.38503171,0.25405884,3.09991645,-1.61253388,-3.13362763,0.00995998,1.38503171,0.25405884,3.09953498,-1.61932261,-3.13155373,0.00801086,1.39113522,0.25367737,-0.00488281,0.00000000,0.00976562,-0.01464844,0.02929688,-0.01464844,-1.94015503,1.25411635,0.71029663,0.68359375
2.39607716,820,3.09991645,-1.61207469,-3.13346108,0.00991821,1.38503171,0.25405884,3.09991645,-1.61248162,-3.13358597,0.00993190,1.38503171,0.25405884,3.09953498,-1.61932261,-3.13155373,0.00801086,1.39113522,0.25367737,0.00000000,0.00000000,0.00976562,0.00000000,-0.00000000,-0.01464844,-1.94015503,1.27411635,0.71792603,0.80566406
2.40789986,825,3.09991645,-1.61207469,-3.13346108,0.00991821,1.38503171,0.25405884,3.09991645,-1.61246450,-3.13350200,0.00992270,1.38503171,0.25405884,3.09953498,-1.61894114,-3.13155373,0.00801086,1.39037228,0.25367737,-0.00488281,0.00000000,0.00488281,-0.01464844,-0.01464844,-0.01464844,-1.94015503,1.29411635,0.73013306,0.65917969
2.42649627,830,3.09991645,-1.61207469,-3.13346108,0.00991821,1.38503171,0.25405884,3.09991645,-1.61245889,-3.13347449,0.00991968,1.38503171,0.25405884,3.09953498,-1.61894114,-3.13155373,0.00801086,1.38999081,0.25367737,-0.00488281,0.00488281,-0.00000000,0.00000000,-0.01464844,-0.01464844,-1.94015503,1.31411635,0.74653625,0.80566406
2.43889785,835,3.09991645,-1.61207469,-3.13346108,0.00991821,1.38503171,0.25405884,3.09991645,-1.61245705,-3.13346547,0.00991869,1.38503171,0.25405884,3.09953498,-1.61855967,-3.13155373,0.00801086,1.38999081,0.25367737,-0.00488281,0.01464844,-0.00000000,0.00000000,-0.00000000,-0.01464844,-1.94015503,1.33411635,0.75645447,0.68359375
2.45346594,840,3.09991645,-1.61207469,-3.13346108,0.00991821,1.38503171,0.25444031,3.09991645,-1.61245645,-3.13346252,0.00991837,1.38503171,0.25423523,3.09953498,-1.61855967,-3.13155373,0.00801086,1.38960934,0.25367737,-0.00488281,0.00976562,0.00976562,-0.02929688,-0.00000000,-0.02929688,-1.94015503,1.35411635,0.76751709,0.80566406
2.46771431,845,3.09991645,-1.61207469,-3.13346108,0.00991821,1.38503171,0.25405884,3.09991645,-1.61245625,-3.13346155,0.00991826,1.38503171,0.25418695,3.09953498,-1.61855967,-3.13193520,0.00839233,1.38960934,0.25367737,-0.00488281,0.00000000,0.00488281,-0.01464844,0.01464844,-0.02929688,-1.94015503,1.37411635,0.77857971,0.87890625
2.48201180,850,3.09991645,-1.61207469,-3.13346108,0.00991821,1.38503171,0.25444031,3.09991645,-1.61245619,-3.13346123,0.00991823,1.38503171,0.25423815,3.09953498,-1.61817820,-3.13193520,0.00839233,1.38884640,0.25367737,-0.00976562,0.00976562,0.00488281,0.01464844,-0.02929688,0.00000000,-1.94015503,1.39411635,0.78926086,0.61035156
2.49792838,855,3.09991645,-1.61207469,-3.13346108,0.00991821,1.38503171,0.25444031,3.09991645,-1.61251720,-3.13346113,0.00991822,1.38503171,0.25437406,3.09953498,-1.61817820,-3.13193520,0.00839233,1.38808346,0.25367737,-0.00488281,0.00488281,0.00488281,-0.01464844,-0.02929688,-0.01464844,-1.94015503,1.41411635,0.80070496,0.87890625
2.51224136,860,3.09991645,-1.61207469,-3.13346108,0.00991821,1.38503171,0.25405884,3.09991645,-1.61247616,-3.13346109,0.00991821,1.38503171,0.25431106,3.09953498,-1.61779673,-3.13193520,0.00839233,1.38732052,0.25367737,-0.00488281,0.00488281,0.00488281,0.01464844,-0.02929688,-0.01464844,-1.94053650,1.43411635,0.81672668,0.75683594
2.53019190,865,3.09991645,-1.61207469,-3.13346108,0.00991821,1.38503171,0.25444031,3.09991645,-1.61246271,-3.13346108,0.00991821,1.38503171,0.25439795,3.09953498,-1.61779673,-3.13193520,0.00839233,1.38732052,0.25367737,-0.00976562,0.00000000,-0.00000000,0.00000000,-0.00000000,-0.01464844,-1.94015503,1.45411635,0.82664490,0.70800781
2.54447556,870,3.09991645,-1.61207469,-3.13346108,0.00953674,1.38503171,0.25444031,3.09991645,-1.61245830,-3.13346108,0.00978088,1.38503171,0.25442643,3.09953498,-1.61779673,-3.13193520,0.00839233,1.38693905,0.25367737,-0.00976562,0.00488281,0.00488281,0.00000000,0.01464844,-0.01464844,-1.94053650,1.47411635,0.84152222,0.95214844
2.56003857,875,3.09991645,-1.61207469,-3.13307961,0.00915527,1.38503171,0.25444031,3.09991645,-1.61245686,-3.13338478,0.00943059,1.38503171,0.25443576,3.09953498,-1.61779673,-3.13193520,0.00839233,1.38693905,0.25367737,-0.00488281,-0.00488281,0.00488281,0.00000000,0.01464844,0.00000000,-1.94053650,1.49411635,0.85182190,0.58593750
2.57619739,880,3.09991645,-1.61207469,-3.13307961,0.00877380,1.38503171,0.25444031,3.09991645,-1.61245639,-3.13317961,0.00898902,1.38503171,0.25443882,3.09953498,-1.61741526,-3.13193520,0.00877380,1.38693905,0.25367737,-0.00488281,0.00000000,0.00488281,-0.01464844,0.02929688,-0.02929688,-1.94053650,1.51411635,0.86097717,0.78125000
2.59053779,885,3.09991645,-1.61169322,-3.13193520,0.00877380,1.38503171,0.25520325,3.09991645,-1.61237994,-3.13255439,0.00884433,1.38503171,0.25474133,3.09953498,-1.61741526,-3.13193520,0.00839233,1.38693905,0.25367737,-0.00488281,-0.00488281,-0.00000000,-0.02929688,0.02929688,0.00000000,-1.94053650,1.53411635,0.87699890,0.87890625
2.60621881,890,3.09991645,-1.61169322,-3.13117226,0.00877380,1.38465024,0.25596619,3.09991645,-1.61217471,-3.13169547,0.00879691,1.38477524,0.25541444,3.09953498,-1.61741526,-3.13193520,0.00877380,1.38693905,0.25367737,0.00000000,0.00000000,-0.00000000,-0.02929688,0.01464844,-0.01464844,-1.94053650,1.55411635,0.88882446,0.63476562
2.62147260,895,3.09991645,-1.61169322,-3.13002785,0.00877380,1.38388730,0.25749207,3.09991645,-1.61210746,-3.13082478,0.00878138,1.38429740,0.25652953,3.09953498,-1.61741526,-3.13193520,0.00877380,1.38693905,0.25367737,0.00000000,-0.00488281,0.00488281,-0.01464844,0.01464844,0.00000000,-1.94053650,1.57411635,0.90026855,0.83007812
2.63735771,900,3.09991645,-1.61131175,-3.12926491,0.00877380,1.38350583,0.25749207,3.09991645,-1.61194810,-3.12989519,0.00877628,1.38394538,0.25723770,3.09953498,-1.61741526,-3.13193520,0.00877380,1.38655758,0.25405884,-0.00488281,-0.00488281,0.00488281,-0.01464844,-0.00000000,0.01464844,-1.94053650,1.59411635,0.91094971,0.80566406
2.64951491,905,3.09991645,-1.61093028,-3.12850197,0.00877380,1.38312436,0.25749207,3.09991645,-1.61163941,-3.12902881,0.00871358,1.38342464,0.25740871,3.09953498,-1.61741526,-3.13193520,0.00877380,1.38617611,0.25405884,-0.00488281,0.00000000,-0.00000000,-0.01464844,-0.00000000,0.00000000,-1.94053650,1.61411635,0.92353821,0.78125000
2.66756940,910,3.09991645,-1.61016734,-3.12659462,0.00877380,1.38312436,0.25749207,3.09991645,-1.61111760,-3.12779314,0.00857389,1.38322275,0.25746475,3.09953498,-1.61741526,-3.13193520,0.00877380,1.38579464,0.25444031,-0.00488281,0.00488281,0.00976562,0.00000000,-0.02929688,0.00000000,-1.94053650,1.63411635,0.93879700,0.90332031
2.68494749,915,3.09991645,-1.61016734,-3.12468727,0.00877380,1.38312436,0.25749207,3.09991645,-1.61073519,-3.12605705,0.00870830,1.38315660,0.25748312,3.09953498,-1.61741526,-3.13193520,0.00877380,1.38541318,0.25482178,-0.00976562,0.00488281,-0.00000000,-0.01464844,-0.02929688,0.02929688,-1.94091797,1.65411635,0.94947815,0.73242188
2.69870663,920,3.09991645,-1.60978587,-3.12316140,0.00877380,1.38312436,0.25749207,3.09991645,-1.61053359,-3.12437001,0.00875234,1.38313492,0.25748913,3.09953498,-1.61703379,-3.13193520,0.00839233,1.38503171,0.25596619,-0.00976562,0.00976562,0.00488281,-0.01464844,-0.02929688,0.07324219,-1.94053650,1.67411635,0.96244812,0.92773438
2.71370173,925,3.09991645,-1.60940440,-3.12125405,0.00877380,1.38274289,0.25749207,3.09991645,-1.61015002,-3.12260565,0.00876677,1.38305152,0.25760097,3.09953498,-1.61665232,-3.13193520,0.00877380,1.38465024,0.25749207,-0.00488281,0.01953125,0.00976562,-0.01464844,-0.01464844,0.08789062,-1.94053650,1.69411635,0.97541809,0.65917969
2.72945929,930,3.09991645,-1.60864146,-3.11896523,0.00877380,1.38197995,0.25749207,3.09991645,-1.60946257,-3.12054142,0.00877150,1.38258157,0.25752775,3.09953498,-1.61665232,-3.13193520,0.00877380,1.38426877,0.25749207,-0.00488281,0.00488281,0.00976562,-0.01464844,-0.01464844,-0.01464844,-1.94053650,1.71411635,0.98419189,0.73242188
2.74429941,935,3.09991645,-1.60825999,-3.11705788,0.00877380,1.38083554,0.25749207,3.09991645,-1.60909070,-3.11870034,0.00877305,1.38183834,0.25750376,3.09953498,-1.61627085,-3.13193520,0.00877380,1.38350583,0.25749207,-0.00488281,0.00976562,0.00488281,-0.01464844,-0.01464844,-0.01464844,-1.94053650,1.73411635,1.00021362,1.00097656
2.75666428,940,3.09991645,-1.60825999,-3.11591347,0.00877380,1.38045407,0.25749207,3.09991645,-1.60878867,-3.11709620,0.00877356,1.38102681,0.25749590,3.09953498,-1.61627085,-3.13193520,0.00839233,1.38350583,0.25749207,-0.00488281,0.00976562,-0.00000000,-0.02929688,0.01464844,-0.01464844,-1.94053650,1.75411635,1.01013184,0.70800781
2.77007651,945,3.09991645,-1.60711558,-3.11362465,0.00877380,1.38007260,0.25749207,3.09991645,-1.60821960,-3.11534327,0.00877372,1.38038527,0.25749332,3.09953498,-1.61588938,-3.13193520,0.00877380,1.38350583,0.25749207,-0.00488281,0.01464844,0.00488281,0.00000000,-0.00000000,-0.01464844,-1.94091797,1.77411635,1.01966858,0.73242188
2.78585863,950,3.09991645,-1.60635264,-3.11171730,0.00877380,1.37930966,0.25749207,3.09991645,-1.60741033,-3.11331561,0.00877378,1.37985157,0.25749248,3.09953498,-1.61588938,-3.13193520,0.00839233,1.38350583,0.25749207,-0.00488281,0.00488281,0.01464844,-0.02929688,0.01464844,-0.02929688,-1.94053650,1.79411635,1.03111267,0.85449219
2.80171299,955,3.09991645,-1.60558970,-3.10942849,0.00877380,1.37854672,0.25749207,3.09991645,-1.60662293,-3.11114216,0.00877380,1.37915447,0.25749220,3.09953498,-1.61550791,-3.13155373,0.00839233,1.38312436,0.25749207,-0.00488281,0.00488281,0.01953125,-0.01464844,0.01464844,-0.01464844,-1.94053650,1.81411635,1.04484558,0.51269531
2.81504416,960,3.09991645,-1.60482676,-3.10790261,0.00877380,1.37892819,0.25749207,3.09991645,-1.60588323,-3.10929471,0.00877380,1.37894130,0.25749211,3.09953498,-1.61550791,-3.13155373,0.00877380,1.38312436,0.25749207,-0.00488281,0.00000000,0.01953125,-0.01464844,-0.00000000,-0.02929688,-1.94053650,1.83411635,1.05476379,0.78125000
2.83272386,965,3.09991645,-1.60368235,-3.10599526,0.00839233,1.37892819,0.25749207,3.09991645,-1.60481040,-3.10747730,0.00863647,1.37882262,0.25749208,3.09953498,-1.61550791,-3.13117226,0.00839233,1.38274289,0.25749207,-0.00488281,0.00000000,0.01953125,-0.01464844,0.01464844,-0.01464844,-1.94053650,1.85411635,1.06964111,0.90332031
2.84745145,970,3.09991645,-1.60253794,-3.10408791,0.00839233,1.37892819,0.25711060,3.09991645,-1.60378954,-3.10556036,0.00847233,1.37889360,0.25741578,3.09953498,-1.61512644,-3.13079079,0.00839233,1.38274289,0.25749207,-0.00488281,0.00976562,0.03417969,-0.01464844,0.01464844,-0.02929688,-1.94091797,1.87411635,1.08108521,0.58593750
2.86227393,975,3.09991645,-1.60139353,-3.10179909,0.00839233,1.37892819,0.25711060,3.09991645,-1.60276569,-3.10343246,0.00841855,1.37891685,0.25739077,3.09953498,-1.61512644,-3.13040932,0.00877380,1.38236142,0.25749207,-0.00488281,0.00976562,0.03906250,-0.01464844,-0.01464844,-0.01464844,-1.94168091,1.89411635,1.09291077,0.85449219
2.87556481,980,3.09991645,-1.60063060,-3.09989174,0.00762939,1.37854672,0.25749207,3.09991645,-1.60173708,-3.10139181,0.00809941,1.37873832,0.25745887,3.09953498,-1.61474498,-3.13002785,0.00877380,1.38236142,0.25749207,-0.01464844,0.00976562,0.05371094,-0.01464844,0.02929688,-0.01464844,-1.94206238,1.91411635,1.10473633,0.80566406
2.89050174,985,3.09991645,-1.59910472,-3.09722145,0.00724792,1.37892819,0.25711060,3.09991645,-1.60059339,-3.09905919,0.00759725,1.37883472,0.25740490,3.09953498,-1.61436351,-3.12926491,0.00877380,1.38236142,0.25749207,-0.00488281,0.01464844,0.03417969,-0.01464844,0.01464844,0.00000000,-1.94206238,1.93411635,1.11694336,0.65917969
2.90462112,990,3.09991645,-1.59872325,-3.09569558,0.00686646,1.37892819,0.25711060,3.09991645,-1.59966284,-3.09705753,0.00717624,1.37889756,0.25733838,3.09953498,-1.61436351,-3.12888344,0.00839233,1.38236142,0.25749207,-0.00488281,0.01953125,0.05859375,0.00000000,0.01464844,-0.02929688,-1.94206238,1.94663978,1.12533569,0.73242188
2.92025208,995,3.09991645,-1.59681590,-3.09226235,0.00534058,1.37892819,0.25711060,3.09991645,-1.59840613,-3.09460414,0.00634296,1.37891815,0.25730438,3.09953498,-1.61360057,-3.12773903,0.00839233,1.38159848,0.25749207,-0.00488281,0.01464844,0.06347656,0.00000000,-0.04394531,-0.02929688,-1.94206238,1.95080595,1.14021301,0.83007812
2.93669367,1000,3.09991645,-1.59643443,-3.08997353,0.00381470,1.37892819,0.25749207,3.09991645,-1.59745613,-3.09186198,0.00489511,1.37892490,0.25734267,3.09953498,-1.61360057,-3.12735756,0.00877380,1.38083554,0.25749207,-0.00488281,0.01953125,0.03417969,0.00000000,-0.02929688,-0.01464844,-1.94206238,1.95210862,1.14974976,0.83007812
2.94927835,1005,3.09991645,-1.59529002,-3.08692177,0.00305176,1.37892819,0.25711060,3.09991645,-1.59650677,-3.08915288,0.00372610,1.37892711,0.25723547,3.09953498,-1.61283763,-3.12659462,0.00839233,1.38083554,0.25749207,-0.00488281,0.03906250,0.04394531,-0.01464844,0.01464844,-0.02929688,-1.94244385,1.95226083,1.16462708,0.80566406
2.96346545,1010,3.09991645,-1.59452708,-3.08387001,0.00190735,1.37892819,0.25711060,3.09991645,-1.59561243,-3.08642337,0.00286367,1.37892784,0.25715151,3.09953498,-1.61283763,-3.12621315,0.00839233,1.38045407,0.25749207,-0.00976562,0.01464844,0.04882812,-0.01464844,-0.00000000,-0.01464844,-1.94206238,1.95258536,1.17416382,0.70800781
2.97730875,1015,3.09991645,-1.59376414,-3.08043679,0.00038147,1.37892819,0.25711060,3.09991645,-1.59477665,-3.08320023,0.00155665,1.37892807,0.25712400,3.09953498,-1.61245616,-3.12545021,0.00839233,1.38045407,0.25749207,0.00000000,0.01953125,0.04394531,-0.02929688,-0.00000000,-0.01464844,-1.94206238,1.95269170,1.18446350,0.80566406
2.99285865,1020,3.09991645,-1.59300120,-3.07738503,-0.00038147,1.37892819,0.25711060,3.09991645,-1.59387070,-3.07993411,0.00046504,1.37892815,0.25716382,3.09953498,-1.61207469,-3.12468727,0.00801086,1.38045407,0.25749207,0.00000000,0.01953125,0.05859375,-0.02929688,0.01464844,-0.02929688,-1.94206238,1.95272655,1.19743347,0.78125000
3.00785327,1025,3.09991645,-1.59223826,-3.07395180,-0.00038147,1.37892819,0.25711060,3.09991645,-1.59324107,-3.07692380,-0.00010409,1.37892818,0.25712804,3.09953498,-1.61207469,-3.12354287,0.00801086,1.38045407,0.25749207,0.00000000,0.00488281,0.06347656,-0.01464844,0.01464844,-0.01464844,-1.94244385,1.95258538,1.20925903,0.65917969
3.02255201,1030,3.09991645,-1.59147532,-3.07090004,-0.00114441,1.37892819,0.25711060,3.09991645,-1.59241196,-3.07348768,-0.00065313,1.37892819,0.25711631,3.09953498,-1.61169322,-3.12277993,0.00801086,1.38045407,0.25749207,-0.00488281,0.00976562,0.08300781,-0.02929688,0.01464844,-0.02929688,-1.94244385,1.95217877,1.22184753,0.87890625
3.03841758,1035,3.09991645,-1.59109385,-3.06708535,-0.00190735,1.37892819,0.25711060,3.09991645,-1.59185255,-3.07013395,-0.00137722,1.37892819,0.25711247,3.09953498,-1.61131175,-3.12163552,0.00801086,1.38007260,0.25749207,-0.00488281,0.01953125,0.05859375,-0.02929688,-0.01464844,-0.01464844,-1.94244385,1.95194787,1.23519897,0.65917969
3.05121040,1040,3.09991645,-1.59071238,-3.06365212,-0.00267029,1.37854672,0.25711060,3.09991645,-1.59141277,-3.06649972,-0.00209619,1.37874203,0.25711121,3.09953498,-1.61093028,-3.12087258,0.00762939,1.38045407,0.25749207,-0.00488281,0.02441406,0.08300781,-0.02929688,0.02929688,-0.02929688,-1.94244385,1.95196987,1.24168396,0.65917969
3.06928468,1045,3.09991645,-1.59071238,-3.05831154,-0.00381470,1.37702084,0.25711060,3.09991645,-1.59119836,-3.06196681,-0.00300109,1.37786658,0.25711080,3.09953498,-1.61054881,-3.11972817,0.00724792,1.38007260,0.25749207,-0.00488281,0.03906250,0.04882812,-0.02929688,-0.00000000,-0.01464844,-1.94244385,1.95197708,1.26152039,1.02539062
3.08344269,1050,3.09991645,-1.59071238,-3.05487831,-0.00419617,1.37511349,0.25711060,3.09991645,-1.59112810,-3.05783242,-0.00377331,1.37641650,0.25711066,3.09953498,-1.60978587,-3.11820229,0.00724792,1.38007260,0.25749207,-0.00488281,0.02441406,0.08789062,-0.02929688,-0.00000000,-0.01464844,-1.94244385,1.95197944,1.27143860,0.51269531
3.10240293,1055,3.09991645,-1.59071238,-3.04839333,-0.00495911,1.37129880,0.25711060,3.09991645,-1.59110507,-3.05265918,-0.00445141,1.37378680,0.25711062,3.09953498,-1.60902293,-3.11705788,0.00686646,1.37969113,0.25749207,-0.00488281,0.03906250,0.09277344,-0.04394531,-0.00000000,0.01464844,-1.94244385,1.95198021,1.28517151,0.85449219
3.12170887,1060,3.09991645,-1.59071238,-3.04190834,-0.00495911,1.36595822,0.25711060,3.09991645,-1.59109753,-3.04706301,-0.00479274,1.36996587,0.25711060,3.09953498,-1.60864146,-3.11515053,0.00534058,1.37930966,0.25749207,-0.00488281,0.02929688,0.11230469,-0.10253906,0.01464844,0.00000000,-1.94244385,1.95198047,1.30157471,0.68359375
3.13459325,1065,3.09991645,-1.59071238,-3.03885659,-0.00534058,1.36328793,0.25711060,3.09991645,-1.59109506,-3.04223756,-0.00504192,1.36609774,0.25711060,3.09953498,-1.60825999,-3.11400612,0.00457764,1.37930966,0.25749207,-0.00488281,0.02441406,0.08789062,-0.10253906,-0.02929688,-0.02929688,-1.94282532,1.95160824,1.30996704,0.68359375
3.14986038,1070,3.09991645,-1.59071238,-3.03275307,-0.00534058,1.35947323,0.25749207,3.09991645,-1.59109425,-3.03730480,-0.00520365,1.36262589,0.25718689,3.09953498,-1.60787852,-3.11248024,0.00381470,1.37892819,0.25749207,0.00000000,0.01464844,0.10253906,-0.05859375,-0.00000000,-0.01464844,-1.94282532,1.95126751,1.32369995,0.92773438
3.16464567,1075,3.09991645,-1.59071238,-3.02855690,-0.00572205,1.35527707,0.25711060,3.09991645,-1.59109398,-3.03234431,-0.00552093,1.35866706,0.25713560,3.09953498,-1.60749705,-3.11133583,0.00343323,1.37778378,0.25749207,-0.00488281,0.01953125,0.10253906,-0.05859375,-0.07324219,-0.01464844,-1.94282532,1.95111192,1.33590698,0.85449219
3.17917252,1080,3.09991645,-1.59071238,-3.02207192,-0.00610352,1.34955502,0.25711060,3.09991645,-1.59109389,-3.02671630,-0.00579347,1.35374886,0.25711879,3.09953498,-1.60711558,-3.10942849,0.00305176,1.37549496,0.25749207,-0.00488281,0.00488281,0.11230469,-0.01464844,-0.13183594,-0.01464844,-1.94320679,1.95073257,1.34506226,0.68359375
3.19288468,1085,3.09991645,-1.59071238,-3.01673134,-0.00686646,1.34383297,0.25711060,3.09991645,-1.59109387,-3.02137626,-0.00636447,1.34863544,0.25711328,3.09953498,-1.60711558,-3.10828408,0.00267029,1.37396908,0.25749207,-0.00488281,0.00488281,0.09765625,-0.04394531,-0.11718750,-0.01464844,-1.94320679,1.95054576,1.35841370,0.90332031
3.20913172,1090,3.09991645,-1.59071238,-3.00910195,-0.00724792,1.33582211,0.25711060,3.09991645,-1.59109386,-3.01530905,-0.00688812,1.34241727,0.25714273,3.09953498,-1.60673411,-3.10637673,0.00152588,1.37244320,0.25749207,-0.00488281,0.00976562,0.10253906,-0.10253906,-0.05859375,0.00000000,-1.94320679,1.95048455,1.36909485,0.75683594
3.22194529,1095,3.09991645,-1.59071238,-3.00414284,-0.00762939,1.33124447,0.25711060,3.09991645,-1.59109385,-3.00860647,-0.00731618,1.33567901,0.25712112,3.09953498,-1.60673411,-3.10485085,0.00038147,1.37168027,0.25749207,-0.00488281,0.01953125,0.13183594,-0.10253906,-0.04394531,-0.01464844,-1.94320679,1.95046449,1.38130188,0.73242188
3.23572159,1100,3.09991645,-1.59071238,-2.99651345,-0.00762939,1.32285214,0.25711060,3.09991645,-1.59109385,-3.00173146,-0.00752676,1.32860994,0.25711405,3.09953498,-1.60635264,-3.10332497,-0.00076294,1.36977292,0.25749207,0.00000000,0.00976562,0.14648438,-0.10253906,-0.11718750,-0.01464844,-1.94282532,1.95067300,1.39274597,0.75683594
3.25183511,1105,3.09991645,-1.59071238,-2.98812111,-0.00762939,1.31293393,0.25711060,3.09991645,-1.59109385,-2.99456093,-0.00759576,1.32046127,0.25711173,3.09953498,-1.60635264,-3.10065468,-0.00114441,1.36672116,0.25749207,0.00000000,0.00976562,0.15625000,-0.04394531,-0.19042969,0.00000000,-1.94282532,1.95091711,1.40495300,0.70800781
3.26638651,1110,3.09991645,-1.59071238,-2.98049172,-0.00762939,1.30492306,0.25711060,3.09991645,-1.59109385,-2.98691491,-0.00761837,1.31205661,0.25711097,3.09953498,-1.60597117,-3.09836586,-0.00152588,1.36252499,0.25749207,-0.00488281,0.02441406,0.14648438,-0.02929688,-0.24902344,-0.01464844,-1.94282532,1.95104105,1.41868591,0.80566406
3.28197289,1115,3.09991645,-1.59071238,-2.97248085,-0.00801086,1.29576779,0.25711060,3.09991645,-1.59109385,-2.97892154,-0.00775091,1.30307601,0.25711072,3.09953498,-1.60520823,-3.09607704,-0.00228882,1.35718442,0.25749207,-0.00488281,0.02929688,0.14160156,-0.04394531,-0.36621094,-0.01464844,-1.94282532,1.95115978,1.42974854,0.68359375
3.29625845,1120,3.09991645,-1.59071238,-2.96332558,-0.00801086,1.28508664,0.25711060,3.09991645,-1.59109385,-2.97048733,-0.00792568,1.29328315,0.25711064,3.09953498,-1.60482676,-3.09416970,-0.00267029,1.35222531,0.25749207,-0.00976562,0.01953125,0.16113281,-0.04394531,-0.33691406,-0.01464844,-1.94282532,1.95119869,1.43852234,0.73242188
3.31033874,1125,3.09991645,-1.59071238,-2.95455178,-0.00801086,1.27593136,0.25672913,3.09991645,-1.59109385,-2.96165293,-0.00798295,1.28363771,0.25691517,3.09953498,-1.60444529,-3.09188088,-0.00267029,1.34726620,0.25749207,0.00000000,0.01953125,0.16113281,-0.01464844,-0.26367188,-0.01464844,-1.94282532,1.95121144,1.45378113,0.90332031
3.32360005,1130,3.09991645,-1.59071238,-2.94730385,-0.00801086,1.26792050,0.25711060,3.09991645,-1.59109385,-2.95340908,-0.00800172,1.27459317,0.25697625,3.09953498,-1.60444529,-3.09035500,-0.00305176,1.34459591,0.25749207,-0.00976562,0.00976562,0.16601562,-0.02929688,-0.19042969,0.00000000,-1.94282532,1.95131327,1.46179199,0.63476562
3.33689237,1135,3.09991645,-1.59071238,-2.94043740,-0.00801086,1.25952817,0.25711060,3.09991645,-1.59109385,-2.94584616,-0.00800787,1.26588264,0.25706657,3.09953498,-1.60406382,-3.08768471,-0.00343323,1.34154416,0.25711060,-0.00488281,0.00488281,0.20019531,-0.02929688,-0.29296875,-0.01464844,-1.94244385,1.95176192,1.46980286,0.78125000
3.34866977,1140,3.09991645,-1.59071238,-2.93128212,-0.00801086,1.25113583,0.25672913,3.09991645,-1.59109385,-2.93767751,-0.00800988,1.25735283,0.25692759,3.09953498,-1.60406382,-3.08501442,-0.00343323,1.33658505,0.25711060,-0.00488281,0.00488281,0.21484375,-0.02929688,-0.32226562,-0.01464844,-1.94244385,1.95190894,1.48353577,0.95214844
3.36453485,1145,3.09991645,-1.59071238,-2.92174538,-0.00801086,1.24159909,0.25672913,3.09991645,-1.59109385,-2.92865108,-0.00801054,1.24857329,0.25688205,3.09953498,-1.60406382,-3.08158120,-0.00381470,1.33048153,0.25711060,-0.00488281,0.00488281,0.20019531,-0.01464844,-0.38085938,-0.01464844,-1.94206238,1.95247005,1.49421692,0.48828125
3.38049364,1150,3.09991645,-1.59071238,-2.91373452,-0.00801086,1.23282528,0.25711060,3.09991645,-1.59109385,-2.92005792,-0.00801076,1.23963256,0.25703571,3.09953498,-1.60368235,-3.07929238,-0.00381470,1.32437802,0.25711060,-0.00488281,0.01464844,0.18554688,-0.02929688,-0.42480469,-0.01464844,-1.94206238,1.95265392,1.50451660,0.80566406
3.39323759,1155,3.09991645,-1.59071238,-2.90457924,-0.00801086,1.22519589,0.25672913,3.09991645,-1.59109385,-2.91159270,-0.00801083,1.23158617,0.25693945,3.09953498,-1.60330088,-3.07662209,-0.00381470,1.31827450,0.25711060,-0.00488281,0.00976562,0.20019531,-0.01464844,-0.42480469,-0.01464844,-1.94206238,1.95271417,1.51634216,0.95214844
3.40524817,1160,3.09991645,-1.59071238,-2.89733132,-0.00801086,1.21871090,0.25711060,3.09991645,-1.59109385,-2.90364218,-0.00801085,1.22442694,0.25705451,3.09953498,-1.60330088,-3.07395180,-0.00419617,1.31140805,0.25711060,-0.00488281,0.00976562,0.20507812,-0.02929688,-0.51269531,-0.01464844,-1.94206238,1.95273391,1.52854919,0.63476562
3.41935825,1165,3.09991645,-1.59071238,-2.88893898,-0.00801086,1.21031857,0.25711060,3.09991645,-1.59109385,-2.89619296,-0.00801086,1.21737764,0.25706097,3.09953498,-1.60291941,-3.07013710,-0.00419617,1.30377865,0.25711060,-0.00488281,0.01464844,0.24414062,-0.02929688,-0.51269531,-0.01464844,-1.94206238,1.95274038,1.53884888,0.75683594
3.43365622,1170,3.09991645,-1.59071238,-2.87978371,-0.00801086,1.20345212,0.25711060,3.09991645,-1.59109385,-2.88728032,-0.00801086,1.20928574,0.25697519,3.09953498,-1.60291941,-3.06708535,-0.00419617,1.29805661,0.25711060,-0.00488281,0.00976562,0.25878906,-0.02929688,-0.41015625,0.01464844,-1.94206238,1.95250422,1.55105591,0.90332031
3.44719124,1175,3.09991645,-1.59071238,-2.87406166,-0.00801086,1.20001889,0.25672913,3.09991645,-1.59109385,-2.87972909,-0.00801086,1.20392801,0.25698993,3.09953498,-1.60253794,-3.06365212,-0.00457764,1.29347897,0.25711060,-0.00488281,0.01464844,0.26367188,-0.02929688,-0.29296875,-0.01464844,-1.94206238,1.95260261,1.56173706,0.80566406
3.46192837,1180,3.09991645,-1.59071238,-2.86528786,-0.00801086,1.19391537,0.25711060,3.09991645,-1.59109385,-2.87155268,-0.00801086,1.19825784,0.25698317,3.09953498,-1.60215647,-3.05983742,-0.00495911,1.28699399,0.25711060,-0.00976562,0.01953125,0.23437500,-0.02929688,-0.42480469,-0.02929688,-1.94206238,1.95269735,1.57203674,0.68359375
3.47615290,1185,3.09991645,-1.59071238,-2.85880287,-0.00801086,1.18933774,0.25672913,3.09991645,-1.59109385,-2.86425514,-0.00801086,1.19328314,0.25693151,3.09953498,-1.60215647,-3.05602272,-0.00534058,1.27974606,0.25711060,0.00000000,0.01464844,0.28808594,-0.04394531,-0.52734375,-0.02929688,-1.94206238,1.95272840,1.58348083,0.90332031
3.48941374,1190,3.09991645,-1.59071238,-2.85193642,-0.00801086,1.18476010,0.25672913,3.09991645,-1.59109385,-2.85730017,-0.00801086,1.18843037,0.25679544,3.09953498,-1.60177500,-3.05297097,-0.00534058,1.27364255,0.25711060,-0.00488281,0.00976562,0.25390625,-0.05859375,-0.54199219,-0.02929688,-1.94206238,1.95273857,1.59454346,0.70800781
3.50677395,1195,3.09991645,-1.59071238,-2.84392556,-0.00801086,1.17980099,0.25672913,3.09991645,-1.59109385,-2.84969536,-0.00801086,1.18363257,0.25675086,3.09953498,-1.60139353,-3.04991921,-0.00610352,1.26639462,0.25711060,-0.00488281,0.00488281,0.26855469,-0.05859375,-0.43945312,-0.01464844,-1.94206238,1.95254171,1.60675049,0.70800781
3.52625895,1200,3.09991645,-1.59071238,-2.83667763,-0.00839233,1.17789364,0.25672913,3.09991645,-1.59109385,-2.84239396,-0.00808716,1.18002613,0.25673625,3.09953498,-1.60139353,-3.04534157,-0.00686646,1.25914670,0.25711060,0.00000000,0.00976562,0.25390625,-0.08789062,-0.41015625,-0.01464844,-1.94244385,1.95216446,1.62048340,0.78125000
3.53706956,1205,3.09991645,-1.59071238,-2.82981118,-0.00839233,1.17713070,0.25672913,3.09991645,-1.59109385,-2.83528342,-0.00829233,1.17841004,0.25673146,3.09953498,-1.60101206,-3.04038246,-0.00762939,1.25151730,0.25711060,-0.00488281,0.00488281,0.26855469,-0.04394531,-0.43945312,0.00000000,-1.94282532,1.95176618,1.63269043,0.80566406
3.55385423,1210,3.09991645,-1.59071238,-2.82294472,-0.00877380,1.17484189,0.25711060,3.09991645,-1.59109385,-2.82838972,-0.00861604,1.17665026,0.25684525,3.09953498,-1.60101206,-3.03504189,-0.00801086,1.24541379,0.25711060,-0.00488281,0.00488281,0.29785156,-0.02929688,-0.35156250,-0.01464844,-1.94320679,1.95124481,1.64871216,0.73242188
3.56961131,1215,3.09991645,-1.59071238,-2.81531533,-0.00877380,1.17255307,0.25672913,3.09991645,-1.59109385,-2.82148382,-0.00872211,1.17462562,0.25676718,3.09953498,-1.60063060,-3.03237160,-0.00839233,1.24083615,0.25711060,-0.00488281,0.00976562,0.26855469,-0.02929688,-0.27832031,-0.01464844,-1.94282532,1.95122655,1.65748596,0.73242188
3.58383060,1220,3.09991645,-1.59071238,-2.80997475,-0.00877380,1.17102719,0.25672913,3.09991645,-1.59109385,-2.81481831,-0.00875686,1.17254617,0.25674159,3.09953498,-1.60063060,-3.02741249,-0.00839233,1.23702145,0.25711060,-0.00488281,0.00488281,0.25878906,-0.02929688,-0.29296875,-0.02929688,-1.94282532,1.95122057,1.67312622,1.00097656
3.59785771,1225,3.09991645,-1.59071238,-2.80272683,-0.00915527,1.16950131,0.25711060,3.09991645,-1.59109385,-2.80797119,-0.00890558,1.17064944,0.25695843,3.09953498,-1.60024913,-3.02321633,-0.00839233,1.23168088,0.25711060,-0.00488281,0.00488281,0.32714844,0.00000000,-0.30761719,0.00000000,-1.94282532,1.95121861,1.68190002,0.61035156
3.61315155,1230,3.09991645,-1.59071238,-2.79624184,-0.00953674,1.16721249,0.25711060,3.09991645,-1.59109385,-2.80143785,-0.00925961,1.16884896,0.25706073,3.09953498,-1.60024913,-3.01902016,-0.00839233,1.22595883,0.25711060,-0.00488281,0.00488281,0.29296875,-0.02929688,-0.45410156,-0.01464844,-1.94282532,1.95121796,1.69219971,0.70800781
3.62639141,1235,3.09991645,-1.59071238,-2.79090126,-0.00991821,1.16606808,0.25672913,3.09991645,-1.59109385,-2.79565663,-0.00967115,1.16734895,0.25696914,3.09953498,-1.59986766,-3.01482399,-0.00839233,1.22061825,0.25711060,-0.00488281,0.01464844,0.29785156,-0.01464844,-0.35156250,-0.01464844,-1.94282532,1.95141795,1.70707703,0.97656250
3.63906503,1240,3.09991645,-1.59071238,-2.78556069,-0.01068115,1.16492367,0.25672913,3.09991645,-1.59109385,-2.78977371,-0.01027988,1.16593909,0.25683902,3.09953498,-1.59948619,-3.01177224,-0.00839233,1.21680356,0.25711060,-0.00488281,0.00976562,0.28320312,-0.01464844,-0.23437500,-0.01464844,-1.94282532,1.95128328,1.71661377,0.56152344
3.65427542,1245,3.09991645,-1.59071238,-2.77869423,-0.01182556,1.16263485,0.25672913,3.09991645,-1.59109385,-2.78387847,-0.01110765,1.16434747,0.25676514,3.09953498,-1.59948619,-3.00681313,-0.00877380,1.21413327,0.25711060,-0.00488281,0.00976562,0.27343750,-0.02929688,-0.19042969,-0.01464844,-1.94282532,1.95123916,1.72729492,0.75683594
3.66869092,1250,3.09991645,-1.59071238,-2.77259072,-0.01220703,1.15996457,0.25672913,3.09991645,-1.59109385,-2.77759710,-0.01172764,1.16207898,0.25674093,3.09953498,-1.59910472,-3.00223549,-0.00915527,1.21070004,0.25711060,0.00000000,0.00488281,0.32226562,-0.02929688,-0.19042969,-0.01464844,-1.94282532,1.95122470,1.74179077,0.97656250
3.68157244,1255,3.09991645,-1.59071238,-2.76572426,-0.01335144,1.15729428,0.25672913,3.09991645,-1.59109385,-2.77116554,-0.01262990,1.15950129,0.25684286,3.09953498,-1.59910472,-2.99880226,-0.00953674,1.20764828,0.25711060,-0.00488281,0.00000000,0.32226562,-0.04394531,-0.23437500,-0.01464844,-1.94282532,1.95121996,1.74942017,0.63476562
3.69623709,1260,3.09991645,-1.59071238,-2.75923928,-0.01525879,1.15386105,0.25672913,3.09991645,-1.59109385,-2.76472003,-0.01399648,1.15640163,0.25687626,3.09953498,-1.59910472,-2.99384316,-0.00991821,1.20421506,0.25711060,-0.00488281,0.00976562,0.29296875,-0.05859375,-0.21972656,-0.01464844,-1.94282532,1.95121841,1.76086426,0.78125000
3.71194696,1265,3.09991645,-1.59071238,-2.75275429,-0.01640320,1.15080929,0.25672913,3.09991645,-1.59109385,-2.75783831,-0.01551300,1.15319306,0.25677734,3.09953498,-1.59872325,-2.98926552,-0.01068115,1.20116330,0.25711060,-0.00488281,0.00976562,0.33203125,-0.08789062,-0.23437500,-0.01464844,-1.94282532,1.95139368,1.77421570,0.90332031
3.72813129,1270,3.09991645,-1.59071238,-2.74398049,-0.01792908,1.14546872,0.25672913,3.09991645,-1.59109385,-2.75023773,-0.01688689,1.14903499,0.25674492,3.09953498,-1.59872325,-2.98430641,-0.01106262,1.19467831,0.25711060,-0.00488281,0.00000000,0.34179688,0.00000000,-0.35156250,-0.02929688,-1.94282532,1.95137299,1.78680420,0.65917969
3.74314499,1275,3.09991645,-1.59071238,-2.73787697,-0.01945496,1.14279843,0.25711060,3.09991645,-1.59109385,-2.74309043,-0.01824382,1.14525218,0.25684185,3.09953498,-1.59872325,-2.97934731,-0.01106262,1.18971921,0.25672913,-0.00488281,0.00000000,0.30761719,-0.02929688,-0.24902344,0.00000000,-1.94282532,1.95134668,1.80015564,0.83007812
3.75629330,1280,3.09991645,-1.59071238,-2.73139199,-0.02098083,1.13936520,0.25672913,3.09991645,-1.59109385,-2.73668822,-0.01972215,1.14205694,0.25682710,3.09953498,-1.59834178,-2.97515114,-0.01106262,1.18819333,0.25672913,0.00000000,0.00488281,0.30761719,-0.02929688,-0.13183594,-0.01464844,-1.94244385,1.95169475,1.81045532,0.73242188
3.77203774,1285,3.09991645,-1.59071238,-2.72452553,-0.02288818,1.13440610,0.25711060,3.09991645,-1.59109385,-2.73026344,-0.02144986,1.13804545,0.25683752,3.09953498,-1.59834178,-2.97095497,-0.01144409,1.18666745,0.25711060,0.00000000,0.00488281,0.33691406,-0.02929688,-0.11718750,-0.01464844,-1.94244385,1.95170235,1.82151794,0.78125000
3.78580999,1290,3.09991645,-1.59071238,-2.71727761,-0.02441406,1.12982846,0.25672913,3.09991645,-1.59109385,-2.72291122,-0.02307312,1.13337940,0.25676465,3.09953498,-1.59834178,-2.96561440,-0.01144409,1.18285275,0.25672913,-0.00488281,-0.00488281,0.35644531,-0.02929688,-0.26367188,-0.01464844,-1.94282532,1.95173683,1.83334351,0.80566406
3.79922462,1295,3.09991645,-1.59071238,-2.71155556,-0.02632141,1.12563229,0.25711060,3.09991645,-1.59109385,-2.71666916,-0.02471502,1.12919381,0.25692692,3.09953498,-1.59834178,-2.96103676,-0.01220703,1.17980099,0.25672913,-0.00488281,-0.00488281,0.32226562,-0.05859375,-0.17578125,-0.01464844,-1.94244385,1.95190072,1.84478760,0.75683594
3.81480646,1300,3.09991645,-1.59071238,-2.70468911,-0.02861023,1.12258053,0.25711060,3.09991645,-1.59109385,-2.71007957,-0.02682359,1.12549074,0.25696252,3.09953498,-1.59796031,-2.95569619,-0.01296997,1.17598630,0.25672913,-0.00488281,0.01953125,0.32226562,-0.07324219,-0.27832031,-0.01464844,-1.94244385,1.95201692,1.85890198,0.95214844
3.83013630,1305,3.09991645,-1.59071238,-2.69934853,-0.03128052,1.12029172,0.25672913,3.09991645,-1.59109385,-2.70345277,-0.02946656,1.12227853,0.25680560,3.09953498,-1.59796031,-2.95073708,-0.01449585,1.16911984,0.25672913,0.00000000,0.00976562,0.35156250,-0.10253906,-0.42480469,-0.01464844,-1.94206238,1.95244293,1.86958313,0.61035156
3.84343266,1310,3.09991645,-1.59071238,-2.69324501,-0.03395081,1.11838437,0.25672913,3.09991645,-1.59109385,-2.69750102,-0.03204147,1.11991090,0.25679325,3.09953498,-1.59796031,-2.94730385,-0.01525879,1.16492367,0.25672913,-0.00488281,0.00488281,0.31250000,-0.10253906,-0.38085938,-0.01464844,-1.94206238,1.95264503,1.87492371,0.48828125
3.86116099,1315,3.09991645,-1.59071238,-2.68561562,-0.03700256,1.11800290,0.25672913,3.09991645,-1.59109385,-2.69126755,-0.03465474,1.11865936,0.25675014,3.09953498,-1.59757884,-2.94120034,-0.01754761,1.16110898,0.25672913,-0.00488281,0.00976562,0.30273438,-0.13183594,-0.14648438,0.00000000,-1.94206238,1.95271125,1.88674927,0.51269531
3.87513089,1320,3.09991645,-1.59071238,-2.68180092,-0.03967285,1.11838437,0.25672913,3.09991645,-1.59109385,-2.68564367,-0.03740694,1.11844323,0.25673601,3.09953498,-1.59719737,-2.93624123,-0.01907349,1.15958310,0.25672913,-0.00488281,0.00488281,0.34667969,-0.13183594,-0.11718750,0.00000000,-1.94206238,1.95273295,1.89743042,0.73242188
3.89063597,1325,3.09991645,-1.59071238,-2.67646035,-0.04386902,1.11914731,0.25672913,3.09991645,-1.59109385,-2.68030255,-0.04112994,1.11870517,0.25673138,3.09953498,-1.59719737,-2.93051918,-0.02021790,1.15653134,0.25672913,-0.00488281,-0.00488281,0.38085938,-0.05859375,-0.14648438,-0.02929688,-1.94206238,1.95274006,1.90162659,0.12207031
3.90589285,1330,3.09991645,-1.59071238,-2.67111977,-0.04959106,1.11914731,0.25672913,3.09991645,-1.59109385,-2.67522986,-0.04559831,1.11900243,0.25672987,3.09953498,-1.59719737,-2.92556008,-0.02098083,1.15424252,0.25672913,-0.00488281,0.00000000,0.34667969,-0.05859375,-0.14648438,-0.01464844,-1.94206238,1.95266427,1.90544128,0.36621094
3.91886854,1335,3.09991645,-1.59071238,-2.66768654,-0.05378723,1.12105465,0.25672913,3.09991645,-1.59109385,-2.67086244,-0.05010047,1.11991099,0.25672937,3.09953498,-1.59719737,-2.92174538,-0.02250671,1.15195370,0.25672913,0.00000000,0.00488281,0.33691406,-0.11718750,-0.20507812,-0.01464844,-1.94206238,1.95271756,1.91078186,0.36621094
3.93497252,1340,3.09991645,-1.59071238,-2.66349037,-0.05874634,1.12525082,0.25672913,3.09991645,-1.59109385,-2.66671562,-0.05472429,1.12264267,0.25672921,3.09953498,-1.59719737,-2.91602333,-0.02479553,1.14661313,0.25672913,-0.00488281,0.00488281,0.33203125,-0.14648438,-0.35156250,-0.02929688,-1.94168091,1.95316983,1.91726685,0.43945312
3.94851685,1345,3.09991645,-1.59071238,-2.66005715,-0.06294250,1.12982846,0.25672913,3.09991645,-1.59109385,-2.66310179,-0.05931646,1.12632147,0.25672915,3.09953498,-1.59719737,-2.91335305,-0.02708435,1.14356137,0.25672913,-0.00976562,-0.00488281,0.33203125,-0.19042969,-0.19042969,-0.01464844,-1.94168091,1.95339616,1.92184448,0.34179688
3.96279860,1350,3.09991645,-1.59071238,-2.65700539,-0.06752014,1.13478756,0.25672913,3.09991645,-1.59109385,-2.65961536,-0.06388909,1.13089035,0.25672913,3.09953498,-1.59719737,-2.90724953,-0.02975464,1.14165402,0.25672913,-0.00976562,0.00000000,0.32714844,-0.23437500,-0.07324219,-0.02929688,-1.94168091,1.95347032,1.92413330,0.09765625
3.97560334,1355,3.09991645,-1.59071238,-2.65433510,-0.07057190,1.13936520,0.25672913,3.09991645,-1.59109385,-2.65657754,-0.06776977,1.13576297,0.25672913,3.09953498,-1.59681590,-2.90305336,-0.03128052,1.14127255,0.25672913,-0.00488281,0.00000000,0.33203125,-0.13183594,-0.04394531,-0.01464844,-1.94206238,1.95334204,1.92832947,0.41503906
3.99026275,1360,3.09991645,-1.59071238,-2.65128334,-0.07667542,1.14661313,0.25672913,3.09991645,-1.59109385,-2.65358162,-0.07241102,1.14156116,0.25658020,3.09953498,-1.59681590,-2.89809426,-0.03433228,1.14089108,0.25672913,-0.00976562,0.00000000,0.36621094,-0.20507812,0.01464844,0.00000000,-1.94168091,1.95339009,1.93519592,0.26855469
4.00514841,1365,3.09991645,-1.59071238,-2.64861306,-0.08201599,1.15386105,0.25634766,3.09991645,-1.59109385,-2.65090229,-0.07756395,1.14801519,0.25647268,3.09953498,-1.59681590,-2.89275368,-0.03776550,1.14165402,0.25672913,0.00000000,0.00000000,0.35156250,-0.23437500,0.07324219,-0.01464844,-1.94168091,1.95354646,1.93443298,-0.02441406
4.01788640,1370,3.09991645,-1.59071238,-2.64708718,-0.08621216,1.15882016,0.25634766,3.09991645,-1.59109385,-2.64873819,-0.08233827,1.15407158,0.25656880,3.09953498,-1.59681590,-2.88855751,-0.04005432,1.14203549,0.25672913,-0.00488281,0.00000000,0.31738281,-0.19042969,0.04394531,-0.01464844,-1.94168091,1.95351957,1.93481445,-0.02441406
4.03061891,1375,3.09991645,-1.59071238,-2.64632424,-0.08926392,1.16492367,0.25634766,3.09991645,-1.59109385,-2.64721680,-0.08637294,1.16011668,0.25651241,3.09953498,-1.59681590,-2.88474282,-0.04234314,1.14203549,0.25672913,-0.00976562,0.00000000,0.34667969,-0.21972656,0.01464844,-0.01464844,-1.94206238,1.95343630,1.93481445,-0.02441406
4.04407358,1380,3.09991645,-1.59071238,-2.64517983,-0.09231567,1.17255307,0.25672913,3.09991645,-1.59109385,-2.64614662,-0.08940010,1.16631239,0.25647794,3.09953498,-1.59681590,-2.88016518,-0.04577637,1.14241696,0.25672913,-0.00488281,0.00488281,0.31738281,-0.24902344,0.05859375,-0.01464844,-1.94206238,1.95320882,1.93595886,0.07324219
4.05804086,1385,3.09991645,-1.59071238,-2.64441689,-0.09574890,1.17980099,0.25634766,3.09991645,-1.59109385,-2.64519511,-0.09306403,1.17388251,0.25642941,3.09953498,-1.59643443,-2.87596901,-0.04920959,1.14356137,0.25672913,-0.00976562,0.00488281,0.28808594,-0.23437500,0.11718750,-0.01464844,-1.94206238,1.95319385,1.93939209,0.21972656
4.07170582,1390,3.09991645,-1.59071238,-2.64403542,-0.09880066,1.18628598,0.25634766,3.09991645,-1.59109385,-2.64453457,-0.09640086,1.18112835,0.25642327,3.09953498,-1.59643443,-2.87177285,-0.05187988,1.14470578,0.25672913,-0.00976562,-0.00488281,0.33203125,-0.23437500,0.07324219,-0.01464844,-1.94206238,1.95289109,1.93977356,0.02441406
4.08394575,1395,3.09991645,-1.59071238,-2.64365395,-0.10108948,1.19200802,0.25634766,3.09991645,-1.59109385,-2.64401282,-0.09902089,1.18716709,0.25637243,3.09953498,-1.59643443,-2.86795815,-0.05455017,1.14546872,0.25672913,-0.00488281,-0.00488281,0.30761719,-0.21972656,0.07324219,-0.02929688,-1.94244385,1.95263929,1.94015503,0.00000000
4.09894276,1400,3.09991645,-1.59071238,-2.64250954,-0.10414124,1.19963742,0.25634766,3.09991645,-1.59109385,-2.64321356,-0.10178078,1.19377282,0.25635578,3.09953498,-1.59643443,-2.86376198,-0.05798340,1.14699460,0.25672913,-0.00976562,-0.00488281,0.28808594,-0.21972656,0.13183594,0.00000000,-1.94206238,1.95234902,1.94091797,0.04882812
4.11316299,1405,3.09991645,-1.59071238,-2.64174660,-0.10643005,1.20459652,0.25634766,3.09991645,-1.59109385,-2.64237768,-0.10431625,1.19982813,0.25635032,3.09953498,-1.59643443,-2.85956581,-0.05989075,1.14966488,0.25672913,-0.00488281,0.00000000,0.30273438,-0.24902344,0.21972656,-0.02929688,-1.94244385,1.95216382,1.94244385,0.12207031
4.12621641,1410,3.09991645,-1.59071238,-2.64098366,-0.10833740,1.21031857,0.25634766,3.09991645,-1.59109385,-2.64151077,-0.10653098,1.20574923,0.25634853,3.09953498,-1.59605296,-2.85575112,-0.06523132,1.15309811,0.25672913,-0.00488281,0.00488281,0.28808594,-0.27832031,0.27832031,-0.01464844,-1.94244385,1.95204063,1.94511414,0.09765625
4.13975930,1415,3.09991645,-1.59071238,-2.63983925,-0.11024475,1.21413327,0.25634766,3.09991645,-1.59109385,-2.64059840,-0.10866601,1.21067212,0.25634794,3.09953498,-1.59605296,-2.85193642,-0.06790161,1.15729428,0.25672913,-0.00976562,0.00488281,0.30273438,-0.23437500,0.33691406,-0.01464844,-1.94244385,1.95200026,1.94511414,-0.04882812
4.15303421,1420,3.09991645,-1.59071238,-2.63945778,-0.11138916,1.21565915,0.25634766,3.09991645,-1.59109385,-2.63986279,-0.11027613,1.21365537,0.25634775,3.09953498,-1.59605296,-2.84812172,-0.07095337,1.16263485,0.25672913,-0.00488281,0.00488281,0.29785156,-0.23437500,0.46875000,-0.01464844,-1.94244385,1.95186497,1.94511414,0.00000000
4.16775131,1425,3.09991645,-1.59071238,-2.63831337,-0.11215210,1.21794797,0.25634766,3.09991645,-1.59109385,-2.63903251,-0.11150613,1.21606041,0.25634769,3.09953498,-1.59605296,-2.84430703,-0.07324219,1.16721249,0.25672913,0.00000000,0.00488281,0.27343750,-0.20507812,0.23437500,-0.02929688,-1.94320679,1.95115511,1.94549561,0.02441406
4.18041778,1430,3.09991645,-1.59071238,-2.63716896,-0.11253357,1.22061825,0.25634766,3.09991645,-1.59109385,-2.63811018,-0.11207776,1.21849339,0.25634767,3.09953498,-1.59567149,-2.83972939,-0.07591248,1.17255307,0.25672913,-0.00488281,0.00488281,0.30273438,-0.20507812,0.32226562,0.00000000,-1.94320679,1.95056215,1.94625854,0.00000000
4.19574499,1435,3.09991645,-1.59071238,-2.63564308,-0.11253357,1.22290707,0.25634766,3.09991645,-1.59109385,-2.63679135,-0.11238421,1.22095836,0.25634766,3.09953498,-1.59567149,-2.83629616,-0.07858276,1.17522336,0.25634766,-0.00488281,-0.00488281,0.27832031,-0.23437500,0.19042969,-0.01464844,-1.94396973,1.94976482,1.94664001,0.04882812
4.21196342,1440,3.09991645,-1.59071238,-2.63373574,-0.11253357,1.22481442,0.25634766,3.09991645,-1.59109385,-2.63523797,-0.11248463,1.22341805,0.25634766,3.09953498,-1.59567149,-2.83133705,-0.08201599,1.17903805,0.25672913,0.00000000,-0.00488281,0.25390625,-0.21972656,0.21972656,0.00000000,-1.94892883,1.94565760,1.94969177,0.17089844
4.22906423,1445,3.09991645,-1.59071238,-2.63220986,-0.11253357,1.22443295,0.25634766,3.09991645,-1.59109385,-2.63360299,-0.11251753,1.22421953,0.25634766,3.09953498,-1.59567149,-2.82790383,-0.08430481,1.18247128,0.25634766,-0.00488281,0.00488281,0.24414062,-0.16113281,0.24902344,-0.01464844,-1.95465088,1.93605906,1.95007324,0.00000000
4.24377513,1450,3.09991645,-1.59071238,-2.63106545,-0.11253357,1.22443295,0.25634766,3.09991645,-1.59109385,-2.63207859,-0.11252831,1.22439427,0.25634766,3.09953498,-1.59567149,-2.82370766,-0.08697510,1.18437863,0.25634766,-0.00488281,0.00488281,0.25390625,-0.17578125,0.11718750,-0.01464844,-1.95579529,1.92937402,1.95007324,0.00000000
4.25935698,1455,3.09991645,-1.59071238,-2.62915810,-0.11253357,1.22443295,0.25634766,3.09991645,-1.59109385,-2.63047690,-0.11253185,1.22442027,0.25634766,3.09953498,-1.59567149,-2.81913002,-0.08964539,1.18781186,0.25672913,-0.00488281,-0.00488281,0.29296875,-0.19042969,0.26367188,-0.01464844,-1.96151733,1.92182726,1.94969177,-0.04882812
4.27208948,1460,3.09991645,-1.59071238,-2.62801369,-0.11253357,1.22405148,0.25634766,3.09991645,-1.59109385,-2.62904154,-0.11253301,1.22424264,0.25634766,3.09953498,-1.59567149,-2.81607827,-0.09117126,1.19086361,0.25634766,-0.00488281,-0.00488281,0.25878906,-0.13183594,0.27832031,-0.01464844,-1.96914673,1.90927231,1.94969177,-0.02441406
4.28869128,1465,3.09991645,-1.59071238,-2.62610634,-0.11177063,1.22328854,0.25634766,3.09991645,-1.59109385,-2.62742020,-0.11223187,1.22372032,0.25640869,3.09953498,-1.59529002,-2.81226357,-0.09269714,1.19391537,0.25634766,-0.00488281,0.01464844,0.23437500,-0.10253906,0.27832031,-0.02929688,-1.97982788,1.89110897,1.94931030,-0.07324219
4.30140376,1470,3.09991645,-1.59071238,-2.62496193,-0.11138916,1.22328854,0.25672913,3.09991645,-1.59109385,-2.62609802,-0.11178444,1.22343003,0.25655381,3.09953498,-1.59490855,-2.80844887,-0.09384155,1.19696713,0.25634766,-0.00488281,0.00000000,0.26855469,-0.10253906,0.23437500,-0.02929688,-1.98936462,1.87264868,1.94854736,-0.07324219
4.31642103,1475,3.09991645,-1.59071238,-2.62381752,-0.10986328,1.22290707,0.25672913,3.09991645,-1.59109385,-2.62484654,-0.11077454,1.22325861,0.25667168,3.09953498,-1.59490855,-2.80463417,-0.09536743,1.19773007,0.25634766,-0.00976562,0.00000000,0.25390625,-0.10253906,0.04394531,-0.01464844,-1.99851990,1.85477442,1.94091797,-0.61035156
